; HEADER_BLOCK_START
; generated by OrcaSlicer 2.3.1-beta on 2025-12-06 at 16:36:09
; total layer number: 75
; filament_density: 1.25
; filament_diameter: 1.75
; max_z_height: 15.00
; HEADER_BLOCK_END

; THUMBNAIL_BLOCK_START

;
; THUMBNAIL_BLOCK_END

; THUMBNAIL_BLOCK_START

;
; THUMBNAIL_BLOCK_END

; external perimeters extrusion width = 0.42mm
; perimeters extrusion width = 0.45mm
; infill extrusion width = 0.45mm
; solid infill extrusion width = 0.42mm
; top infill extrusion width = 0.42mm
; support material extrusion width = 0.42mm
; first layer extrusion width = 0.50mm

; EXECUTABLE_BLOCK_START
EXCLUDE_OBJECT_DEFINE NAME=모터_가이드.STL_id_0_copy_0 CENTER=150,150 POLYGON=[[130,155],[130.062,154.218],[130.245,153.455],[150.245,103.455],[150.545,102.73],[150.955,102.061],[151.464,101.464],[152.061,100.955],[152.73,100.545],[153.455,100.245],[154.218,100.062],[155,100],[170,100],[170,200],[130,200],[130,155]]
M73 P0 R44
M106 S0
M106 P2 S0
;TYPE:Custom
M140 S0
M104 S0
M190 S55
M808 L20
G4 P13500
M808
START_PRINT EXTRUDER_TEMP=220 BED_TEMP=55
G90
G21
M83 ; use relative distances for extrusion
; Filament gcode
M106 S0
M106 P2 S0
;LAYER_CHANGE
;Z:0.2
;HEIGHT:0.2
;BEFORE_LAYER_CHANGE
;0.2
G92 E0

G1 E-.6 F2400
;_SET_FAN_SPEED_CHANGING_LAYER
SET_VELOCITY_LIMIT ACCEL=500 ACCEL_TO_DECEL=250
SET_VELOCITY_LIMIT SQUARE_CORNER_VELOCITY=9
EXCLUDE_OBJECT_START NAME=모터_가이드.STL_id_0_copy_0
G1 Z.4 F30000
G1 X134.764 Y200.93
G1 Z.4
G1 Z.2
G1 E.6 F2400
;TYPE:Support
;WIDTH:0.5
G1 F3600
G1 X134.764 Y204.464 E.13164
G1 X135.044 Y204.842 E.01753
G1 X135.272 Y205.033 E.01107
G1 X135.272 Y200.861 E.15539
G1 X135.78 Y200.861 E.01892
G1 X135.78 Y205.407 E.1693
G1 X136.288 Y205.632 E.0207
G1 X136.288 Y200.861 E.1777
G1 X136.795 Y200.861 E.01892
G1 X136.795 Y205.734 E.1815
G1 X137.144 Y205.788 E.01314
G1 X137.303 Y205.769 E.00597
G1 X137.303 Y200.861 E.18278
G1 X137.811 Y200.861 E.01892
G1 X137.811 Y205.708 E.18051
G1 X137.926 Y205.694 E.0043
G1 X138.319 Y205.533 E.01583
G1 X138.319 Y200.861 E.17399
G1 X138.827 Y200.861 E.01892
G1 X138.827 Y205.262 E.16392
G1 X139.273 Y204.913 E.02111
G1 X139.335 Y204.832 E.00381
G1 X139.335 Y200.926 E.14548
G1 X139.661 Y201.319 E.01903
G1 X139.843 Y201.708 E.016
G1 X139.843 Y204.498 E.10392
G1 X139.747 Y200.771 F30000
G1 F3600
G1 X139.463 Y200.45 E.01598
G1 X134.943 Y200.45 E.16834
G1 X134.699 Y200.661 E.01203
G1 X134.22 Y201.357 E.03146
G1 X133.952 Y202.103 E.02953
G1 X133.889 Y202.523 E.0158
G1 X133.865 Y203.031 E.01897
G1 X133.993 Y203.791 E.02868
G1 X134.196 Y204.307 E.02066
G1 X134.38 Y204.637 E.01407
G1 X134.743 Y205.126 E.02266
G1 X135.364 Y205.648 E.03022
G1 X135.677 Y205.819 E.01329
G1 X136.263 Y206.069 E.02376
G1 X137.138 Y206.203 E.03294
G1 X138.03 Y206.096 E.03349
G1 X138.837 Y205.765 E.03248
G1 X139.109 Y205.566 E.01254
G1 X139.57 Y205.204 E.02184
G1 X140.102 Y204.496 E.03299
G1 X140.43 Y203.665 E.03328
G1 X140.539 Y202.653 E.03788
G1 X140.945 Y202.614 E.01518
G1 X141.007 Y202.816 E.00784
G1 X141.208 Y203.255 E.01798
G1 X141.691 Y203.89 E.02974
G1 X142.097 Y204.214 E.01932
G1 X142.494 Y204.469 E.01759
G1 X143.3 Y204.749 E.03177
G1 X144.202 Y204.786 E.03363
G1 X145.058 Y204.565 E.03292
G1 X145.864 Y204.075 E.03515
G1 X146.453 Y203.421 E.03277
G1 X146.837 Y202.604 E.03364
G1 X146.969 Y201.713 E.03352
G1 X146.836 Y200.814 E.03386
G1 X146.665 Y200.45 E.01498
G1 X141.078 Y200.45 E.2081
G1 X141.007 Y200.604 E.00632
G1 X140.871 Y201.046 E.01723
G1 X140.809 Y201.479 E.01627
G1 X140.809 Y201.878 E.01489
G1 X140.417 Y201.965 E.01495
G1 X140.013 Y201.101 E.03552
G1 X139.793 Y200.823 E.01324
G1 X141.366 Y200.656 F30000
G1 F3600
G1 X141.366 Y202.584 E.07183
G1 X141.563 Y203.042 E.01856
G1 X141.874 Y203.451 E.01915
G1 X141.874 Y200.861 E.09646
G1 X142.382 Y200.861 E.01892
G1 X142.382 Y203.908 E.11347
G1 X142.675 Y204.096 E.01298
G1 X142.89 Y204.171 E.00846
G1 X142.89 Y200.861 E.12326
G1 X143.398 Y200.861 E.01892
G1 X143.398 Y204.341 E.1296
G1 X143.906 Y204.362 E.01893
G1 X143.906 Y200.861 E.13038
G1 X144.413 Y200.861 E.01892
G1 X144.413 Y204.306 E.12831
G1 X144.921 Y204.169 E.01959
G1 X144.921 Y200.861 E.1232
G1 X145.429 Y200.861 E.01892
G1 X145.429 Y203.866 E.11189
G1 X145.595 Y203.759 E.00736
G1 X145.937 Y203.379 E.01902
G1 X145.937 Y200.861 E.09377
G1 X146.404 Y200.861 E.01738
G1 X146.438 Y200.935 E.00302
G1 X146.445 Y202.954 E.07522
G1 X147.969 Y203.01 F30000
G1 F3600
G1 X147.969 Y200.98 E.0756
G1 X148.005 Y200.861 E.00461
G1 X148.476 Y200.861 E.01756
G1 X148.476 Y203.393 E.09429
G1 X148.634 Y203.6 E.00971
G1 X148.984 Y203.879 E.01667
G1 X148.984 Y200.861 E.11241
G1 X149.492 Y200.861 E.01892
G1 X149.492 Y204.155 E.12269
G1 X150 Y204.332 E.02002
G1 X150 Y200.861 E.12926
G1 X150.508 Y200.861 E.01892
G1 X150.508 Y204.36 E.13031
G1 X150.805 Y204.372 E.01108
G1 X151.016 Y204.318 E.00811
G1 X151.016 Y200.861 E.12874
G1 X151.524 Y200.861 E.01892
G1 X151.524 Y204.187 E.12387
G1 X151.548 Y204.181 E.00093
G1 X152.031 Y203.894 E.02095
G1 X152.031 Y200.861 E.11296
G1 X152.539 Y200.861 E.01892
G1 X152.539 Y203.428 E.09561
G1 X152.922 Y203.003 E.02131
G1 X153.047 Y203.307 E.01223
G1 X153.05 Y200.861 E.09107
G1 X153.318 Y201.431 E.02344
G1 X153.555 Y201.152 E.01362
G1 X153.555 Y204.439 E.12243
G1 X153.603 Y204.526 E.00369
G1 X154.063 Y205.068 E.02646
G1 X154.063 Y200.861 E.15667
G1 X154.571 Y200.861 E.01892
G1 X154.571 Y205.439 E.17052
G1 X154.769 Y205.565 E.00875
G1 X155.079 Y205.679 E.01228
G1 X155.079 Y200.861 E.17945
G1 X155.587 Y200.861 E.01892
G1 X155.587 Y205.839 E.18539
G1 X156.094 Y205.888 E.019
G1 X156.094 Y200.861 E.18721
G1 X156.602 Y200.861 E.01892
G1 X156.602 Y205.857 E.18606
G1 X157.11 Y205.754 E.0193
G1 X157.11 Y200.861 E.18223
G1 X157.618 Y200.861 E.01892
G1 X157.618 Y205.529 E.17385
G1 X157.779 Y205.458 E.00654
G1 X158.126 Y205.181 E.01655
G1 X158.126 Y200.861 E.16087
G1 X158.634 Y200.861 E.01892
G1 X158.634 Y204.652 E.14118
G1 X158.874 Y204.321 E.01523
G1 X159.142 Y203.659 E.02659
G1 X159.142 Y200.861 E.10421
G1 X159.649 Y200.861 E.01892
G1 X159.649 Y203.78 E.10871
G1 X160.141 Y204.096 E.02178
G1 X160.157 Y204.102 E.00063
G1 X160.157 Y200.861 E.1207
G1 X160.665 Y200.861 E.01892
G1 X160.665 Y204.278 E.12726
G1 X160.843 Y204.34 E.00703
G1 X161.173 Y204.354 E.01229
G1 X161.173 Y200.861 E.13007
G1 X161.681 Y200.861 E.01892
G1 X161.681 Y204.358 E.13022
G1 X162.189 Y204.227 E.01953
G1 X162.189 Y200.861 E.12535
G1 X162.697 Y200.861 E.01892
G1 X162.697 Y203.991 E.11655
G1 X163.062 Y203.759 E.0161
G1 X163.205 Y203.6 E.00796
G1 X163.205 Y200.861 E.102
G1 X163.712 Y200.861 E.01892
G1 X163.712 Y203.343 E.09243
G1 X153.419 Y200.678 F30000
G1 F3600
G1 X153.612 Y200.45 E.01112
G1 X164.131 Y200.45 E.39179
G1 X164.302 Y200.814 E.01498
G1 X164.435 Y201.713 E.03386
G1 X164.303 Y202.604 E.03352
G1 X163.919 Y203.421 E.03364
G1 X163.33 Y204.075 E.03277
G1 X162.524 Y204.565 E.03515
G1 X161.668 Y204.786 E.03292
G1 X160.766 Y204.749 E.03363
G1 X159.96 Y204.469 E.03177
G1 X159.403 Y204.111 E.02467
G1 X159.237 Y204.522 E.01652
G1 X158.687 Y205.259 E.03424
G1 X157.994 Y205.812 E.03304
G1 X157.195 Y206.166 E.03252
G1 X156.727 Y206.255 E.01776
G1 X156.261 Y206.317 E.01753
G1 X155.392 Y206.233 E.0325
G1 X154.586 Y205.936 E.032
G1 X154.171 Y205.673 E.01832
G1 X153.786 Y205.378 E.01804
G1 X153.262 Y204.761 E.03014
G1 X153.022 Y204.323 E.01862
G1 X152.791 Y203.764 E.02252
G1 X152.511 Y204.075 E.01558
G1 X151.705 Y204.565 E.03515
G1 X150.849 Y204.786 E.03292
G1 X149.947 Y204.749 E.03363
G1 X149.141 Y204.469 E.03177
G1 X148.744 Y204.214 E.01759
G1 X148.338 Y203.89 E.01932
G1 X147.854 Y203.255 E.02974
G1 X147.654 Y202.816 E.01798
G1 X147.517 Y202.374 E.01723
G1 X147.455 Y201.941 E.01627
G1 X147.455 Y201.479 E.01723
G1 X147.517 Y201.046 E.01627
G1 X147.654 Y200.604 E.01723
G1 X147.724 Y200.45 E.00632
G1 X153.312 Y200.45 E.2081
G1 X153.389 Y200.616 E.00681
;WIPE_START
G1 X153.312 Y200.45 E-.05488
G1 X151.494 Y200.45 E-.54512
;WIPE_END
G1 Z.4 F30000
G1 X163.596 Y204.442 Z.4
G1 Z.2
G1 E.6 F2400
;TYPE:Brim
G1 F3600
G1 X163.66 Y204.392 E.00302
G1 X164.306 Y203.66 E.03638
G1 X164.743 Y202.719 E.03863
G1 X164.889 Y201.663 E.03972
G1 X164.742 Y200.697 E.03637
G1 X164.579 Y200.329 E.01502
G1 X170 Y200.329 E.20192
G1 X170.116 Y200.304 E.00442
G1 X170.253 Y200.195 E.00652
G1 X170.3 Y200.111 E.00361
G1 X170.329 Y200 E.00426
G1 X170.32 Y99.937 E3.72697
G1 X170.304 Y99.884 E.00206
G1 X170.195 Y99.747 E.00652
G1 X170.111 Y99.7 E.00361
G1 X170 Y99.671 E.00426
G1 X154.982 Y99.672 E.55937
G1 X154.141 Y99.742 E.03143
G1 X153.329 Y99.941 E.03112
G1 X152.573 Y100.258 E.03054
G1 X151.89 Y100.675 E.02981
G1 X151.251 Y101.214 E.03114
G1 X150.696 Y101.86 E.03173
G1 X150.258 Y102.573 E.03115
G1 X149.936 Y103.344 E.03114
G1 X149.734 Y104.192 E.03246
G1 X149.671 Y105 E.03018
G1 X149.671 Y144.987 E1.48937
G1 X149.613 Y145.731 E.02778
G1 X149.442 Y146.443 E.0273
G1 X149.161 Y147.12 E.0273
G1 X148.778 Y147.745 E.0273
G1 X148.302 Y148.303 E.0273
G1 X147.745 Y148.778 E.0273
G1 X147.12 Y149.161 E.0273
G1 X146.448 Y149.44 E.02711
G1 X145.73 Y149.613 E.02749
G1 X144.987 Y149.671 E.02777
G1 X135 Y149.671 E.37198
G1 X134.157 Y149.74 E.0315
G1 X133.344 Y149.936 E.03115
G1 X132.59 Y150.249 E.03039
G1 X131.876 Y150.684 E.03115
G1 X131.226 Y151.24 E.03187
G1 X130.696 Y151.86 E.03039
G1 X130.258 Y152.573 E.03115
G1 X129.925 Y153.379 E.03247
G1 X129.734 Y154.192 E.03113
G1 X129.671 Y155 E.03018
G1 X129.671 Y200 E1.67608
G1 X129.696 Y200.116 E.00442
G1 X129.805 Y200.253 E.00652
G1 X129.889 Y200.3 E.00361
G1 X130 Y200.329 E.00426
G1 X134.39 Y200.329 E.16351
G1 X134.331 Y200.39 E.00319
G1 X133.835 Y201.11 E.03256
G1 X133.501 Y202.025 E.03626
G1 X133.433 Y202.496 E.01774
G1 X133.412 Y203.096 E.02235
G1 X133.551 Y203.902 E.03046
G1 X133.758 Y204.442 E.02155
G1 X130.008 Y204.442 E.13967
G1 X129.36 Y204.394 E.02422
G1 X128.737 Y204.254 E.02377
G1 X127.894 Y203.897 E.03411
G1 X127.276 Y203.5 E.02737
G1 X126.797 Y203.074 E.02386
G1 X126.386 Y202.581 E.0239
G1 X126.053 Y202.036 E.0238
G1 X125.742 Y201.25 E.03148
G1 X125.596 Y200.57 E.02589
G1 X125.558 Y199.992 E.02157
G1 X125.558 Y155.008 E1.67552
G1 X125.632 Y153.878 E.04214
G1 X125.74 Y153.194 E.0258
G1 X125.922 Y152.433 E.02914
G1 X126.137 Y151.768 E.02605
G1 X126.435 Y151.045 E.02914
G1 X126.751 Y150.421 E.02604
G1 X127.159 Y149.753 E.02914
G1 X127.569 Y149.187 E.02605
G1 X128.076 Y148.591 E.02914
G1 X128.57 Y148.096 E.02605
G1 X129.164 Y147.587 E.02914
G1 X129.729 Y147.175 E.02605
G1 X130.396 Y146.766 E.02914
G1 X131.018 Y146.447 E.02604
G1 X131.74 Y146.147 E.02914
G1 X132.405 Y145.93 E.02605
G1 X133.166 Y145.746 E.02914
G1 X133.856 Y145.635 E.02605
G1 X134.64 Y145.572 E.0293
G1 X134.997 Y145.558 E.01328
G1 X144.816 Y145.558 E.36575
G1 X145.065 Y145.539 E.00928
M73 P0 R43
G1 X145.212 Y145.498 E.0057
G1 X145.403 Y145.359 E.0088
G1 X145.503 Y145.201 E.00696
G1 X145.558 Y144.816 E.01447
G1 X145.558 Y105.004 E1.48285
G1 X145.571 Y104.657 E.01297
G1 X145.632 Y103.88 E.02902
G1 X145.74 Y103.194 E.02586
G1 X145.922 Y102.433 E.02914
G1 X146.137 Y101.768 E.02605
G1 X146.435 Y101.045 E.02914
G1 X146.751 Y100.421 E.02605
G1 X147.159 Y99.753 E.02914
G1 X147.569 Y99.187 E.02605
G1 X148.076 Y98.591 E.02914
G1 X148.57 Y98.096 E.02604
G1 X149.164 Y97.587 E.02914
G1 X149.729 Y97.175 E.02605
G1 X150.396 Y96.766 E.02914
G1 X151.018 Y96.447 E.02604
G1 X151.74 Y96.147 E.02914
G1 X152.405 Y95.93 E.02605
G1 X153.166 Y95.746 E.02914
G1 X153.855 Y95.635 E.02599
G1 X155 Y95.558 E.04275
G1 X169.991 Y95.558 E.55838
G1 X170.64 Y95.606 E.02422
G1 X171.262 Y95.746 E.02377
G1 X172.106 Y96.103 E.03411
G1 X172.724 Y96.5 E.02737
G1 X173.203 Y96.926 E.02386
G1 X173.614 Y97.419 E.0239
G1 X173.947 Y97.964 E.02378
G1 X174.273 Y98.802 E.0335
G1 X174.404 Y99.429 E.02386
G1 X174.442 Y100.008 E.02159
G1 X174.442 Y199.992 E3.72402
G1 X174.394 Y200.64 E.02422
G1 X174.254 Y201.261 E.02373
G1 X173.851 Y202.189 E.03766
G1 X173.501 Y202.724 E.02381
G1 X173.074 Y203.203 E.0239
G1 X172.581 Y203.614 E.0239
G1 X172.036 Y203.947 E.02378
G1 X171.198 Y204.273 E.0335
G1 X170.571 Y204.404 E.02386
G1 X169.992 Y204.442 E.02159
G1 X163.636 Y204.442 E.23674
G1 X164.77 Y203.937 F30000
G1 F3600
G1 X164.75 Y203.79 E.00553
G1 X165.154 Y202.921 E.03571
G1 X165.197 Y202.771 E.0058
G1 X165.341 Y201.735 E.03897
G1 X165.34 Y201.584 E.00563
G1 X165.242 Y200.943 E.02413
G1 X165.273 Y200.833 E.00426
G1 X165.377 Y200.786 E.00425
G1 X170.107 Y200.773 E.17616
G1 X170.194 Y200.755 E.00331
G1 X170.414 Y200.652 E.00906
G1 X170.527 Y200.561 E.00541
G1 X170.694 Y200.343 E.01023
G1 X170.77 Y200.118 E.00884
G1 X170.786 Y199.991 E.00475
G1 X170.777 Y99.946 E3.72629
G1 X170.758 Y99.812 E.00505
M73 P1 R43
G1 X170.652 Y99.586 E.00929
G1 X170.561 Y99.473 E.00541
G1 X170.409 Y99.344 E.00743
G1 X170.218 Y99.257 E.00783
G1 X169.988 Y99.214 E.00872
G1 X154.939 Y99.217 E.56051
G1 X154.022 Y99.301 E.03427
G1 X153.143 Y99.523 E.03378
G1 X152.405 Y99.832 E.02979
G1 X151.66 Y100.28 E.0324
G1 X150.964 Y100.859 E.03373
G1 X150.356 Y101.555 E.0344
G1 X149.832 Y102.406 E.03726
G1 X149.489 Y103.248 E.03384
G1 X149.278 Y104.167 E.03512
G1 X149.214 Y105.005 E.03131
G1 X149.214 Y144.964 E1.48831
G1 X149.158 Y145.669 E.02637
G1 X149.002 Y146.312 E.02461
G1 X148.757 Y146.902 E.02381
G1 X148.401 Y147.484 E.02541
G1 X147.985 Y147.97 E.02381
G1 X147.484 Y148.401 E.02461
G1 X146.902 Y148.757 E.02541
G1 X146.296 Y149.006 E.02443
G1 X145.669 Y149.158 E.02401
G1 X144.964 Y149.214 E.02635
G1 X135.006 Y149.214 E.37089
G1 X134.04 Y149.298 E.03612
G1 X133.16 Y149.518 E.03377
G1 X132.344 Y149.864 E.03304
G1 X131.648 Y150.288 E.03037
G1 X130.872 Y150.951 E.03801
G1 X130.301 Y151.629 E.03301
G1 X129.874 Y152.324 E.03036
G1 X129.478 Y153.284 E.0387
G1 X129.278 Y154.167 E.0337
G1 X129.214 Y155.005 E.03132
G1 X129.214 Y199.989 E1.6755
G1 X129.246 Y200.197 E.00781
G1 X129.348 Y200.414 E.00892
G1 X129.439 Y200.527 E.00541
G1 X129.657 Y200.694 E.01023
G1 X129.882 Y200.77 E.00884
G1 X130.009 Y200.786 E.00475
G1 X133.271 Y200.786 E.12152
G1 X133.375 Y200.833 E.00426
G1 X133.4 Y200.97 E.00517
G1 X133.076 Y201.856 E.03515
G1 X132.982 Y202.425 E.02148
G1 X132.956 Y203.068 E.02396
G1 X133.074 Y203.827 E.02862
G1 X133.043 Y203.937 E.00426
G1 X132.939 Y203.985 E.00428
G1 X130.03 Y203.985 E.10832
G1 X129.438 Y203.942 E.02214
G1 X128.867 Y203.812 E.02181
G1 X128.119 Y203.495 E.03025
G1 X127.562 Y203.14 E.02461
G1 X127.134 Y202.762 E.02128
G1 X126.765 Y202.322 E.02138
G1 X126.459 Y201.82 E.02189
G1 X126.185 Y201.127 E.02775
G1 X126.052 Y200.517 E.02329
G1 X126.015 Y199.982 E.01996
G1 X126.015 Y155.027 E1.67439
G1 X126.087 Y153.935 E.04075
G1 X126.188 Y153.288 E.0244
G1 X126.361 Y152.562 E.0278
G1 X126.568 Y151.92 E.02511
G1 X126.853 Y151.231 E.0278
G1 X127.154 Y150.639 E.02471
G1 X127.537 Y150.012 E.0274
G1 X127.932 Y149.466 E.02511
G1 X128.409 Y148.905 E.0274
G1 X128.877 Y148.435 E.02471
G1 X129.444 Y147.949 E.0278
G1 X129.989 Y147.552 E.02511
G1 X130.615 Y147.167 E.0274
G1 X131.206 Y146.865 E.02471
G1 X131.905 Y146.574 E.0282
G1 X132.535 Y146.368 E.02471
G1 X133.261 Y146.193 E.0278
G1 X133.916 Y146.089 E.02471
G1 X134.67 Y146.029 E.02819
G1 X135.008 Y146.015 E.0126
G1 X144.812 Y146.015 E.36513
G1 X145.089 Y145.995 E.01037
G1 X145.324 Y145.941 E.00899
G1 X145.492 Y145.86 E.00693
G1 X145.662 Y145.735 E.00786
G1 X145.796 Y145.592 E.00729
G1 X145.881 Y145.458 E.00593
G1 X145.957 Y145.252 E.00818
G1 X146.015 Y144.808 E.01668
G1 X146.015 Y105.016 E1.48208
G1 X146.028 Y104.686 E.0123
G1 X146.086 Y103.939 E.02792
G1 X146.188 Y103.288 E.02453
G1 X146.361 Y102.562 E.02781
G1 X146.564 Y101.931 E.02471
G1 X146.849 Y101.24 E.0278
G1 X147.148 Y100.649 E.02471
G1 X147.537 Y100.012 E.0278
G1 X147.926 Y99.474 E.02471
G1 X148.409 Y98.905 E.0278
G1 X148.885 Y98.428 E.02511
G1 X149.452 Y97.943 E.0278
G1 X149.989 Y97.552 E.02471
G1 X150.615 Y97.167 E.0274
G1 X151.215 Y96.86 E.02511
G1 X151.905 Y96.574 E.0278
G1 X152.535 Y96.368 E.02471
G1 X153.25 Y96.195 E.0274
G1 X153.9 Y96.091 E.02451
G1 X155.02 Y96.015 E.0418
G1 X169.98 Y96.015 E.55719
G1 X170.562 Y96.058 E.02176
G1 X171.11 Y96.18 E.0209
G1 X171.881 Y96.505 E.03116
G1 X172.438 Y96.86 E.02461
