; HEADER_BLOCK_START
; generated by OrcaSlicer 2.3.1-beta on 2025-12-09 at 11:16:35
; total layer number: 534
; filament_density: 1.25
; filament_diameter: 1.75
; max_z_height: 107.00
; HEADER_BLOCK_END

; THUMBNAIL_BLOCK_START

;
; THUMBNAIL_BLOCK_END

; THUMBNAIL_BLOCK_START

;
; THUMBNAIL_BLOCK_END

; external perimeters extrusion width = 0.42mm
; perimeters extrusion width = 0.45mm
; infill extrusion width = 0.45mm
; solid infill extrusion width = 0.42mm
; top infill extrusion width = 0.42mm
; support material extrusion width = 0.42mm
; first layer extrusion width = 0.50mm

; external perimeters extrusion width = 0.42mm
; perimeters extrusion width = 0.45mm
; infill extrusion width = 0.45mm
; solid infill extrusion width = 0.42mm
; top infill extrusion width = 0.42mm
; support material extrusion width = 0.42mm
; first layer extrusion width = 0.50mm

; external perimeters extrusion width = 0.42mm
; perimeters extrusion width = 0.45mm
; infill extrusion width = 0.45mm
; solid infill extrusion width = 0.42mm
; top infill extrusion width = 0.42mm
; support material extrusion width = 0.42mm
; first layer extrusion width = 0.50mm

; external perimeters extrusion width = 0.42mm
; perimeters extrusion width = 0.45mm
; infill extrusion width = 0.45mm
; solid infill extrusion width = 0.42mm
; top infill extrusion width = 0.42mm
; support material extrusion width = 0.42mm
; first layer extrusion width = 0.50mm

; EXECUTABLE_BLOCK_START
EXCLUDE_OBJECT_DEFINE NAME=모터_지지대.STL_id_0_copy_0 CENTER=126.809,230.186 POLYGON=[[96.8087,222.186],[96.8333,221.873],[96.9066,221.568],[97.0267,221.278],[97.1906,221.01],[97.3945,220.772],[97.6331,220.568],[97.9007,220.404],[98.1906,220.284],[98.4958,220.21],[98.8087,220.186],[154.809,220.186],[155.122,220.21],[155.427,220.284],[155.717,220.404],[155.984,220.568],[156.223,220.772],[156.427,221.01],[156.591,221.278],[156.711,221.568],[156.784,221.873],[156.809,222.186],[156.809,238.186],[156.784,238.499],[156.711,238.804],[156.591,239.094],[156.427,239.361],[156.223,239.6],[155.984,239.804],[155.717,239.968],[155.427,240.088],[155.122,240.161],[154.809,240.186],[98.8087,240.186],[98.4958,240.161],[98.1906,240.088],[97.9007,239.968],[97.6331,239.804],[97.3945,239.6],[97.1906,239.361],[97.0267,239.094],[96.9066,238.804],[96.8333,238.499],[96.8087,238.186],[96.8087,222.186]]
EXCLUDE_OBJECT_DEFINE NAME=test_2.STL_id_1_copy_0 CENTER=141.645,158.809 POLYGON=[[76.6452,139.558],[76.6667,139.306],[76.7303,139.06],[76.8345,138.829],[76.976,138.618],[77.151,138.435],[77.3544,138.284],[77.5804,138.169],[77.8226,138.093],[78.0739,138.06],[205.217,138.06],[205.468,138.093],[205.71,138.169],[205.936,138.284],[206.139,138.435],[206.314,138.618],[206.456,138.829],[206.56,139.06],[206.624,139.306],[206.645,139.558],[206.645,179.558],[76.6452,179.558],[76.6452,139.558]]
EXCLUDE_OBJECT_DEFINE NAME=센서_가이드.STL_id_2_copy_0 CENTER=140.891,78.6476 POLYGON=[[124.891,72.1476],[156.891,72.1476],[156.891,85.1476],[124.891,85.1476],[124.891,72.1476]]
EXCLUDE_OBJECT_DEFINE NAME=센서_지지대.STL_id_3_copy_0 CENTER=202.745,241.881 POLYGON=[[193.745,237.631],[208.745,230.631],[211.745,230.631],[211.745,238.631],[211.72,238.944],[211.647,239.249],[211.527,239.539],[211.363,239.807],[211.159,240.045],[196.245,253.131],[193.745,253.131],[193.745,237.631]]
M73 P0 R90
M106 S0
M106 P2 S0
;TYPE:Custom
M140 S0
M104 S0
M190 S55
M808 L20
G4 P13500
M808
START_PRINT EXTRUDER_TEMP=220 BED_TEMP=55
G90
G21
M83 ; use relative distances for extrusion
; Filament gcode
M106 S0
M106 P2 S0
;LAYER_CHANGE
;Z:0.2
;HEIGHT:0.2
;BEFORE_LAYER_CHANGE
;0.2
G92 E0

G1 E-.6 F2400
;_SET_FAN_SPEED_CHANGING_LAYER
SET_VELOCITY_LIMIT ACCEL=500 ACCEL_TO_DECEL=250
SET_VELOCITY_LIMIT SQUARE_CORNER_VELOCITY=9
EXCLUDE_OBJECT_START NAME=센서_가이드.STL_id_2_copy_0
G1 Z.4 F30000
G1 X120.995 Y70.042
G1 Z.4
M73 P0 R89
G1 Z.2
G1 E.6 F2400
;TYPE:Brim
;WIDTH:0.5
G1 F3600
G1 X121.391 Y69.423 E.02737
G1 X121.817 Y68.945 E.02386
G1 X122.31 Y68.533 E.0239
G1 X122.855 Y68.201 E.02378
G1 X123.693 Y67.875 E.0335
G1 X124.32 Y67.744 E.02386
G1 X124.899 Y67.705 E.02159
G1 X156.883 Y67.705 E1.19128
G1 X157.531 Y67.753 E.02422
G1 X158.154 Y67.894 E.02377
G1 X158.997 Y68.251 E.03411
G1 X159.616 Y68.648 E.02737
G1 X160.094 Y69.074 E.02386
G1 X160.506 Y69.566 E.0239
G1 X160.838 Y70.112 E.0238
G1 X161.149 Y70.898 E.03148
G1 X161.295 Y71.577 E.02589
G1 X161.334 Y72.155 E.02157
G1 X161.334 Y85.139 E.4836
G1 X161.286 Y85.788 E.02422
G1 X161.145 Y86.41 E.02377
G1 X160.788 Y87.253 E.03411
G1 X160.391 Y87.872 E.02737
G1 X159.965 Y88.351 E.02386
G1 X159.473 Y88.762 E.0239
G1 X158.928 Y89.094 E.02378
G1 X158.089 Y89.421 E.0335
G1 X157.462 Y89.552 E.02386
G1 X156.884 Y89.59 E.02159
G1 X124.9 Y89.59 E1.19128
G1 X124.251 Y89.542 E.02422
G1 X123.63 Y89.402 E.02373
G1 X122.703 Y88.998 E.03766
G1 X122.168 Y88.648 E.02381
G1 X121.688 Y88.222 E.0239
G1 X121.277 Y87.729 E.0239
G1 X120.945 Y87.184 E.02378
G1 X120.618 Y86.346 E.0335
G1 X120.487 Y85.719 E.02386
G1 X120.449 Y85.14 E.02159
G1 X120.449 Y72.156 E.48361
G1 X120.497 Y71.508 E.02422
G1 X120.638 Y70.885 E.02377
G1 X120.979 Y70.079 E.03262
G1 X121.396 Y70.267 F30000
G1 F3600
G1 X121.751 Y69.709 E.02461
G1 X122.144 Y69.267 E.02203
G1 X122.569 Y68.913 E.02062
G1 X123.048 Y68.619 E.02093
G1 X123.835 Y68.312 E.03145
G1 X124.373 Y68.2 E.02048
G1 X124.918 Y68.162 E.02036
G1 X156.871 Y68.163 E1.19011
G1 X157.474 Y68.209 E.02251
G1 X158.025 Y68.336 E.02106
G1 X158.772 Y68.652 E.03025
G1 X159.347 Y69.02 E.02541
G1 X159.772 Y69.4 E.02123
G1 X160.126 Y69.825 E.02062
G1 X160.422 Y70.306 E.02102
G1 X160.706 Y71.02 E.02862
G1 X160.842 Y71.651 E.02403
G1 X160.877 Y72.175 E.01956
G1 X160.877 Y85.117 E.48205
G1 X160.833 Y85.71 E.02214
G1 X160.703 Y86.281 E.02181
G1 X160.387 Y87.029 E.03025
G1 X160.032 Y87.586 E.02461
G1 X159.639 Y88.028 E.02203
G1 X159.214 Y88.383 E.02062
G1 X158.735 Y88.677 E.02093
G1 X157.948 Y88.983 E.03145
G1 X157.409 Y89.096 E.02048
G1 X156.864 Y89.133 E.02036
G1 X124.912 Y89.132 E1.19011
G1 X124.329 Y89.089 E.02176
G1 X123.785 Y88.968 E.02075
G1 X122.911 Y88.588 E.03551
G1 X122.439 Y88.278 E.02105
G1 X122.025 Y87.91 E.02062
G1 X121.656 Y87.47 E.02138
G1 X121.362 Y86.991 E.02093
G1 X121.056 Y86.204 E.03145
G1 X120.943 Y85.666 E.02048
G1 X120.906 Y85.12 E.02036
G1 X120.906 Y72.178 E.48206
G1 X120.95 Y71.585 E.02214
G1 X121.079 Y71.014 E.02181
G1 X121.38 Y70.303 E.02876
G1 X121.798 Y70.49 F30000
G1 F3600
G1 X122.111 Y69.995 E.02183
G1 X122.471 Y69.59 E.02018
G1 X122.829 Y69.291 E.01737
G1 X123.242 Y69.036 E.01808
G1 X123.977 Y68.749 E.02938
G1 X124.445 Y68.653 E.01782
G1 X124.939 Y68.62 E.01842
G1 X156.848 Y68.62 E1.18851
G1 X157.394 Y68.661 E.0204
G1 X157.894 Y68.777 E.01911
G1 X158.548 Y69.054 E.02643
G1 X159.078 Y69.393 E.02343
G1 X159.448 Y69.726 E.01858
G1 X159.759 Y70.101 E.01814
G1 X160.005 Y70.502 E.01752
G1 X160.263 Y71.143 E.02574
G1 X160.389 Y71.724 E.02214
G1 X160.419 Y72.194 E.01754
G1 X160.419 Y85.095 E.48052
G1 X160.38 Y85.632 E.02004
G1 X160.262 Y86.151 E.01984
G1 X159.985 Y86.805 E.02643
G1 X159.672 Y87.3 E.02183
G1 X159.312 Y87.705 E.02018
G1 X158.954 Y88.004 E.01737
G1 X158.541 Y88.259 E.01808
G1 X157.806 Y88.546 E.02938
G1 X157.337 Y88.642 E.01782
G1 X156.844 Y88.676 E.01842
G1 X124.924 Y88.675 E1.18892
G1 X124.406 Y88.637 E.01933
G1 X123.94 Y88.534 E.01777
G1 X123.119 Y88.178 E.03333
G1 X122.71 Y87.907 E.01827
G1 X122.347 Y87.583 E.01814
G1 X122.035 Y87.21 E.01812
G1 X121.78 Y86.797 E.01806
G1 X121.493 Y86.062 E.02938
G1 X121.397 Y85.594 E.01782
G1 X121.363 Y85.1 E.01842
G1 X121.363 Y72.2 E.48049
G1 X121.402 Y71.663 E.02004
G1 X121.521 Y71.144 E.01984
G1 X121.782 Y70.527 E.02494
G1 X122.205 Y70.706 F30000
G1 F3600
G1 X122.21 Y70.694 E.0005
G1 X122.471 Y70.28 E.01822
G1 X122.783 Y69.927 E.01756
G1 X123.089 Y69.669 E.0149
G1 X123.436 Y69.453 E.01521
G1 X124.118 Y69.187 E.02728
G1 X124.516 Y69.106 E.01513
G1 X124.959 Y69.077 E.01651
G1 X156.826 Y69.077 E1.18693
G1 X157.315 Y69.114 E.01827
G1 X157.764 Y69.218 E.01716
G1 X158.323 Y69.455 E.02263
G1 X158.808 Y69.765 E.02143
G1 X159.124 Y70.052 E.0159
G1 X159.381 Y70.36 E.01495
G1 X159.59 Y70.698 E.0148
G1 X159.82 Y71.267 E.02285
G1 X159.936 Y71.798 E.02024
G1 X159.962 Y72.214 E.01551
G1 X159.962 Y85.074 E.479
G1 X159.928 Y85.554 E.01792
G1 X159.821 Y86.021 E.01787
G1 X159.583 Y86.582 E.02266
G1 X159.311 Y87.015 E.01905
G1 X158.985 Y87.383 E.01831
G1 X158.678 Y87.638 E.01487
G1 X158.347 Y87.842 E.01449
G1 X157.665 Y88.108 E.02728
G1 X157.266 Y88.189 E.01513
G1 X156.824 Y88.219 E.01651
G1 X124.945 Y88.218 E1.18735
G1 X124.482 Y88.184 E.01731
G1 X124.094 Y88.1 E.01477
G1 X123.328 Y87.768 E.03111
G1 X122.983 Y87.538 E.01545
G1 X122.684 Y87.27 E.01495
G1 X122.412 Y86.949 E.01567
G1 X122.197 Y86.603 E.01518
G1 X121.931 Y85.921 E.02728
G1 X121.85 Y85.523 E.01513
G1 X121.82 Y85.08 E.01651
G1 X121.821 Y72.211 E.47931
G1 X121.855 Y71.741 E.01755
G1 X121.955 Y71.297 E.01698
G1 X122.189 Y70.743 E.0224
G1 X122.612 Y70.921 F30000
G1 F3600
G1 X122.622 Y70.897 E.001
G1 X122.832 Y70.564 E.01464
G1 X123.097 Y70.262 E.01495
G1 X123.367 Y70.035 E.01315
G1 X123.653 Y69.859 E.01252
G1 X124.259 Y69.625 E.0242
G1 X124.586 Y69.56 E.01242
G1 X124.978 Y69.534 E.01463
G1 X156.804 Y69.534 E1.18536
G1 X157.235 Y69.566 E.01613
G1 X157.633 Y69.659 E.0152
G1 X158.119 Y69.867 E.01971
G1 X158.538 Y70.137 E.01856
G1 X158.8 Y70.376 E.01319
G1 X159.003 Y70.621 E.01184
G1 X159.175 Y70.896 E.0121
G1 X159.378 Y71.391 E.01994
G1 X159.482 Y71.872 E.01831
G1 X159.505 Y72.233 E.01347
G1 X159.505 Y85.052 E.47749
G1 X159.475 Y85.475 E.01579
G1 X159.379 Y85.891 E.0159
G1 X159.181 Y86.36 E.01895
G1 X158.95 Y86.73 E.01626
G1 X158.658 Y87.06 E.0164
G1 X158.402 Y87.27 E.01234
G1 X158.13 Y87.436 E.01186
G1 X157.523 Y87.671 E.02424
G1 X157.196 Y87.736 E.01242
G1 X156.804 Y87.762 E.01463
G1 X124.967 Y87.761 E1.18581
G1 X124.557 Y87.731 E.01533
G1 X124.248 Y87.666 E.01176
G1 X123.537 Y87.358 E.02884
G1 X123.256 Y87.169 E.0126
G1 X123.006 Y86.944 E.01255
G1 X122.778 Y86.671 E.01326
G1 X122.603 Y86.386 E.01247
G1 X122.368 Y85.78 E.02419
G1 X122.303 Y85.453 E.01243
G1 X122.277 Y85.061 E.01463
G1 X122.278 Y72.223 E.47814
G1 X122.308 Y71.819 E.01511
G1 X122.389 Y71.449 E.0141
G1 X122.596 Y70.958 E.01984
G1 X123.004 Y71.172 F30000
G1 F3600
G1 X123.089 Y71.009 E.00686
G1 X123.371 Y70.655 E.01685
G1 X123.733 Y70.356 E.01749
G1 X124.076 Y70.171 E.01453
G1 X124.444 Y70.052 E.0144
G1 X124.927 Y69.991 E.01815
G1 X156.851 Y69.991 E1.18902
G1 X157.298 Y70.047 E.01681
G1 X157.75 Y70.188 E.01763
G1 X157.924 Y70.281 E.00736
G1 X158.301 Y70.553 E.0173
G1 X158.549 Y70.805 E.01319
G1 X158.673 Y70.969 E.00765
G1 X158.939 Y71.519 E.02273
G1 X159.007 Y71.794 E.01056
G1 X159.044 Y72.114 E.01202
G1 X159.048 Y85.114 E.48419
G1 X158.981 Y85.607 E.01853
G1 X158.811 Y86.087 E.01896
G1 X158.701 Y86.28 E.00828
G1 X158.528 Y86.515 E.01084
G1 X158.228 Y86.811 E.01571
G1 X158.07 Y86.929 E.00737
G1 X157.52 Y87.195 E.02274
G1 X157.246 Y87.263 E.01053
G1 X156.857 Y87.304 E.01458
G1 X124.925 Y87.304 E1.18934
G1 X124.432 Y87.237 E.01853
G1 X123.952 Y87.067 E.01896
G1 X123.759 Y86.957 E.00828
G1 X123.524 Y86.785 E.01084
G1 X123.228 Y86.485 E.01571
G1 X123.11 Y86.326 E.00736
G1 X122.844 Y85.777 E.02275
G1 X122.776 Y85.508 E.01032
G1 X122.745 Y85.264 E.00914
G1 X122.734 Y72.189 E.48702
G1 X122.791 Y71.739 E.01687
G1 X122.895 Y71.38 E.01391
G1 X122.985 Y71.208 E.00727
G1 X123.378 Y71.429 F30000
G1 F3600
G1 X123.492 Y71.226 E.00868
G1 X123.73 Y70.938 E.01391
G1 X124.022 Y70.71 E.01381
G1 X124.29 Y70.574 E.01117
G1 X124.584 Y70.487 E.01142
G1 X124.919 Y70.448 E.01257
G1 X156.859 Y70.448 E1.18966
G1 X157.247 Y70.501 E.01458
G1 X157.536 Y70.591 E.01128
G1 X157.661 Y70.654 E.0052
G1 X157.967 Y70.864 E.01383
G1 X158.229 Y71.132 E.01396
G1 X158.303 Y71.237 E.00479
G1 X158.495 Y71.626 E.01614
G1 X158.552 Y71.838 E.00818
G1 X158.591 Y72.175 E.01264
G1 X158.591 Y85.123 E.48228
G1 X158.55 Y85.454 E.01241
G1 X158.42 Y85.85 E.01553
G1 X158.3 Y86.061 E.00904
G1 X158.16 Y86.244 E.00859
G1 X157.908 Y86.485 E.01299
G1 X157.802 Y86.559 E.00481
G1 X157.413 Y86.751 E.01614
G1 X157.201 Y86.808 E.00818
G1 X156.864 Y86.847 E.01264
G1 X124.916 Y86.847 E1.18996
G1 X124.585 Y86.806 E.01241
G1 X124.189 Y86.676 E.01553
G1 X123.978 Y86.556 E.00904
G1 X123.795 Y86.416 E.00859
G1 X123.554 Y86.164 E.01299
G1 X123.48 Y86.058 E.00481
G1 X123.288 Y85.669 E.01615
G1 X123.231 Y85.456 E.00822
G1 X123.197 Y85.196 E.00977
G1 X123.192 Y72.18 E.48481
G1 X123.245 Y71.792 E.01458
G1 X123.334 Y71.506 E.01116
G1 X123.358 Y71.463 E.00182
G1 X123.769 Y71.645 F30000
G1 F3600
G1 X123.836 Y71.527 E.00504
G1 X124.088 Y71.223 E.0147
G1 X124.294 Y71.077 E.00943
G1 X124.491 Y70.984 E.00811
G1 X124.633 Y70.941 E.00551
G1 X124.911 Y70.905 E.01044
G1 X156.868 Y70.905 E1.1903
G1 X157.186 Y70.954 E.01198
G1 X157.394 Y71.025 E.00819
G1 X157.719 Y71.249 E.01467
G1 X157.894 Y71.443 E.00975
G1 X158.055 Y71.751 E.01294
G1 X158.098 Y71.889 E.0054
G1 X158.134 Y72.167 E.01044
G1 X158.134 Y85.132 E.48289
G1 X158.115 Y85.313 E.00679
G1 X158.021 Y85.627 E.01222
G1 X157.942 Y85.777 E.00628
G1 X157.79 Y85.976 E.00934
G1 X157.596 Y86.151 E.00971
G1 X157.288 Y86.312 E.01294
G1 X157.15 Y86.354 E.0054
G1 X156.872 Y86.39 E.01044
G1 X124.907 Y86.39 E1.19057
G1 X124.726 Y86.372 E.00679
G1 X124.412 Y86.277 E.01222
G1 X124.262 Y86.198 E.00628
G1 X124.063 Y86.046 E.00934
G1 X123.888 Y85.853 E.00971
G1 X123.727 Y85.545 E.01294
G1 X123.685 Y85.406 E.0054
G1 X123.649 Y85.128 E.01044
G1 X123.649 Y72.171 E.48262
G1 X123.698 Y71.853 E.01198
G1 X123.756 Y71.683 E.0067
G1 X124.179 Y71.851 F30000
G1 F3600
G1 X124.196 Y71.808 E.00171
G1 X124.364 Y71.586 E.01037
G1 X124.478 Y71.496 E.00541
G1 X124.694 Y71.394 E.00892
G1 X124.902 Y71.362 E.00781
G1 X156.879 Y71.362 E1.19102
G1 X157.112 Y71.405 E.00884
G1 X157.231 Y71.452 E.00475
G1 X157.453 Y71.62 E.01037
G1 X157.543 Y71.734 E.00541
G1 X157.645 Y71.951 E.00892
G1 X157.677 Y72.158 E.00782
G1 X157.677 Y85.139 E.48349
G1 X157.661 Y85.265 E.00475
G1 X157.585 Y85.49 E.00884
G1 X157.419 Y85.709 E.01023
G1 X157.305 Y85.799 E.00541
G1 X157.088 Y85.901 E.00892
G1 X156.881 Y85.933 E.00782
G1 X124.9 Y85.933 E1.19116
G1 X124.774 Y85.917 E.00475
G1 X124.549 Y85.842 E.00884
G1 X124.33 Y85.675 E.01023
G1 X124.24 Y85.561 E.00541
G1 X124.138 Y85.344 E.00892
G1 X124.106 Y85.137 E.00781
G1 X124.106 Y72.16 E.48335
G1 X124.148 Y71.927 E.00884
G1 X124.164 Y71.888 E.00154
G1 X124.591 Y72.037 F30000
G1 F3600
G1 X124.638 Y71.952 E.00361
G1 X124.775 Y71.843 E.00652
G1 X124.891 Y71.819 E.00442
G1 X156.891 Y71.819 E1.19188
G1 X157.002 Y71.848 E.00426
G1 X157.087 Y71.895 E.00361
G1 X157.196 Y72.031 E.00652
G1 X157.22 Y72.148 E.00442
G1 X157.22 Y85.148 E.4842
G1 X157.191 Y85.258 E.00426
G1 X157.144 Y85.343 E.00361
G1 X157.008 Y85.452 E.00652
G1 X156.891 Y85.476 E.00442
G1 X124.891 Y85.476 E1.19188
G1 X124.781 Y85.448 E.00426
G1 X124.696 Y85.401 E.00361
G1 X124.587 Y85.264 E.00652
G1 X124.563 Y85.148 E.00442
G1 X124.563 Y72.148 E.4842
G1 X124.581 Y72.076 E.00277
;WIPE_START
G1 X124.638 Y71.952 E-.04078
G1 X124.775 Y71.843 E-.05248
G1 X124.891 Y71.819 E-.03563
G1 X126.462 Y71.819 E-.47111
;WIPE_END
G1 Z.4 F30000
G1 X149.406 Y82.898 Z.4
G1 Z.2
G1 E.6 F2400
;TYPE:Inner wall
;WIDTH:0.499999
G1 F3600
G1 X132.377 Y82.9 E.63425
G1 X132.388 Y82.643 E.00958
G1 X132.33 Y81.967 E.02526
G1 X132.158 Y81.312 E.02525
G1 X131.878 Y80.694 E.02525
G1 X131.498 Y80.133 E.02525
G1 X131.028 Y79.644 E.02525
G1 X130.483 Y79.242 E.02525
G1 X129.877 Y78.937 E.02525
G1 X129.229 Y78.739 E.02525
G1 X128.556 Y78.654 E.02525
G1 X127.879 Y78.684 E.02525
G1 X127.141 Y78.854 E.0282
G1 X127.141 Y74.397 E.16599
G1 X154.642 Y74.397 E1.02429
G1 X154.642 Y78.854 E.16599
G1 X154.229 Y78.739 E.01596
G1 X153.556 Y78.654 E.02525
G1 X152.845 Y78.69 E.02651
G1 X152.216 Y78.827 E.02398
G1 X151.588 Y79.081 E.02525
G1 X151.011 Y79.437 E.02525
G1 X150.502 Y79.886 E.02525
G1 X150.077 Y80.413 E.02525
G1 X149.747 Y81.006 E.02525
G1 X149.522 Y81.645 E.02525
G1 X149.408 Y82.314 E.02526
G1 X149.406 Y82.858 E.02026
G1 X149.915 Y83.327 F30000
G1 F3600
G1 X149.891 Y83.355 E.00137
