; HEADER_BLOCK_START
; generated by OrcaSlicer 2.3.1-beta on 2025-12-06 at 18:45:40
; total layer number: 75
; filament_density: 1.25
; filament_diameter: 1.75
; max_z_height: 15.00
; HEADER_BLOCK_END

; THUMBNAIL_BLOCK_START

;
; THUMBNAIL_BLOCK_END

; THUMBNAIL_BLOCK_START

;
; THUMBNAIL_BLOCK_END

; external perimeters extrusion width = 0.42mm
; perimeters extrusion width = 0.45mm
; infill extrusion width = 0.45mm
; solid infill extrusion width = 0.42mm
; top infill extrusion width = 0.42mm
; support material extrusion width = 0.42mm
; first layer extrusion width = 0.50mm

; EXECUTABLE_BLOCK_START
EXCLUDE_OBJECT_DEFINE NAME=모터_가이드.STL_id_0_copy_0 CENTER=150,150 POLYGON=[[130,155],[130.062,154.218],[130.245,153.455],[150.245,103.455],[150.545,102.73],[150.955,102.061],[151.464,101.464],[152.061,100.955],[152.73,100.545],[153.455,100.245],[154.218,100.062],[155,100],[170,100],[170,200],[130,200],[130,155]]
M73 P0 R44
M106 S0
M106 P2 S0
;TYPE:Custom
M140 S0
M104 S0
M190 S55
M808 L20
G4 P13500
M808
START_PRINT EXTRUDER_TEMP=220 BED_TEMP=55
G90
G21
M83 ; use relative distances for extrusion
; Filament gcode
M106 S0
M106 P2 S0
;LAYER_CHANGE
;Z:0.2
;HEIGHT:0.2
;BEFORE_LAYER_CHANGE
;0.2
G92 E0

G1 E-.6 F2400
;_SET_FAN_SPEED_CHANGING_LAYER
SET_VELOCITY_LIMIT ACCEL=500 ACCEL_TO_DECEL=250
SET_VELOCITY_LIMIT SQUARE_CORNER_VELOCITY=9
EXCLUDE_OBJECT_START NAME=모터_가이드.STL_id_0_copy_0
G1 Z.4 F30000
G1 X132.225 Y200.732
G1 Z.4
G1 Z.2
G1 E.6 F2400
;TYPE:Support
;WIDTH:0.5
G1 F3600
G1 X132.225 Y204.473 E.13935
G1 X132.335 Y204.72 E.01005
G1 X132.733 Y205.28 E.02558
G1 X132.733 Y200.861 E.16456
G1 X133.24 Y200.861 E.01892
G1 X133.24 Y205.746 E.18192
G1 X133.417 Y205.898 E.00869
G1 X133.748 Y206.081 E.01409
G1 X133.748 Y200.861 E.19441
G1 X134.256 Y200.861 E.01892
G1 X134.256 Y206.33 E.20369
G1 X134.764 Y206.487 E.0198
G1 X134.764 Y200.861 E.20954
G1 X135.272 Y200.861 E.01892
G1 X135.272 Y206.565 E.21245
G1 X135.708 Y206.607 E.01631
G1 X135.78 Y206.599 E.00269
G1 X135.78 Y200.861 E.21372
G1 X136.288 Y200.861 E.01892
G1 X136.288 Y206.546 E.21172
G1 X136.54 Y206.519 E.00945
G1 X136.795 Y206.431 E.01007
G1 X136.795 Y200.861 E.20745
G1 X137.303 Y200.861 E.01892
G1 X137.303 Y206.256 E.20093
G1 X137.811 Y205.966 E.02179
G1 X137.811 Y200.861 E.19012
G1 X138.319 Y200.861 E.01892
G1 X138.319 Y205.574 E.17551
G1 X138.726 Y205.176 E.02119
G1 X138.827 Y205.018 E.00699
G1 X138.827 Y200.861 E.1548
G1 X138.923 Y200.861 E.00359
G1 X139.167 Y201.226 E.01634
G1 X139.335 Y201.674 E.0178
G1 X139.335 Y204.606 E.10921
G1 X139.535 Y201.037 F30000
G1 F3600
G1 X139.862 Y201.906 E.03455
G1 X139.977 Y202.837 E.03494
G1 X139.872 Y203.756 E.03444
G1 X139.557 Y204.64 E.03495
G1 X139.047 Y205.437 E.03526
G1 X138.373 Y206.096 E.0351
G1 X137.539 Y206.61 E.03651
G1 X136.63 Y206.923 E.0358
G1 X135.71 Y207.02 E.03445
G1 X134.822 Y206.936 E.03324
G1 X133.965 Y206.671 E.03339
G1 X133.181 Y206.237 E.03338
G1 X132.479 Y205.633 E.03451
G1 X131.976 Y204.925 E.03235
G1 X131.642 Y204.179 E.03042
G1 X131.465 Y203.423 E.02894
G1 X131.426 Y202.987 E.01632
G1 X131.433 Y202.526 E.01717
G1 X131.486 Y202.094 E.01619
G1 X131.585 Y201.66 E.01661
G1 X131.729 Y201.251 E.01613
G1 X131.922 Y200.832 E.01719
G1 X132.162 Y200.45 E.01679
G1 X139.143 Y200.45 E.26004
G1 X139.497 Y200.98 E.02375
G1 X139.885 Y200.782 F30000
;TYPE:Brim
G1 F3600
G1 X139.877 Y200.727 E.00208
G1 X139.612 Y200.329 E.01783
G1 X170 Y200.329 E1.13185
G1 X170.116 Y200.304 E.00442
G1 X170.253 Y200.195 E.00652
G1 X170.3 Y200.111 E.00361
G1 X170.329 Y200 E.00426
G1 X170.32 Y99.937 E3.72697
G1 X170.304 Y99.884 E.00206
G1 X170.195 Y99.747 E.00652
G1 X170.111 Y99.7 E.00361
G1 X170 Y99.671 E.00426
G1 X154.982 Y99.672 E.55937
G1 X154.141 Y99.742 E.03143
G1 X153.329 Y99.941 E.03112
G1 X152.573 Y100.258 E.03054
G1 X151.89 Y100.675 E.02981
G1 X151.251 Y101.214 E.03114
G1 X150.696 Y101.86 E.03173
G1 X150.258 Y102.573 E.03115
G1 X149.936 Y103.344 E.03114
G1 X149.734 Y104.192 E.03246
G1 X149.671 Y105 E.03018
G1 X149.671 Y144.987 E1.48937
G1 X149.613 Y145.731 E.02778
G1 X149.442 Y146.443 E.0273
G1 X149.161 Y147.12 E.0273
G1 X148.778 Y147.745 E.0273
G1 X148.302 Y148.303 E.0273
G1 X147.745 Y148.778 E.0273
G1 X147.12 Y149.161 E.0273
G1 X146.448 Y149.44 E.02711
G1 X145.73 Y149.613 E.02749
G1 X144.987 Y149.671 E.02777
G1 X135 Y149.671 E.37198
G1 X134.157 Y149.74 E.0315
G1 X133.344 Y149.936 E.03115
G1 X132.59 Y150.249 E.03039
G1 X131.876 Y150.684 E.03115
G1 X131.226 Y151.24 E.03187
G1 X130.696 Y151.86 E.03039
G1 X130.258 Y152.573 E.03115
G1 X129.925 Y153.379 E.03247
G1 X129.734 Y154.192 E.03113
G1 X129.671 Y155 E.03018
G1 X129.671 Y200 E1.67608
G1 X129.696 Y200.116 E.00442
G1 X129.805 Y200.253 E.00652
G1 X129.889 Y200.3 E.00361
G1 X130 Y200.329 E.00426
G1 X131.695 Y200.329 E.06313
G1 X131.51 Y200.634 E.01331
G1 X131.307 Y201.075 E.01805
G1 X131.148 Y201.527 E.01788
G1 X131.04 Y201.999 E.01802
G1 X130.978 Y202.475 E.01789
G1 X130.969 Y202.986 E.01902
G1 X131.013 Y203.488 E.01878
G1 X131.2 Y204.294 E.03083
G1 X131.261 Y204.442 E.00596
G1 X130.008 Y204.442 E.04666
G1 X129.36 Y204.394 E.02422
G1 X128.737 Y204.254 E.02377
G1 X127.894 Y203.897 E.03411
G1 X127.276 Y203.5 E.02737
G1 X126.797 Y203.074 E.02386
G1 X126.386 Y202.581 E.0239
G1 X126.053 Y202.036 E.0238
G1 X125.742 Y201.25 E.03148
G1 X125.596 Y200.57 E.02589
G1 X125.558 Y199.992 E.02157
G1 X125.558 Y155.008 E1.67552
G1 X125.632 Y153.878 E.04214
G1 X125.74 Y153.194 E.0258
G1 X125.922 Y152.433 E.02914
G1 X126.137 Y151.768 E.02605
G1 X126.435 Y151.045 E.02914
G1 X126.751 Y150.421 E.02604
G1 X127.159 Y149.753 E.02914
G1 X127.569 Y149.187 E.02605
G1 X128.076 Y148.591 E.02914
G1 X128.57 Y148.096 E.02605
G1 X129.164 Y147.587 E.02914
G1 X129.729 Y147.175 E.02605
G1 X130.396 Y146.766 E.02914
G1 X131.018 Y146.447 E.02604
G1 X131.74 Y146.147 E.02914
G1 X132.405 Y145.93 E.02605
G1 X133.166 Y145.746 E.02914
G1 X133.856 Y145.635 E.02605
G1 X134.64 Y145.572 E.0293
G1 X134.997 Y145.558 E.01328
G1 X144.816 Y145.558 E.36575
G1 X145.065 Y145.539 E.00928
G1 X145.212 Y145.498 E.0057
G1 X145.403 Y145.359 E.0088
G1 X145.503 Y145.201 E.00696
G1 X145.558 Y144.816 E.01447
G1 X145.558 Y105.004 E1.48285
G1 X145.571 Y104.657 E.01297
G1 X145.632 Y103.88 E.02902
G1 X145.74 Y103.194 E.02586
G1 X145.922 Y102.433 E.02914
G1 X146.137 Y101.768 E.02605
G1 X146.435 Y101.045 E.02914
G1 X146.751 Y100.421 E.02605
G1 X147.159 Y99.753 E.02914
G1 X147.569 Y99.187 E.02605
G1 X148.076 Y98.591 E.02914
G1 X148.57 Y98.096 E.02604
G1 X149.164 Y97.587 E.02914
G1 X149.729 Y97.175 E.02605
G1 X150.396 Y96.766 E.02914
G1 X151.018 Y96.447 E.02604
G1 X151.74 Y96.147 E.02914
G1 X152.405 Y95.93 E.02605
G1 X153.166 Y95.746 E.02914
G1 X153.855 Y95.635 E.02599
G1 X155 Y95.558 E.04275
G1 X169.991 Y95.558 E.55838
G1 X170.64 Y95.606 E.02422
G1 X171.262 Y95.746 E.02377
G1 X172.106 Y96.103 E.03411
G1 X172.724 Y96.5 E.02737
G1 X173.203 Y96.926 E.02386
G1 X173.614 Y97.419 E.0239
G1 X173.947 Y97.964 E.02378
G1 X174.273 Y98.802 E.0335
G1 X174.404 Y99.429 E.02386
G1 X174.442 Y100.008 E.02159
G1 X174.442 Y199.992 E3.72402
G1 X174.394 Y200.64 E.02422
G1 X174.254 Y201.261 E.02373
G1 X173.851 Y202.189 E.03766
G1 X173.501 Y202.724 E.02381
G1 X173.074 Y203.203 E.0239
G1 X172.581 Y203.614 E.0239
G1 X172.036 Y203.947 E.0238
G1 X171.25 Y204.258 E.03148
G1 X170.57 Y204.404 E.02589
G1 X169.992 Y204.442 E.02157
G1 X140.112 Y204.442 E1.11295
G1 X140.325 Y203.82 E.02451
G1 X140.432 Y202.794 E.03841
G1 X140.301 Y201.785 E.03792
G1 X139.963 Y200.877 E.03606
G1 X139.91 Y200.813 E.00311
G1 X140.494 Y200.856 F30000
G1 F3600
G1 X140.614 Y200.786 E.00519
G1 X169.989 Y200.786 E1.09412
G1 X170.197 Y200.754 E.00782
G1 X170.414 Y200.652 E.00892
G1 X170.527 Y200.561 E.00541
G1 X170.694 Y200.343 E.01023
G1 X170.77 Y200.118 E.00884
G1 X170.786 Y199.991 E.00475
G1 X170.777 Y99.946 E3.72629
G1 X170.758 Y99.812 E.00505
M73 P0 R43
G1 X170.652 Y99.586 E.00929
G1 X170.561 Y99.473 E.00541
G1 X170.409 Y99.344 E.00743
G1 X170.218 Y99.257 E.00783
G1 X169.988 Y99.214 E.00872
G1 X154.939 Y99.217 E.56051
G1 X154.022 Y99.301 E.03427
G1 X153.143 Y99.523 E.03378
G1 X152.405 Y99.832 E.02979
G1 X151.66 Y100.28 E.0324
G1 X150.964 Y100.859 E.03373
G1 X150.356 Y101.555 E.0344
G1 X149.832 Y102.406 E.03726
G1 X149.489 Y103.248 E.03384
G1 X149.278 Y104.167 E.03512
G1 X149.214 Y105.005 E.03131
G1 X149.214 Y144.964 E1.48831
G1 X149.158 Y145.669 E.02637
G1 X149.002 Y146.312 E.02461
G1 X148.757 Y146.902 E.02381
G1 X148.401 Y147.484 E.02541
G1 X147.985 Y147.97 E.02381
G1 X147.484 Y148.401 E.02461
G1 X146.902 Y148.757 E.02541
G1 X146.296 Y149.006 E.02443
G1 X145.669 Y149.158 E.02401
G1 X144.964 Y149.214 E.02635
G1 X135.006 Y149.214 E.37089
G1 X134.04 Y149.298 E.03612
G1 X133.16 Y149.518 E.03377
G1 X132.344 Y149.864 E.03304
G1 X131.648 Y150.288 E.03037
G1 X130.872 Y150.951 E.03801
G1 X130.301 Y151.629 E.03301
G1 X129.874 Y152.324 E.03036
G1 X129.478 Y153.284 E.0387
G1 X129.278 Y154.167 E.0337
G1 X129.214 Y155.005 E.03132
G1 X129.214 Y199.989 E1.6755
G1 X129.246 Y200.197 E.00781
G1 X129.348 Y200.414 E.00892
G1 X129.439 Y200.527 E.00541
G1 X129.591 Y200.656 E.00743
G1 X129.782 Y200.743 E.00783
G1 X130.012 Y200.786 E.00872
G1 X130.731 Y200.786 E.02676
G1 X130.835 Y200.833 E.00426
G1 X130.86 Y200.967 E.00508
G1 X130.701 Y201.432 E.01829
G1 X130.596 Y201.89 E.01751
G1 X130.526 Y202.41 E.01954
G1 X130.514 Y203.033 E.02321
G1 X130.557 Y203.519 E.0182
G1 X130.621 Y203.82 E.01143
G1 X130.596 Y203.931 E.00426
G1 X130.486 Y203.985 E.00453
G1 X130.02 Y203.985 E.01736
G1 X129.418 Y203.939 E.02251
G1 X128.867 Y203.812 E.02106
G1 X128.119 Y203.495 E.03025
G1 X127.562 Y203.14 E.02461
G1 X127.134 Y202.762 E.02128
G1 X126.765 Y202.322 E.02138
G1 X126.459 Y201.82 E.02189
G1 X126.185 Y201.127 E.02775
G1 X126.052 Y200.517 E.02329
G1 X126.015 Y199.982 E.01996
G1 X126.015 Y155.027 E1.67439
G1 X126.087 Y153.935 E.04075
G1 X126.188 Y153.288 E.0244
G1 X126.361 Y152.562 E.0278
G1 X126.568 Y151.92 E.02511
G1 X126.853 Y151.231 E.0278
G1 X127.154 Y150.639 E.02471
G1 X127.537 Y150.012 E.0274
G1 X127.932 Y149.466 E.02511
G1 X128.409 Y148.905 E.0274
G1 X128.877 Y148.435 E.02471
G1 X129.444 Y147.949 E.0278
G1 X129.989 Y147.552 E.02511
G1 X130.615 Y147.167 E.0274
G1 X131.206 Y146.865 E.02471
G1 X131.905 Y146.574 E.0282
G1 X132.535 Y146.368 E.02471
G1 X133.261 Y146.193 E.0278
G1 X133.916 Y146.089 E.02471
G1 X134.67 Y146.029 E.02819
G1 X135.008 Y146.015 E.0126
G1 X144.812 Y146.015 E.36513
G1 X145.089 Y145.995 E.01037
G1 X145.324 Y145.941 E.00899
G1 X145.492 Y145.86 E.00693
G1 X145.662 Y145.735 E.00786
G1 X145.796 Y145.592 E.00729
G1 X145.881 Y145.458 E.00593
G1 X145.957 Y145.252 E.00818
G1 X146.015 Y144.808 E.01668
G1 X146.015 Y105.016 E1.48208
G1 X146.028 Y104.686 E.0123
G1 X146.086 Y103.939 E.02792
G1 X146.188 Y103.288 E.02453
G1 X146.361 Y102.562 E.02781
G1 X146.564 Y101.931 E.02471
G1 X146.849 Y101.24 E.0278
G1 X147.148 Y100.649 E.02471
G1 X147.537 Y100.012 E.0278
G1 X147.926 Y99.474 E.02471
G1 X148.409 Y98.905 E.0278
G1 X148.885 Y98.428 E.02511
G1 X149.452 Y97.943 E.0278
G1 X149.989 Y97.552 E.02471
G1 X150.615 Y97.167 E.0274
G1 X151.215 Y96.86 E.02511
G1 X151.905 Y96.574 E.0278
G1 X152.535 Y96.368 E.02471
G1 X153.25 Y96.195 E.0274
G1 X153.9 Y96.091 E.02451
G1 X155.02 Y96.015 E.0418
G1 X169.98 Y96.015 E.55719
G1 X170.562 Y96.058 E.02176
G1 X171.11 Y96.18 E.0209
G1 X171.881 Y96.505 E.03116
G1 X172.438 Y96.86 E.02461
G1 X172.866 Y97.238 E.02128
G1 X173.247 Y97.694 E.02213
G1 X173.54 Y98.178 E.02108
G1 X173.836 Y98.944 E.03055
G1 X173.948 Y99.482 E.02048
G1 X173.985 Y100.018 E.02002
G1 X173.985 Y199.97 E3.72281
G1 X173.942 Y200.562 E.02214
G1 X173.812 Y201.131 E.02171
G1 X173.441 Y201.981 E.03455
G1 X173.13 Y202.453 E.02105
G1 X172.747 Y202.88 E.02137
G1 X172.306 Y203.247 E.02138
G1 X171.82 Y203.541 E.02114
G1 X171.127 Y203.815 E.02775
G1 X170.497 Y203.951 E.02403
G1 X169.973 Y203.985 E.01956
G1 X140.919 Y203.985 E1.08214
G1 X140.815 Y203.937 E.00426
G1 X140.783 Y203.834 E.00405
G1 X140.886 Y202.85 E.03685
G1 X140.885 Y202.727 E.00457
G1 X140.755 Y201.733 E.03733
G1 X140.486 Y200.971 E.03013
G1 X140.491 Y200.896 E.00277
G1 X141.145 Y201.306 F30000
G1 F3600
G1 X141.26 Y201.243 E.00492
G1 X169.981 Y201.243 E1.06971
G1 X170.258 Y201.206 E.01044
M73 P1 R43
G1 X170.4 Y201.163 E.00551
G1 X170.597 Y201.071 E.0081
G1 X170.804 Y200.924 E.00943
G1 X171.052 Y200.626 E.01445
G1 X171.13 Y200.48 E.00617
G1 X171.224 Y200.166 E.01222
G1 X171.243 Y199.984 E.00679
G1 X171.234 Y99.954 E3.72574
G1 X171.211 Y99.757 E.0074
G1 X171.168 Y99.612 E.00564
G1 X171.002 Y99.294 E.01334
G1 X170.848 Y99.117 E.00874
G1 X170.715 Y99.004 E.00649
G1 X170.412 Y98.843 E.01281
G1 X170.294 Y98.806 E.00461
G1 X169.977 Y98.757 E.01193
G1 X154.892 Y98.763 E.56187
G1 X153.901 Y98.86 E.03709
G1 X152.959 Y99.105 E.03626
G1 X152.162 Y99.445 E.03225
G1 X151.433 Y99.883 E.03167
G1 X150.679 Y100.502 E.03634
G1 X150.019 Y101.246 E.03706
G1 X149.448 Y102.158 E.04006
G1 X149.042 Y103.156 E.04014
G1 X148.821 Y104.142 E.03766
G1 X148.757 Y105.01 E.03241
G1 X148.757 Y144.94 E1.48723
G1 X148.702 Y145.607 E.02494
G1 X148.568 Y146.159 E.02115
G1 X148.353 Y146.684 E.02114
G1 X148.023 Y147.223 E.02353
G1 X147.653 Y147.653 E.02114
G1 X147.222 Y148.023 E.02113
G1 X146.684 Y148.352 E.02349
G1 X146.144 Y148.573 E.02174
G1 X145.586 Y148.706 E.02137
G1 X144.94 Y148.757 E.02414
G1 X135.012 Y148.757 E.36977
G1 X133.919 Y148.857 E.04088
G1 X132.973 Y149.101 E.0364
G1 X132.174 Y149.439 E.0323
G1 X131.419 Y149.893 E.03283
G1 X130.514 Y150.666 E.0443
G1 X129.958 Y151.328 E.03223
G1 X129.49 Y152.075 E.03282
G1 X129.03 Y153.194 E.04506
G1 X128.821 Y154.142 E.03616
G1 X128.757 Y155.01 E.03243
G1 X128.757 Y199.981 E1.67498
G1 X128.794 Y200.258 E.01044
G1 X128.836 Y200.397 E.0054
G1 X128.997 Y200.706 E.01299
G1 X129.149 Y200.88 E.00859
G1 X129.414 Y201.078 E.01233
G1 X129.58 Y201.154 E.00677
G1 X129.925 Y201.234 E.01318
G1 X130.11 Y201.243 E.00692
G1 X130.212 Y201.296 E.00426
G1 X130.237 Y201.41 E.00436
G1 X130.142 Y201.835 E.01623
G1 X130.074 Y202.342 E.01904
G1 X130.057 Y203.018 E.02519
G1 X130.085 Y203.373 E.01326
G1 X130.046 Y203.48 E.00426
G1 X129.938 Y203.52 E.00428
G1 X129.497 Y203.486 E.01648
G1 X128.997 Y203.371 E.01911
G1 X128.343 Y203.094 E.02646
G1 X127.847 Y202.78 E.02186
G1 X127.47 Y202.449 E.01869
G1 X127.144 Y202.063 E.01881
G1 X126.866 Y201.605 E.01996
G1 X126.628 Y201.004 E.02407
G1 X126.508 Y200.462 E.0207
G1 X126.473 Y199.971 E.01833
G1 X126.472 Y155.047 E1.67326
G1 X126.541 Y153.992 E.03937
G1 X126.636 Y153.382 E.023
G1 X126.8 Y152.691 E.02646
G1 X127 Y152.073 E.02416
G1 X127.271 Y151.417 E.02645
G1 X127.556 Y150.858 E.02337
G1 X127.915 Y150.27 E.02567
G1 X128.296 Y149.744 E.02417
G1 X128.742 Y149.219 E.02567
G1 X129.185 Y148.774 E.02337
G1 X129.732 Y148.305 E.02686
G1 X130.248 Y147.93 E.02376
G1 X130.835 Y147.569 E.02567
G1 X131.403 Y147.278 E.02377
G1 X132.069 Y147.001 E.02685
G1 X132.665 Y146.807 E.02336
G1 X133.356 Y146.641 E.02646
G1 X133.976 Y146.543 E.02337
G1 X134.695 Y146.485 E.02688
G1 X144.807 Y146.472 E.37664
G1 X145.112 Y146.452 E.01139
G1 X145.422 Y146.387 E.01177
G1 X145.77 Y146.223 E.01434
G1 X145.923 Y146.111 E.00709
G1 X146.122 Y145.913 E.01045
G1 X146.314 Y145.605 E.01349
G1 X146.412 Y145.299 E.01198
G1 X146.472 Y144.799 E.01874
G1 X146.484 Y104.71 E1.49318
G1 X146.54 Y103.997 E.02663
G1 X146.636 Y103.382 E.0232
G1 X146.8 Y102.69 E.02647
G1 X146.992 Y102.093 E.02337
G1 X147.262 Y101.436 E.02646
G1 X147.546 Y100.876 E.02337
G1 X147.915 Y100.269 E.02646
G1 X148.282 Y99.761 E.02337
G1 X148.742 Y99.219 E.02645
G1 X149.2 Y98.76 E.02416
G1 X149.74 Y98.299 E.02645
G1 X150.248 Y97.93 E.02337
G1 X150.835 Y97.569 E.02567
G1 X151.412 Y97.273 E.02417
G1 X152.068 Y97.001 E.02645
G1 X152.665 Y96.807 E.02337
G1 X153.335 Y96.645 E.02567
G1 X153.946 Y96.547 E.02304
G1 X155.04 Y96.472 E.04085
G1 X169.958 Y96.472 E.55563
G1 X170.485 Y96.511 E.01971
G1 X170.982 Y96.622 E.01895
G1 X171.678 Y96.917 E.02816
G1 X172.153 Y97.22 E.02099
G1 X172.53 Y97.551 E.01866
G1 X172.867 Y97.952 E.01954
G1 X173.132 Y98.392 E.01912
G1 X173.398 Y99.085 E.02764
G1 X173.495 Y99.554 E.01785
