; HEADER_BLOCK_START
; generated by OrcaSlicer 2.3.1-beta on 2025-12-17 at 14:16:21
; total layer number: 150
; filament_density: 1.25
; filament_diameter: 1.75
; max_z_height: 30.00
; HEADER_BLOCK_END

; THUMBNAIL_BLOCK_START

;
; THUMBNAIL_BLOCK_END

; THUMBNAIL_BLOCK_START

;
; THUMBNAIL_BLOCK_END

; external perimeters extrusion width = 0.42mm
; perimeters extrusion width = 0.45mm
; infill extrusion width = 0.45mm
; solid infill extrusion width = 0.42mm
; top infill extrusion width = 0.42mm
; support material extrusion width = 0.42mm
; first layer extrusion width = 0.50mm

; EXECUTABLE_BLOCK_START
EXCLUDE_OBJECT_DEFINE NAME=카메라_거치대.STL_id_0_copy_0 CENTER=150,150 POLYGON=[[129,225],[156,72.5],[165.7,57.5],[171,57.5],[171,92.5],[164,232.5],[144.966,242.5],[129,242.5],[129,225]]
M73 P0 R69
M106 S0
M106 P2 S0
;TYPE:Custom
M140 S0
M104 S0
M190 S55
M808 L20
G4 P13500
M808
START_PRINT EXTRUDER_TEMP=220 BED_TEMP=55
G90
G21
M83 ; use relative distances for extrusion
; Filament gcode
M106 S0
M106 P2 S0
;LAYER_CHANGE
;Z:0.2
;HEIGHT:0.2
;BEFORE_LAYER_CHANGE
;0.2
G92 E0

G1 E-.6 F2400
;_SET_FAN_SPEED_CHANGING_LAYER
SET_VELOCITY_LIMIT ACCEL=500 ACCEL_TO_DECEL=250
SET_VELOCITY_LIMIT SQUARE_CORNER_VELOCITY=9
EXCLUDE_OBJECT_START NAME=카메라_거치대.STL_id_0_copy_0
G1 Z.4 F30000
G1 X157.11 Y64.418
G1 Z.4
G1 Z.2
G1 E.6 F2400
;TYPE:Support
;WIDTH:0.5
G1 F3600
G1 X157.11 Y59.996 E.16471
G1 X157.165 Y59.849 E.00587
G1 X157.618 Y59.092 E.03284
G1 X157.618 Y64.867 E.2151
G1 X158.126 Y65.448 E.02875
G1 X158.126 Y58.51 E.25841
G1 X158.196 Y58.43 E.00399
G1 X158.634 Y58.081 E.02084
G1 X158.634 Y65.878 E.2904
G1 X158.885 Y66.078 E.01195
G1 X159.142 Y66.216 E.01087
G1 X159.142 Y57.743 E.3156
G1 X159.649 Y57.469 E.02148
G1 X159.649 Y66.489 E.33596
G1 X160.157 Y66.657 E.01992
G1 X160.157 Y57.302 E.34842
G1 X160.497 Y57.192 E.01331
G1 X160.665 Y57.169 E.00631
G1 X160.665 Y66.79 E.35834
G1 X161.173 Y66.859 E.01909
G1 X161.173 Y57.1 E.36347
G1 X161.37 Y57.073 E.00739
G1 X161.681 Y57.087 E.0116
G1 X161.681 Y66.871 E.36441
G1 X162.189 Y66.848 E.01894
G1 X162.189 Y57.11 E.36271
G1 X162.249 Y57.113 E.00225
G1 X162.697 Y57.215 E.01709
G1 X162.697 Y66.744 E.3549
G1 X163.108 Y66.65 E.0157
G1 X163.205 Y66.608 E.00393
G1 X163.205 Y57.35 E.34483
G1 X163.712 Y57.567 E.02057
G1 X163.712 Y66.391 E.32866
G1 X163.917 Y66.304 E.00829
G1 X164.22 Y66.104 E.01353
G1 X164.22 Y57.855 E.30723
G1 X164.652 Y58.14 E.01926
G1 X164.728 Y58.213 E.00393
G1 X164.728 Y66.015 E.2906
G1 X161.741 Y56.678 F30000
G1 F3600
G1 X162.305 Y56.704 E.02102
G1 X163.235 Y56.916 E.03555
G1 X164.113 Y57.291 E.03555
G1 X164.909 Y57.817 E.03555
G1 X165.25 Y58.143 E.01755
G1 X165.25 Y65.816 E.28581
G1 X164.909 Y66.142 E.01755
G1 X164.113 Y66.667 E.03555
G1 X163.235 Y67.043 E.03555
G1 X162.305 Y67.255 E.03555
G1 X161.351 Y67.298 E.03555
G1 X160.405 Y67.17 E.03555
G1 X159.498 Y66.875 E.03555
G1 X158.657 Y66.422 E.03555
G1 X157.911 Y65.827 E.03555
G1 X157.654 Y65.534 E.01453
G1 X157.283 Y65.109 E.02102
G1 X156.793 Y64.289 E.03555
G1 X156.458 Y63.396 E.03555
G1 X156.288 Y62.456 E.03555
G1 X156.288 Y61.502 E.03555
G1 X156.458 Y60.563 E.03555
G1 X156.793 Y59.669 E.03555
G1 X157.283 Y58.85 E.03555
G1 X157.911 Y58.131 E.03555
G1 X158.657 Y57.536 E.03555
G1 X159.498 Y57.084 E.03555
G1 X160.405 Y56.789 E.03555
G1 X161.351 Y56.661 E.03555
G1 X161.672 Y56.675 E.01197
;WIPE_START
G1 X161.351 Y56.661 E-.09644
G1 X160.405 Y56.789 E-.28634
G1 X159.717 Y57.013 E-.21722
;WIPE_END
G1 Z.4 F30000
G1 X163.464 Y68.285 Z.4
G1 Z.2
G1 E.6 F2400
G1 F3600
G1 X163.117 Y68.228 E.0131
G1 X162.212 Y68.277 E.03376
G1 X161.338 Y68.52 E.03376
G1 X160.538 Y68.944 E.03376
G1 X159.847 Y69.531 E.03376
G1 X159.298 Y70.253 E.03376
G1 X158.918 Y71.075 E.03376
G1 X158.723 Y71.96 E.03376
G1 X158.723 Y72.05 E.00334
G1 X160.186 Y72.05 E.05451
G1 X160.45 Y72.314 E.01389
G1 X160.45 Y75.809 E.13017
G1 X160.538 Y75.883 E.00428
G1 X161.339 Y76.308 E.03376
G1 X162.212 Y76.55 E.03376
G1 X163.117 Y76.599 E.03376
G1 X164.011 Y76.453 E.03376
G1 X164.853 Y76.117 E.03376
G1 X165.25 Y75.848 E.01785
G1 X165.25 Y68.979 E.25585
G1 X164.853 Y68.71 E.01785
G1 X164.011 Y68.375 E.03376
G1 X163.532 Y68.296 E.0181
G1 X159.649 Y70.131 F30000
G1 F3600
G1 X159.649 Y71.639 E.05617
G1 X160.157 Y71.639 E.01892
G1 X160.157 Y69.807 E.06822
G1 X160.665 Y69.376 E.02482
G1 X160.665 Y71.947 E.09578
G1 X160.861 Y72.143 E.01033
G1 X160.861 Y75.589 E.12834
G1 X161.173 Y75.754 E.01314
G1 X161.173 Y69.073 E.24885
G1 X161.492 Y68.904 E.01343
G1 X161.681 Y68.851 E.00732
G1 X161.681 Y75.976 E.26535
G1 X162.189 Y76.117 E.01963
G1 X162.189 Y68.71 E.27586
G1 X162.279 Y68.685 E.00348
G1 X162.697 Y68.663 E.01559
G1 X162.697 Y76.164 E.27941
G1 X163.095 Y76.186 E.01484
M73 P0 R68
G1 X163.205 Y76.168 E.00415
G1 X163.205 Y68.659 E.27967
G1 X163.712 Y68.743 E.01917
G1 X163.712 Y76.085 E.27347
G1 X163.901 Y76.054 E.00711
G1 X164.22 Y75.926 E.01281
G1 X164.22 Y68.901 E.26168
G1 X164.66 Y69.076 E.01761
G1 X164.728 Y69.122 E.00308
G1 X164.728 Y75.946 E.25414
;WIPE_START
G1 X164.728 Y73.946 E-.6
;WIPE_END
G1 Z.4 F30000
G1 X172.346 Y76.227 Z.4
G1 Z.2
G1 E.6 F2400
G1 F3600
G1 X172.346 Y67.84 E.31239
G1 X172.854 Y67.559 E.02162
G1 X172.854 Y76.268 E.32437
G1 X173.146 Y76.425 E.01237
G1 X173.362 Y76.496 E.00845
G1 X173.362 Y67.33 E.34139
G1 X173.87 Y67.164 E.0199
G1 X173.87 Y76.662 E.35375
G1 X173.983 Y76.699 E.00443
G1 X174.378 Y76.753 E.01485
G1 X174.378 Y67.073 E.36054
G1 X174.885 Y67.009 E.01907
G1 X174.885 Y76.817 E.36531
G1 X175.393 Y76.795 E.01893
G1 X175.393 Y67.031 E.36369
G1 X175.734 Y67.045 E.01271
G1 X175.901 Y67.083 E.00638
G1 X175.901 Y76.743 E.35978
G1 X176.409 Y76.628 E.01939
G1 X176.409 Y67.198 E.35122
G1 X176.593 Y67.24 E.00704
G1 X176.917 Y67.378 E.01309
G1 X176.917 Y76.448 E.33786
G1 X177.425 Y76.228 E.02063
G1 X177.425 Y67.598 E.3214
G1 X177.933 Y67.933 E.02264
G1 X177.933 Y75.893 E.29651
G1 X178.14 Y75.757 E.00927
G1 X178.441 Y75.471 E.01544
G1 X178.441 Y68.356 E.265
G1 X178.778 Y68.678 E.01738
G1 X178.948 Y68.911 E.01076
G1 X178.948 Y74.915 E.22361
G1 X179.297 Y74.436 E.02208
G1 X179.456 Y74.106 E.01362
G1 X179.456 Y69.72 E.16336
G1 X179.68 Y70.185 E.01921
G1 X179.915 Y71.035 E.03285
G1 X179.964 Y71.574 E.02019
G1 X179.964 Y73.387 E.06752
;WIPE_START
G1 X179.964 Y71.574 E-.54385
G1 X179.947 Y71.388 E-.05615
;WIPE_END
G1 Z.4 F30000
G1 X172.346 Y65.117 Z.4
G1 Z.2
G1 E.6 F2400
G1 F3600
G1 X172.346 Y56.764 E.31109
G1 X172.854 Y56.476 E.02175
G1 X172.854 Y65.156 E.32332
G1 X173.18 Y65.332 E.01379
G1 X173.362 Y65.391 E.00712
G1 X173.362 Y56.241 E.34078
G1 X173.87 Y56.076 E.01989
G1 X173.87 Y65.556 E.35308
G1 X174.017 Y65.604 E.00578
G1 X174.378 Y65.653 E.01354
G1 X174.378 Y55.98 E.36028
G1 X174.885 Y55.911 E.01909
G1 X174.885 Y65.721 E.36541
G1 X175.393 Y65.699 E.01893
G1 X175.393 Y55.933 E.36377
G1 X175.769 Y55.95 E.01401
G1 X175.901 Y55.98 E.00504
G1 X175.901 Y65.652 E.36027
G1 X176.409 Y65.536 E.0194
G1 X176.409 Y56.096 E.35163
G1 X176.628 Y56.146 E.00835
G1 X176.917 Y56.269 E.01172
G1 X176.917 Y65.363 E.3387
G1 X177.425 Y65.146 E.02057
G1 X177.425 Y56.486 E.32253
G1 X177.933 Y56.819 E.02261
G1 X177.933 Y64.813 E.29777
G1 X178.172 Y64.655 E.01068
G1 X178.441 Y64.399 E.01384
G1 X178.441 Y57.233 E.26688
G1 X178.808 Y57.585 E.01895
G1 X178.948 Y57.778 E.00888
G1 X178.948 Y63.854 E.22632
G1 X179.326 Y63.335 E.02391
G1 X179.456 Y63.064 E.01121
G1 X179.456 Y58.568 E.16744
G1 X179.708 Y59.091 E.02159
G1 X179.942 Y59.939 E.03279
G1 X179.964 Y60.186 E.00922
G1 X179.964 Y62.386 E.08194
G1 X175.261 Y55.515 F30000
G1 F3600
G1 X175.825 Y55.54 E.02103
G1 X176.755 Y55.753 E.03555
G1 X177.633 Y56.128 E.03555
G1 X178.429 Y56.654 E.03555
G1 X179.119 Y57.313 E.03555
G1 X179.68 Y58.085 E.03555
G1 X180.094 Y58.945 E.03555
G1 X180.348 Y59.865 E.03555
G1 X180.434 Y60.816 E.03555
G1 X180.348 Y61.767 E.03555
G1 X180.198 Y62.311 E.02102
G1 X180.094 Y62.687 E.01453
G1 X179.68 Y63.547 E.03555
G1 X179.119 Y64.319 E.03555
G1 X178.429 Y64.978 E.03555
G1 X177.633 Y65.504 E.03555
G1 X176.755 Y65.879 E.03555
G1 X175.825 Y66.092 E.03555
G1 X175.06 Y66.126 E.02853
G1 X175.06 Y66.605 E.01783
G1 X175.789 Y66.636 E.02717
G1 X176.72 Y66.847 E.03558
G1 X177.599 Y67.221 E.03557
G1 X178.397 Y67.746 E.03558
G1 X179.089 Y68.406 E.03559
G1 X179.652 Y69.178 E.0356
G1 X180.067 Y70.039 E.03561
G1 X180.322 Y70.961 E.03561
G1 X180.408 Y71.913 E.03561
G1 X180.322 Y72.865 E.03561
G1 X180.067 Y73.787 E.03561
G1 X179.652 Y74.648 E.03561
G1 X179.089 Y75.42 E.0356
G1 X178.398 Y76.08 E.03559
G1 X177.599 Y76.605 E.03559
G1 X176.72 Y76.979 E.03558
G1 X175.789 Y77.19 E.03557
G1 X174.835 Y77.231 E.03556
G1 X173.89 Y77.101 E.03554
G1 X172.983 Y76.805 E.03553
G1 X172.144 Y76.352 E.03552
G1 X171.45 Y75.796 E.03311
G1 X171.45 Y68.03 E.28927
G1 X172.144 Y67.474 E.03312
G1 X172.983 Y67.021 E.03552
G1 X173.89 Y66.725 E.03553
G1 X174.941 Y66.581 E.03949
G1 X174.94 Y66.144 E.01626
G1 X173.925 Y66.006 E.03815
G1 X173.018 Y65.711 E.03555
G1 X172.177 Y65.259 E.03555
G1 X171.45 Y64.679 E.03464
G1 X171.45 Y57.314 E.27435
G1 X171.279 Y57.142 E.00903
G1 X171.431 Y56.968 E.00862
G1 X172.177 Y56.373 E.03555
G1 X173.018 Y55.921 E.03555
G1 X173.925 Y55.626 E.03555
G1 X174.871 Y55.498 E.03555
G1 X175.192 Y55.512 E.01197
;WIPE_START
G1 X174.871 Y55.498 E-.09641
G1 X173.925 Y55.626 E-.28634
G1 X173.237 Y55.849 E-.21726
;WIPE_END
G1 Z.4 F30000
G1 X128.55 Y232.618 Z.4
G1 Z.2
G1 E.6 F2400
G1 F3600
G1 X128.55 Y232.422 E.00728
G1 X128.21 Y232.712 E.01662
G1 X127.662 Y233.434 E.03377
G1 X127.281 Y234.257 E.03377
G1 X127.087 Y235.142 E.03376
G1 X127.088 Y236.049 E.03376
G1 X127.119 Y236.188 E.00531
G1 X127.002 Y236.281 E.00554
G1 X126.375 Y237 E.03554
G1 X125.886 Y237.819 E.03554
G1 X125.551 Y238.712 E.03553
G1 X125.381 Y239.651 E.03553
G1 X125.381 Y240.605 E.03553
G1 X125.551 Y241.543 E.03553
G1 X125.887 Y242.436 E.03553
G1 X126.376 Y243.255 E.03553
G1 X127.003 Y243.974 E.03553
G1 X127.749 Y244.569 E.03553
G1 X128.589 Y245.021 E.03554
G1 X129.496 Y245.317 E.03554
G1 X130.442 Y245.445 E.03554
G1 X131.395 Y245.403 E.03554
G1 X132.326 Y245.191 E.03555
G1 X132.841 Y244.971 E.02087
G1 X133.693 Y245.086 E.032
G1 X134.645 Y245.043 E.03552
G1 X134.781 Y245.012 E.00519
G1 X135.174 Y245.324 E.01867
G1 X136.015 Y245.775 E.03555
G1 X136.923 Y246.069 E.03554
G1 X137.868 Y246.196 E.03553
G1 X138.821 Y246.152 E.03552
G1 X139.75 Y245.939 E.03552
G1 X140.627 Y245.563 E.03551
G1 X141.422 Y245.038 E.0355
G1 X142.11 Y244.379 E.0355
G1 X142.671 Y243.608 E.0355
G1 X143.084 Y242.749 E.0355
G1 X143.338 Y241.83 E.0355
G1 X143.424 Y240.881 E.0355
G1 X143.34 Y239.931 E.03551
G1 X143.087 Y239.012 E.03552
G1 X142.809 Y238.433 E.02391
G1 X143.14 Y237.865 E.02451
G1 X143.421 Y237.001 E.03383
G1 X143.512 Y236.101 E.03369
G1 X143.409 Y235.191 E.03411
G1 X143.118 Y234.332 E.03377
G1 X142.649 Y233.552 E.03389
G1 X142.082 Y232.95 E.0308
G1 X128.814 Y232.95 E.49421
G1 X128.55 Y232.686 E.01389
G1 X126.13 Y242.443 F30000
G1 F3600
G1 X126.13 Y238.339 E.15289
G1 X126.258 Y237.998 E.01355
G1 X126.638 Y237.361 E.02762
G1 X126.638 Y242.893 E.20603
G1 X126.71 Y243.013 E.00521
G1 X127.146 Y243.512 E.0247
G1 X127.146 Y236.742 E.25217
G1 X127.288 Y236.579 E.00803
G1 X127.575 Y236.35 E.01371
G1 X127.499 Y236.004 E.01319
G1 X127.499 Y235.187 E.03043
G1 X127.654 Y234.479 E.02699
G1 X127.654 Y243.967 E.35339
G1 X127.976 Y244.224 E.01537
G1 X128.162 Y244.324 E.00784
G1 X128.162 Y233.455 E.40482
G1 X128.41 Y233.128 E.0153
G1 X128.643 Y233.361 E.01228
G1 X128.67 Y233.361 E.00098
G1 X128.67 Y244.598 E.41851
G1 X128.751 Y244.642 E.00346
G1 X129.177 Y244.78 E.01669
G1 X129.177 Y233.361 E.42532
G1 X129.685 Y233.361 E.01892
G1 X129.685 Y244.927 E.43079
G1 X130.193 Y244.996 E.01909
G1 X130.193 Y233.361 E.43336
G1 X130.701 Y233.361 E.01892
G1 X130.701 Y245.022 E.43432
G1 X131.209 Y245 E.01893
G1 X131.209 Y233.361 E.43348
G1 X131.717 Y233.361 E.01892
G1 X131.717 Y244.908 E.43006
G1 X132.225 Y244.787 E.01944
G1 X132.225 Y233.361 E.42556
G1 X132.733 Y233.361 E.01892
G1 X132.733 Y244.57 E.41749
G1 X132.784 Y244.548 E.00208
G1 X133.24 Y244.61 E.01716
G1 X133.24 Y233.361 E.41897
G1 X133.748 Y233.361 E.01892
G1 X133.748 Y244.672 E.42128
G1 X134.256 Y244.649 E.01894
G1 X134.256 Y233.361 E.42042
G1 X134.764 Y233.361 E.01892
G1 X134.764 Y244.594 E.41838
G1 X134.882 Y244.567 E.00453
G1 X135.272 Y244.877 E.01853
G1 X135.272 Y233.361 E.42891
G1 X135.78 Y233.361 E.01892
G1 X135.78 Y245.183 E.4403
G1 X136.177 Y245.395 E.01677
G1 X136.288 Y245.431 E.00435
G1 X136.288 Y233.361 E.44956
G1 X136.795 Y233.361 E.01892
G1 X136.795 Y245.596 E.45568
G1 X137.014 Y245.666 E.00855
G1 X137.303 Y245.705 E.01088
G1 X137.303 Y233.361 E.45976
G1 X137.811 Y233.361 E.01892
G1 X137.811 Y245.773 E.4623
G1 X138.319 Y245.763 E.01892
G1 X138.319 Y233.361 E.46193
G1 X138.827 Y233.361 E.01892
G1 X138.827 Y245.729 E.46063
G1 X139.335 Y245.612 E.01941
G1 X139.335 Y233.361 E.45629
G1 X139.843 Y233.361 E.01892
G1 X139.843 Y245.452 E.45032
G1 X140.351 Y245.234 E.02058
G1 X140.351 Y233.361 E.44222
G1 X140.858 Y233.361 E.01892
G1 X140.858 Y244.917 E.43041
G1 X141.164 Y244.715 E.01365
G1 X141.366 Y244.522 E.01042
G1 X141.366 Y233.361 E.41568
G1 X141.874 Y233.361 E.01892
G1 X141.874 Y244.004 E.39641
G1 X142.316 Y243.396 E.02801
G1 X142.382 Y243.259 E.00566
G1 X142.382 Y233.907 E.34834
G1 X142.742 Y234.506 E.02606
G1 X142.89 Y234.941 E.01712
G1 X142.89 Y237.886 E.10968
G1 X142.89 Y239.077 F30000
G1 F3600
G1 X142.89 Y242.679 E.13415
;WIPE_START
G1 X142.89 Y240.679 E-.6
;WIPE_END
G1 Z.4 F30000
G1 X165.371 Y57.626 Z.4
G1 Z.2
G1 E.6 F2400
;TYPE:Brim
G1 F3600
G1 X165.186 Y57.454 E.00942
G1 X164.356 Y56.904 E.03708
G1 X163.406 Y56.492 E.0386
G1 X162.397 Y56.256 E.0386
G1 X161.459 Y56.208 E.03496
G1 X161.849 Y55.311 E.03642
G1 X162.199 Y54.776 E.02381
G1 X162.626 Y54.297 E.0239
G1 X163.119 Y53.886 E.0239
G1 X163.664 Y53.553 E.0238
G1 X164.45 Y53.242 E.03148
G1 X165.13 Y53.096 E.02589
G1 X165.708 Y53.058 E.02157
G1 X170.992 Y53.058 E.19681
G1 X171.64 Y53.106 E.02422
G1 X172.263 Y53.246 E.02377
G1 X173.106 Y53.603 E.03411
G1 X173.724 Y54 E.02737
G1 X174.203 Y54.426 E.02386
G1 X174.614 Y54.919 E.0239
G1 X174.7 Y55.059 E.00615
G1 X173.814 Y55.183 E.03333
G1 X172.848 Y55.497 E.03784
G1 X171.934 Y55.987 E.03861
G1 X171.109 Y56.644 E.03929
G1 X170.876 Y56.909 E.01312
G1 X170.819 Y57.067 E.00629
G1 X170.822 Y57.171 E.00388
G1 X165.7 Y57.171 E.19079
G1 X165.584 Y57.196 E.00442
G1 X165.447 Y57.305 E.00652
G1 X165.4 Y57.389 E.00361
G1 X165.371 Y57.5 E.00426
G1 X165.371 Y57.586 E.00321
G1 X165.255 Y56.869 F30000
G1 F3600
G1 X165.12 Y56.862 E.00503
G1 X164.528 Y56.48 E.02622
G1 X163.598 Y56.077 E.03774
G1 X162.509 Y55.813 E.04176
G1 X162.332 Y55.795 E.0066
G1 X162.234 Y55.737 E.00426
G1 X162.23 Y55.585 E.00564
G1 X162.556 Y55.066 E.02285
G1 X162.953 Y54.62 E.02222
G1 X163.378 Y54.265 E.02062
G1 X163.859 Y53.97 E.02102
G1 X164.594 Y53.679 E.02946
G1 X165.183 Y53.552 E.02245
G1 X165.727 Y53.515 E.0203
G1 X170.98 Y53.515 E.19564
G1 X171.582 Y53.561 E.02251
G1 X172.133 Y53.688 E.02106
G1 X172.902 Y54.015 E.03111
G1 X173.455 Y54.373 E.02455
G1 X173.644 Y54.541 E.00942
G1 X173.69 Y54.645 E.00426
G1 X173.597 Y54.773 E.0059
G1 X172.622 Y55.1 E.0383
G1 X171.729 Y55.578 E.03774
G1 X170.832 Y56.281 E.04242
G1 X170.512 Y56.647 E.01812
G1 X170.394 Y56.714 E.00506
G1 X165.711 Y56.714 E.17443
G1 X165.504 Y56.746 E.00776
G1 X165.29 Y56.852 E.00889
G1 X165.267 Y56.352 F30000
G1 F3600
G1 X165.151 Y56.338 E.00434
G1 X164.701 Y56.057 E.01979
G1 X163.79 Y55.662 E.03695
G1 X163.069 Y55.478 E.02774
G1 X162.98 Y55.406 E.00426
G1 X163 Y55.254 E.00571
G1 X163.28 Y54.942 E.0156
G1 X163.654 Y54.632 E.0181
G1 X164.075 Y54.376 E.01837
G1 X164.717 Y54.122 E.0257
G1 X165.238 Y54.008 E.01986
G1 X165.747 Y53.972 E.01903
G1 X170.957 Y53.972 E.19404
G1 X171.503 Y54.014 E.0204
G1 X172.003 Y54.129 E.01909
G1 X172.585 Y54.377 E.02357
G1 X172.662 Y54.462 E.00426
G1 X172.648 Y54.575 E.00426
G1 X172.58 Y54.632 E.00327
G1 X172.399 Y54.701 E.00723
G1 X171.438 Y55.225 E.04078
G1 X170.559 Y55.914 E.04159
G1 X170.284 Y56.213 E.01512
G1 X170.183 Y56.257 E.00411
G1 X165.719 Y56.257 E.16626
G1 X165.445 Y56.293 E.01032
