; HEADER_BLOCK_START
; generated by OrcaSlicer 2.3.1-beta on 2025-11-27 at 12:29:19
; total layer number: 150
; filament_density: 1.25
; filament_diameter: 1.75
; max_z_height: 30.00
; HEADER_BLOCK_END

; THUMBNAIL_BLOCK_START

;
; THUMBNAIL_BLOCK_END

; THUMBNAIL_BLOCK_START

;
; THUMBNAIL_BLOCK_END

; external perimeters extrusion width = 0.42mm
; perimeters extrusion width = 0.45mm
; infill extrusion width = 0.45mm
; solid infill extrusion width = 0.42mm
; top infill extrusion width = 0.42mm
; support material extrusion width = 0.42mm
; first layer extrusion width = 0.50mm

; EXECUTABLE_BLOCK_START
EXCLUDE_OBJECT_DEFINE NAME=카메라_거치대.STL_id_0_copy_0 CENTER=150,150 POLYGON=[[131.5,226],[148.5,56.5],[168.5,56.5],[168.5,76.5],[156.5,233.5],[147.466,243.5],[131.5,243.5],[131.5,226]]
M73 P0 R64
M106 S0
M106 P2 S0
;TYPE:Custom
M140 S0
M104 S0
M190 S55
M808 L20
G4 P13500
M808
START_PRINT EXTRUDER_TEMP=220 BED_TEMP=55
G90
G21
M83 ; use relative distances for extrusion
; Filament gcode
M106 S0
M106 P2 S0
;LAYER_CHANGE
;Z:0.2
;HEIGHT:0.2
;BEFORE_LAYER_CHANGE
;0.2
G92 E0

G1 E-.6 F2400
;_SET_FAN_SPEED_CHANGING_LAYER
SET_VELOCITY_LIMIT ACCEL=500 ACCEL_TO_DECEL=250
SET_VELOCITY_LIMIT SQUARE_CORNER_VELOCITY=9
EXCLUDE_OBJECT_START NAME=카메라_거치대.STL_id_0_copy_0
G1 Z.4 F30000
G1 X131.05 Y233.618
G1 Z.4
G1 Z.2
G1 E.6 F2400
;TYPE:Support
;WIDTH:0.5
G1 F3600
G1 X131.05 Y232.624 E.03703
G1 X130.422 Y232.958 E.02652
G1 X129.678 Y233.544 E.03526
G1 X129.048 Y234.253 E.03532
G1 X128.554 Y235.064 E.03539
G1 X128.21 Y235.952 E.03546
G1 X128.029 Y236.889 E.03554
G1 X128.018 Y237.845 E.03561
G1 X128.177 Y238.79 E.03569
G1 X128.504 Y239.693 E.03576
G1 X128.722 Y240.068 E.01618
G1 X128.599 Y240.859 E.0298
G1 X128.6 Y241.74 E.03282
G1 X128.766 Y242.606 E.03286
G1 X129.04 Y243.388 E.03085
G1 X129.243 Y243.798 E.01702
G1 X129.488 Y244.217 E.01809
G1 X130.026 Y244.912 E.03272
G1 X130.715 Y245.543 E.03481
G1 X131.498 Y246.041 E.03456
G1 X131.865 Y246.209 E.01503
G1 X132.458 Y246.439 E.0237
G1 X133.159 Y246.595 E.02673
G1 X133.529 Y246.653 E.01395
G1 X134.018 Y246.653 E.01823
G1 X134.564 Y247.088 E.02602
G1 X135.405 Y247.541 E.03555
G1 X136.313 Y247.836 E.03555
G1 X137.258 Y247.964 E.03555
G1 X138.212 Y247.921 E.03555
G1 X139.142 Y247.708 E.03555
G1 X139.308 Y247.637 E.00672
G1 X139.919 Y247.836 E.02392
G1 X140.865 Y247.964 E.03555
G1 X141.818 Y247.921 E.03555
G1 X142.749 Y247.708 E.03555
G1 X143.626 Y247.333 E.03555
G1 X144.423 Y246.807 E.03555
G1 X145.113 Y246.148 E.03555
G1 X145.673 Y245.375 E.03555
G1 X146.087 Y244.516 E.03555
G1 X146.341 Y243.596 E.03554
G1 X146.427 Y242.645 E.03554
G1 X146.341 Y241.695 E.03554
G1 X146.087 Y240.775 E.03554
G1 X145.801 Y240.18 E.02457
G1 X146.236 Y239.253 E.03817
G1 X146.481 Y238.327 E.03566
G1 X146.556 Y237.374 E.0356
G1 X146.461 Y236.425 E.03553
G1 X146.199 Y235.51 E.03546
G1 X145.78 Y234.657 E.0354
G1 X145.259 Y233.95 E.0327
G1 X131.314 Y233.95 E.51942
G1 X131.05 Y233.686 E.01389
G1 X128.67 Y235.335 F30000
G1 F3600
G1 X128.67 Y238.941 E.13432
G1 X128.878 Y239.518 E.02284
G1 X129.151 Y239.988 E.02023
G1 X129.011 Y240.891 E.03404
G1 X129.012 Y241.701 E.03018
G1 X129.177 Y242.536 E.03173
G1 X129.177 Y234.832 E.28696
G1 X129.381 Y234.499 E.01453
G1 X129.685 Y234.155 E.01711
G1 X129.685 Y243.74 E.35699
G1 X129.829 Y243.987 E.01065
G1 X130.193 Y244.456 E.02212
G1 X130.193 Y233.662 E.40206
G1 X130.639 Y233.311 E.02112
G1 X130.639 Y233.857 E.02034
G1 X130.701 Y233.919 E.00329
G1 X130.701 Y244.972 E.41167
G1 X130.967 Y245.215 E.0134
G1 X131.209 Y245.369 E.0107
G1 X131.209 Y234.361 E.40999
G1 X131.717 Y234.361 E.01892
G1 X131.717 Y245.688 E.42188
G1 X132.225 Y245.907 E.0206
G1 X132.225 Y234.361 E.43004
G1 X132.733 Y234.361 E.01892
G1 X132.733 Y246.079 E.43643
G1 X133.24 Y246.191 E.01937
G1 X133.24 Y234.361 E.44062
G1 X133.748 Y234.361 E.01892
G1 X133.748 Y246.242 E.4425
G1 X134.162 Y246.241 E.01541
G1 X134.256 Y246.316 E.00448
G1 X134.256 Y234.361 E.44528
G1 X134.764 Y234.361 E.01892
G1 X134.764 Y246.721 E.46037
G1 X135.272 Y247.002 E.02161
G1 X135.272 Y234.361 E.47081
G1 X135.78 Y234.361 E.01892
G1 X135.78 Y247.23 E.4793
G1 X136.288 Y247.395 E.01989
G1 X136.288 Y234.361 E.48545
G1 X136.795 Y234.361 E.01892
G1 X136.795 Y247.486 E.48884
G1 X137.303 Y247.55 E.01907
G1 X137.303 Y234.361 E.49122
G1 X137.811 Y234.361 E.01892
G1 X137.811 Y247.527 E.49037
G1 X138.156 Y247.512 E.01287
G1 X138.319 Y247.474 E.00621
G1 X138.319 Y234.361 E.48841
G1 X138.827 Y234.361 E.01892
G1 X138.827 Y247.358 E.48409
G1 X139.015 Y247.316 E.00717
G1 X139.289 Y247.199 E.01109
G1 X139.335 Y247.214 E.00181
G1 X139.335 Y234.361 E.4787
G1 X139.843 Y234.361 E.01892
G1 X139.843 Y247.379 E.48484
G1 X140.011 Y247.433 E.00659
G1 X140.351 Y247.479 E.01277
G1 X140.351 Y234.361 E.48859
G1 X140.858 Y234.361 E.01892
G1 X140.858 Y247.548 E.49114
G1 X141.366 Y247.529 E.01893
G1 X141.366 Y234.361 E.49046
G1 X141.874 Y234.361 E.01892
G1 X141.874 Y247.486 E.48885
G1 X142.382 Y247.37 E.0194
G1 X142.382 Y234.361 E.48453
G1 X142.89 Y234.361 E.01892
G1 X142.89 Y247.201 E.47821
G1 X143.398 Y246.983 E.02057
G1 X143.398 Y234.361 E.47012
G1 X143.906 Y234.361 E.01892
G1 X143.906 Y246.656 E.45792
G1 X144.165 Y246.484 E.01159
G1 X144.413 Y246.247 E.01279
G1 X144.413 Y234.361 E.44269
G1 X144.921 Y234.361 E.01892
G1 X144.921 Y245.711 E.42273
G1 X145.319 Y245.164 E.0252
G1 X145.429 Y244.934 E.00947
G1 X145.429 Y234.875 E.37466
G1 X145.814 Y235.658 E.03248
G1 X145.937 Y236.089 E.01668
G1 X145.937 Y239.406 E.12355
G1 X145.937 Y241.003 F30000
G1 F3600
G1 X145.937 Y244.287 E.12232
;WIPE_START
G1 X145.937 Y242.287 E-.6
;WIPE_END
G1 Z.4 F30000
G1 X146.969 Y237.942 Z.4
G1 Z.2
G1 E.6 F2400
;TYPE:Brim
G1 F3600
G1 X147.012 Y237.339 E.02253
G1 X146.915 Y236.369 E.03629
G1 X146.636 Y235.375 E.03848
G1 X146.175 Y234.428 E.0392
G1 X145.738 Y233.829 E.02766
G1 X156.5 Y233.829 E.40086
G1 X156.616 Y233.804 E.00442
G1 X156.753 Y233.695 E.00652
G1 X156.8 Y233.611 E.00361
G1 X156.829 Y233.5 E.00426
G1 X156.829 Y76.829 E5.83542
G1 X168.5 Y76.829 E.43472
G1 X168.616 Y76.804 E.00442
G1 X168.753 Y76.695 E.00652
G1 X168.8 Y76.611 E.00361
G1 X168.829 Y76.5 E.00426
G1 X168.829 Y56.5 E.74492
G1 X168.804 Y56.384 E.00442
G1 X168.695 Y56.247 E.00652
G1 X168.611 Y56.2 E.00361
G1 X168.5 Y56.171 E.00426
G1 X164.5 Y56.171 E.14898
G1 X164.384 Y56.196 E.00442
G1 X164.247 Y56.305 E.00652
G1 X164.2 Y56.389 E.00361
G1 X164.171 Y56.5 E.00426
G1 X164.171 Y73.171 E.62095
G1 X152.829 Y73.171 E.42248
G1 X152.82 Y56.437 E.6233
G1 X152.804 Y56.384 E.00206
G1 X152.695 Y56.247 E.00652
G1 X152.611 Y56.2 E.00361
G1 X152.5 Y56.171 E.00426
G1 X148.5 Y56.171 E.14898
G1 X148.384 Y56.196 E.00442
G1 X148.247 Y56.305 E.00652
G1 X148.2 Y56.389 E.00361
G1 X148.171 Y56.5 E.00426
G1 X148.171 Y225.671 E6.30099
G1 X131.5 Y225.671 E.62095
M73 P0 R63
G1 X131.384 Y225.696 E.00442
G1 X131.247 Y225.805 E.00652
G1 X131.2 Y225.889 E.00361
G1 X131.171 Y226 E.00426
G1 X131.171 Y232.165 E.22961
G1 X131.029 Y232.134 E.00544
G1 X130.949 Y232.16 E.00311
G1 X130.18 Y232.571 E.03247
G1 X129.358 Y233.219 E.039
G1 X128.676 Y233.99 E.03836
G1 X128.149 Y234.854 E.03766
G1 X127.761 Y235.877 E.04076
G1 X127.553 Y235.536 E.01488
G1 X127.242 Y234.75 E.03148
G1 X127.096 Y234.07 E.02589
G1 X127.058 Y233.492 E.02157
G1 X127.058 Y226.008 E.27875
G1 X127.106 Y225.36 E.02422
G1 X127.246 Y224.737 E.02377
G1 X127.603 Y223.894 E.03411
G1 X128 Y223.276 E.02737
G1 X128.426 Y222.797 E.02386
G1 X128.919 Y222.386 E.0239
G1 X129.464 Y222.053 E.02378
G1 X130.302 Y221.727 E.0335
G1 X130.929 Y221.596 E.02386
G1 X131.508 Y221.558 E.02159
G1 X143.829 Y221.558 E.45894
G1 X143.97 Y221.509 E.00555
G1 X144.058 Y221.329 E.00745
G1 X144.058 Y56.508 E6.13895
G1 X144.106 Y55.86 E.02422
G1 X144.246 Y55.239 E.02373
G1 X144.649 Y54.311 E.03766
G1 X144.999 Y53.776 E.02381
G1 X145.426 Y53.297 E.0239
G1 X145.919 Y52.886 E.0239
G1 X146.464 Y52.553 E.0238
G1 X147.25 Y52.242 E.03148
G1 X147.93 Y52.096 E.02589
G1 X148.508 Y52.058 E.02157
G1 X152.492 Y52.058 E.14839
G1 X153.14 Y52.106 E.02422
G1 X153.763 Y52.246 E.02377
G1 X154.606 Y52.603 E.03411
G1 X155.224 Y53 E.02737
G1 X155.703 Y53.426 E.02386
G1 X156.114 Y53.919 E.0239
G1 X156.447 Y54.464 E.02378
G1 X156.773 Y55.302 E.0335
G1 X156.904 Y55.929 E.02386
G1 X156.942 Y56.508 E.02159
G1 X156.942 Y68.829 E.45893
G1 X156.991 Y68.97 E.00555
G1 X157.171 Y69.058 E.00745
G1 X159.829 Y69.058 E.09902
G1 X159.97 Y69.009 E.00555
G1 X160.058 Y68.829 E.00745
G1 X160.058 Y56.508 E.4589
G1 X160.106 Y55.86 E.02422
G1 X160.246 Y55.237 E.02377
G1 X160.603 Y54.394 E.03411
G1 X161 Y53.776 E.02737
G1 X161.426 Y53.297 E.02386
G1 X161.919 Y52.886 E.0239
G1 X162.464 Y52.553 E.0238
G1 X163.25 Y52.242 E.03148
G1 X163.93 Y52.096 E.02589
G1 X164.508 Y52.058 E.02157
G1 X168.492 Y52.058 E.14839
G1 X169.14 Y52.106 E.02422
G1 X169.763 Y52.246 E.02377
G1 X170.606 Y52.603 E.03411
G1 X171.224 Y53 E.02737
G1 X171.703 Y53.426 E.02386
G1 X172.114 Y53.919 E.0239
G1 X172.447 Y54.464 E.0238
G1 X172.758 Y55.25 E.03148
G1 X172.904 Y55.93 E.02589
G1 X172.942 Y56.508 E.02157
G1 X172.942 Y76.492 E.74433
G1 X172.894 Y77.14 E.02422
G1 X172.754 Y77.763 E.02377
G1 X172.397 Y78.606 E.03411
G1 X172 Y79.224 E.02737
G1 X171.574 Y79.703 E.02386
G1 X171.081 Y80.114 E.0239
G1 X170.536 Y80.447 E.0238
G1 X169.75 Y80.758 E.03148
G1 X169.07 Y80.904 E.02589
G1 X168.492 Y80.942 E.02157
G1 X161.171 Y80.942 E.2727
G1 X161.03 Y80.991 E.00555
G1 X160.942 Y81.171 E.00745
G1 X160.942 Y233.492 E5.67337
G1 X160.894 Y234.14 E.02422
G1 X160.754 Y234.763 E.02377
G1 X160.397 Y235.606 E.03411
G1 X160 Y236.224 E.02737
G1 X159.574 Y236.703 E.02386
G1 X159.081 Y237.114 E.0239
G1 X158.536 Y237.447 E.02378
G1 X157.698 Y237.773 E.0335
G1 X157.071 Y237.904 E.02386
G1 X156.492 Y237.942 E.02159
G1 X147.009 Y237.942 E.35322
G1 X147.5 Y237.437 F30000
G1 F3600
G1 X147.468 Y237.362 E.00306
G1 X147.352 Y236.235 E.04221
G1 X147.079 Y235.262 E.03761
G1 X146.709 Y234.481 E.03219
G1 X146.708 Y234.367 E.00426
G1 X146.833 Y234.286 E.00557
G1 X156.489 Y234.286 E.35965
G1 X156.697 Y234.254 E.00782
G1 X156.914 Y234.152 E.00892
G1 X157.027 Y234.061 E.00541
G1 X157.194 Y233.843 E.01023
G1 X157.27 Y233.618 E.00884
G1 X157.286 Y233.491 E.00475
G1 X157.286 Y77.423 E5.81296
G1 X157.333 Y77.319 E.00426
G1 X157.423 Y77.286 E.00355
G1 X168.489 Y77.286 E.41219
G1 X168.697 Y77.254 E.00782
G1 X168.914 Y77.152 E.00892
G1 X169.027 Y77.061 E.00541
G1 X169.194 Y76.843 E.01023
G1 X169.27 Y76.618 E.00884
G1 X169.286 Y76.491 E.00475
G1 X169.286 Y56.511 E.74421
G1 X169.254 Y56.303 E.00782
G1 X169.152 Y56.086 E.00892
G1 X169.061 Y55.973 E.00541
G1 X168.843 Y55.806 E.01023
G1 X168.618 Y55.73 E.00884
G1 X168.492 Y55.714 E.00474
G1 X164.393 Y55.727 E.15264
G1 X164.306 Y55.745 E.00331
G1 X164.086 Y55.848 E.00906
G1 X163.973 Y55.939 E.00541
G1 X163.844 Y56.091 E.00743
G1 X163.757 Y56.282 E.00783
G1 X163.714 Y56.512 E.00871
G1 X163.714 Y72.577 E.59835
G1 X163.667 Y72.681 E.00426
G1 X163.577 Y72.714 E.00355
G1 X153.422 Y72.714 E.37823
G1 X153.318 Y72.667 E.00426
G1 X153.285 Y72.577 E.00355
G1 X153.277 Y56.449 E.60073
G1 X153.244 Y56.264 E.00699
G1 X153.153 Y56.088 E.00736
G1 X153.061 Y55.973 E.00551
G1 X152.905 Y55.84 E.00763
G1 X152.618 Y55.73 E.01145
G1 X152.491 Y55.714 E.00475
G1 X148.511 Y55.714 E.14827
G1 X148.303 Y55.746 E.00781
G1 X148.086 Y55.848 E.00892
G1 X147.973 Y55.939 E.00541
G1 X147.806 Y56.157 E.01023
G1 X147.73 Y56.382 E.00884
G1 X147.714 Y56.509 E.00475
G1 X147.714 Y225.077 E6.27854
G1 X147.667 Y225.181 E.00426
M73 P1 R63
G1 X147.577 Y225.214 E.00355
G1 X131.511 Y225.214 E.59842
G1 X131.303 Y225.246 E.00781
G1 X131.086 Y225.348 E.00892
G1 X130.973 Y225.439 E.00541
G1 X130.844 Y225.591 E.00743
G1 X130.757 Y225.782 E.00783
G1 X130.714 Y226.012 E.00871
G1 X130.714 Y231.685 E.21127
G1 X130.643 Y231.805 E.0052
G1 X129.889 Y232.218 E.03204
G1 X129.007 Y232.925 E.04208
G1 X128.341 Y233.679 E.03749
G1 X127.879 Y234.418 E.03246
G1 X127.784 Y234.481 E.00426
G1 X127.674 Y234.45 E.00426
G1 X127.629 Y234.375 E.00327
G1 X127.549 Y233.997 E.01438
G1 X127.515 Y233.473 E.01956
G1 X127.515 Y226.03 E.2772
G1 X127.558 Y225.438 E.02214
G1 X127.688 Y224.867 E.02181
G1 X128.005 Y224.119 E.03025
G1 X128.36 Y223.562 E.02461
G1 X128.738 Y223.134 E.02128
G1 X129.194 Y222.753 E.02213
G1 X129.678 Y222.46 E.02108
G1 X130.444 Y222.164 E.03055
G1 X130.982 Y222.052 E.02048
G1 X131.527 Y222.015 E.02036
G1 X143.818 Y222.015 E.45778
G1 X144.106 Y221.946 E.01103
G1 X144.279 Y221.843 E.00749
G1 X144.387 Y221.698 E.00674
G1 X144.462 Y221.543 E.00639
G1 X144.515 Y221.314 E.00878
G1 X144.515 Y56.52 E6.13792
G1 X144.558 Y55.938 E.02176
G1 X144.68 Y55.394 E.02075
G1 X145.059 Y54.519 E.03551
G1 X145.37 Y54.047 E.02105
G1 X145.738 Y53.634 E.02062
G1 X146.178 Y53.265 E.02138
G1 X146.659 Y52.97 E.02102
G1 X147.373 Y52.685 E.02862
G1 X148.003 Y52.549 E.02403
G1 X148.527 Y52.515 E.01956
G1 X152.48 Y52.515 E.14722
G1 X153.082 Y52.561 E.02251
G1 X153.633 Y52.688 E.02106
G1 X154.381 Y53.005 E.03025
G1 X154.955 Y53.373 E.02541
G1 X155.38 Y53.753 E.02123
G1 X155.747 Y54.194 E.02138
G1 X156.04 Y54.678 E.02108
G1 X156.336 Y55.444 E.03055
G1 X156.448 Y55.982 E.02048
G1 X156.485 Y56.527 E.02036
G1 X156.485 Y68.818 E.45778
G1 X156.554 Y69.106 E.01103
G1 X156.657 Y69.279 E.00749
G1 X156.802 Y69.387 E.00674
G1 X156.957 Y69.462 E.00639
G1 X157.186 Y69.515 E.00878
G1 X159.818 Y69.515 E.09801
G1 X160.106 Y69.446 E.01103
G1 X160.279 Y69.343 E.00749
G1 X160.387 Y69.198 E.00674
G1 X160.462 Y69.043 E.00639
G1 X160.515 Y68.814 E.00878
G1 X160.515 Y56.53 E.4575
G1 X160.558 Y55.938 E.02214
G1 X160.688 Y55.367 E.02181
G1 X161.005 Y54.619 E.03025
G1 X161.36 Y54.062 E.02461
G1 X161.738 Y53.634 E.02128
G1 X162.194 Y53.253 E.02213
G1 X162.68 Y52.959 E.02114
G1 X163.373 Y52.685 E.02775
G1 X163.983 Y52.552 E.02329
G1 X164.527 Y52.515 E.0203
G1 X168.47 Y52.515 E.14684
G1 X169.062 Y52.558 E.02214
G1 X169.61 Y52.68 E.0209
G1 X170.381 Y53.005 E.03116
G1 X170.938 Y53.36 E.02461
G1 X171.38 Y53.753 E.02203
G1 X171.747 Y54.194 E.02138
G1 X172.041 Y54.68 E.02114
G1 X172.321 Y55.394 E.02859
G1 X172.448 Y55.983 E.02245
G1 X172.485 Y56.518 E.01996
G1 X172.485 Y76.47 E.74312
G1 X172.442 Y77.062 E.02214
G1 X172.312 Y77.633 E.02181
G1 X171.995 Y78.381 E.03025
G1 X171.64 Y78.938 E.02461
G1 X171.262 Y79.366 E.02128
G1 X170.806 Y79.747 E.02213
G1 X170.32 Y80.041 E.02114
G1 X169.627 Y80.315 E.02775
G1 X169.017 Y80.448 E.02329
G1 X168.473 Y80.485 E.0203
G1 X161.182 Y80.485 E.27155
G1 X160.894 Y80.554 E.01103
G1 X160.721 Y80.657 E.00749
G1 X160.613 Y80.802 E.00674
G1 X160.538 Y80.957 E.00639
G1 X160.485 Y81.186 E.00878
G1 X160.485 Y233.47 E5.67197
G1 X160.439 Y234.082 E.02289
G1 X160.312 Y234.633 E.02106
G1 X159.995 Y235.381 E.03025
G1 X159.627 Y235.955 E.02541
G1 X159.247 Y236.38 E.02123
G1 X158.806 Y236.747 E.02138
G1 X158.322 Y237.04 E.02108
G1 X157.556 Y237.336 E.03055
G1 X157.018 Y237.448 E.02048
G1 X156.473 Y237.485 E.02036
G1 X147.604 Y237.485 E.33032
G1 X147.537 Y237.454 E.00277
G1 X147.913 Y236.98 F30000
G1 F3600
G1 X147.88 Y236.906 E.003
G1 X147.789 Y236.101 E.0302
G1 X147.522 Y235.148 E.03686
G1 X147.43 Y234.934 E.00868
G1 X147.432 Y234.82 E.00426
G1 X147.556 Y234.743 E.00541
G1 X156.57 Y234.736 E.33574
G1 X156.9 Y234.663 E.0126
G1 X157.097 Y234.571 E.0081
G1 X157.304 Y234.424 E.00943
G1 X157.552 Y234.126 E.01445
G1 X157.631 Y233.978 E.00626
G1 X157.7 Y233.773 E.00804
G1 X157.738 Y233.554 E.00828
G1 X157.743 Y77.88 E5.79828
G1 X157.79 Y77.776 E.00426
G1 X157.88 Y77.743 E.00355
G1 X168.481 Y77.743 E.39484
G1 X168.758 Y77.706 E.01044
G1 X168.9 Y77.663 E.00551
G1 X169.097 Y77.571 E.0081
G1 X169.304 Y77.424 E.00943
G1 X169.552 Y77.126 E.01445
G1 X169.631 Y76.978 E.00626
G1 X169.699 Y76.775 E.00797
G1 X169.743 Y76.481 E.01106
G1 X169.743 Y56.519 E.7435
G1 X169.706 Y56.242 E.01044
G1 X169.663 Y56.1 E.00551
G1 X169.571 Y55.903 E.0081
G1 X169.424 Y55.696 E.00943
G1 X169.126 Y55.448 E.01445
G1 X168.978 Y55.369 E.00626
G1 X168.773 Y55.3 E.00804
G1 X168.555 Y55.262 E.00826
G1 X164.292 Y55.282 E.15878
G1 X164.102 Y55.336 E.00734
G1 X163.903 Y55.429 E.00819
G1 X163.694 Y55.577 E.00955
G1 X163.503 Y55.787 E.01056
