; HEADER_BLOCK_START
; generated by OrcaSlicer 2.3.1-beta on 2025-11-27 at 12:22:14
; total layer number: 150
; filament_density: 1.25
; filament_diameter: 1.75
; max_z_height: 30.00
; HEADER_BLOCK_END

; THUMBNAIL_BLOCK_START

;
; THUMBNAIL_BLOCK_END

; THUMBNAIL_BLOCK_START

;
; THUMBNAIL_BLOCK_END

; external perimeters extrusion width = 0.42mm
; perimeters extrusion width = 0.45mm
; infill extrusion width = 0.45mm
; solid infill extrusion width = 0.42mm
; top infill extrusion width = 0.42mm
; support material extrusion width = 0.42mm
; first layer extrusion width = 0.50mm

; EXECUTABLE_BLOCK_START
EXCLUDE_OBJECT_DEFINE NAME=카메라_거치대.STL_id_0_copy_0 CENTER=150,150 POLYGON=[[131.5,226],[148.5,56.5],[168.5,56.5],[168.5,76.5],[156.5,233.5],[147.467,243.5],[131.5,243.5],[131.5,226]]
M73 P0 R64
M106 S0
M106 P2 S0
;TYPE:Custom
M140 S0
M104 S0
M190 S55
M808 L20
G4 P13500
M808
START_PRINT EXTRUDER_TEMP=220 BED_TEMP=55
G90
G21
M83 ; use relative distances for extrusion
; Filament gcode
M106 S0
M106 P2 S0
;LAYER_CHANGE
;Z:0.2
;HEIGHT:0.2
;BEFORE_LAYER_CHANGE
;0.2
G92 E0

G1 E-.6 F2400
;_SET_FAN_SPEED_CHANGING_LAYER
SET_VELOCITY_LIMIT ACCEL=500 ACCEL_TO_DECEL=250
SET_VELOCITY_LIMIT SQUARE_CORNER_VELOCITY=9
EXCLUDE_OBJECT_START NAME=카메라_거치대.STL_id_0_copy_0
G1 Z.4 F30000
G1 X131.05 Y233.618
G1 Z.4
G1 Z.2
G1 E.6 F2400
;TYPE:Support
;WIDTH:0.5
G1 F3600
G1 X131.05 Y232.505 E.04147
G1 X130.575 Y232.691 E.019
G1 X129.875 Y233.053 E.02936
G1 X129.214 Y233.53 E.03038
G1 X128.578 Y234.148 E.03302
G1 X128.045 Y234.988 E.03707
G1 X127.691 Y235.888 E.03599
G1 X127.503 Y236.826 E.03564
G1 X127.481 Y237.786 E.03578
G1 X127.631 Y238.739 E.03592
G1 X127.948 Y239.654 E.03606
G1 X128.424 Y240.5 E.03619
G1 X128.917 Y241.092 E.02868
G1 X128.761 Y241.952 E.03256
G1 X128.762 Y242.907 E.03555
G1 X128.933 Y243.846 E.03555
G1 X129.268 Y244.739 E.03555
G1 X129.758 Y245.558 E.03555
G1 X130.386 Y246.277 E.03554
G1 X131.132 Y246.871 E.03554
G1 X131.973 Y247.323 E.03554
G1 X132.88 Y247.618 E.03554
G1 X133.826 Y247.746 E.03554
G1 X134.779 Y247.703 E.03553
G1 X135.709 Y247.491 E.03553
G1 X136.586 Y247.116 E.03554
G1 X136.754 Y247.005 E.00749
G1 X137.668 Y247.498 E.03868
G1 X138.576 Y247.793 E.03555
G1 X139.522 Y247.921 E.03555
G1 X140.476 Y247.879 E.03555
G1 X141.406 Y247.667 E.03556
G1 X142.284 Y247.292 E.03556
G1 X143.081 Y246.766 E.03556
G1 X143.771 Y246.106 E.03556
G1 X144.333 Y245.334 E.03556
G1 X144.747 Y244.474 E.03556
G1 X145.001 Y243.553 E.03556
G1 X145.086 Y242.602 E.03556
G1 X145.001 Y241.651 E.03556
G1 X144.875 Y241.197 E.01755
G1 X145.123 Y240.96 E.01276
G1 X145.683 Y240.187 E.03558
G1 X146.097 Y239.326 E.03557
G1 X146.349 Y238.405 E.03557
G1 X146.434 Y237.454 E.03556
G1 X146.347 Y236.504 E.03555
G1 X146.091 Y235.584 E.03554
G1 X145.676 Y234.725 E.03553
G1 X145.115 Y233.954 E.03552
G1 X131.314 Y233.95 E.51405
G1 X131.05 Y233.686 E.01389
G1 X128.162 Y239.615 F30000
G1 F3600
G1 X128.162 Y235.815 E.14155
G1 X128.413 Y235.175 E.02558
G1 X128.67 Y234.771 E.01784
G1 X128.67 Y240.473 E.21239
G1 X129.177 Y243.913 F30000
G1 F3600
G1 X129.177 Y234.139 E.36403
G1 X129.479 Y233.846 E.01565
G1 X129.685 Y233.697 E.00948
G1 X129.685 Y244.635 E.40739
G1 X130.092 Y245.315 E.02952
G1 X130.193 Y245.431 E.00572
G1 X130.193 Y233.351 E.44993
G1 X130.639 Y233.121 E.01868
G1 X130.639 Y233.857 E.02741
G1 X130.701 Y233.919 E.00329
G1 X130.701 Y246.002 E.45002
G1 X131.209 Y246.406 E.02419
G1 X131.209 Y234.361 E.44863
G1 X131.717 Y234.361 E.01892
G1 X131.717 Y246.719 E.46026
G1 X132.135 Y246.944 E.01769
G1 X132.225 Y246.973 E.00351
G1 X132.225 Y234.361 E.46972
G1 X132.733 Y234.361 E.01892
G1 X132.733 Y247.138 E.47586
G1 X132.972 Y247.215 E.00938
G1 X133.24 Y247.252 E.01009
G1 X133.24 Y234.361 E.48011
G1 X133.748 Y234.361 E.01892
G1 X133.748 Y247.32 E.48267
G1 X133.844 Y247.333 E.0036
G1 X134.256 Y247.315 E.01536
G1 X134.256 Y234.361 E.48247
G1 X134.764 Y234.361 E.01892
G1 X134.764 Y247.285 E.48134
G1 X135.272 Y247.169 E.0194
G1 X135.272 Y234.361 E.47702
G1 X135.78 Y234.361 E.01892
G1 X135.78 Y247.013 E.47123
G1 X136.288 Y246.796 E.02057
G1 X136.288 Y234.361 E.46315
G1 X136.795 Y234.361 E.01892
G1 X136.795 Y246.56 E.45436
G1 X137.303 Y246.834 E.02148
G1 X137.303 Y234.361 E.46455
G1 X137.811 Y234.361 E.01892
G1 X137.811 Y247.107 E.47473
G1 X137.831 Y247.118 E.00084
G1 X138.319 Y247.277 E.01912
G1 X138.319 Y234.361 E.48104
G1 X138.827 Y234.361 E.01892
G1 X138.827 Y247.412 E.48608
G1 X139.335 Y247.481 E.01909
G1 X139.335 Y234.361 E.48865
G1 X139.843 Y234.361 E.01892
G1 X139.843 Y247.495 E.48919
G1 X140.351 Y247.473 E.01893
G1 X140.351 Y234.361 E.48834
G1 X140.858 Y234.361 E.01892
G1 X140.858 Y247.37 E.48451
G1 X141.279 Y247.274 E.01606
G1 X141.366 Y247.236 E.00354
G1 X141.366 Y234.361 E.47955
G1 X141.874 Y234.361 E.01892
G1 X141.874 Y247.019 E.47147
G1 X142.089 Y246.928 E.00869
G1 X142.382 Y246.734 E.01309
G1 X142.382 Y234.361 E.46085
G1 X142.89 Y234.361 E.01892
G1 X142.89 Y246.38 E.44764
G1 X143.398 Y245.894 E.02617
G1 X143.398 Y234.361 E.42956
G1 X143.906 Y234.361 E.01892
G1 X143.906 Y245.222 E.40451
G1 X143.978 Y245.122 E.00459
G1 X144.36 Y244.329 E.0328
G1 X144.413 Y244.136 E.00745
G1 X144.413 Y234.361 E.36405
G1 X144.902 Y234.361 E.01821
G1 X144.921 Y234.387 E.0012
G1 X144.921 Y240.537 E.22906
G1 X145.329 Y239.975 E.02584
G1 X145.429 Y239.766 E.00866
G1 X145.429 Y235.159 E.17158
G1 X145.705 Y235.73 E.02361
G1 X145.937 Y236.566 E.03232
G1 X145.937 Y239.13 E.09551
G1 X146.849 Y237.942 F30000
;TYPE:Brim
G1 F3600
G1 X146.89 Y237.423 E.01942
G1 X146.801 Y236.452 E.03631
G1 X146.529 Y235.452 E.03857
G1 X146.073 Y234.5 E.03935
G1 X145.589 Y233.829 E.03082
G1 X156.5 Y233.829 E.40641
G1 X156.616 Y233.804 E.00442
G1 X156.753 Y233.695 E.00652
G1 X156.8 Y233.611 E.00361
G1 X156.829 Y233.5 E.00426
G1 X156.829 Y76.829 E5.83542
G1 X168.5 Y76.829 E.43472
G1 X168.616 Y76.804 E.00442
G1 X168.753 Y76.695 E.00652
G1 X168.8 Y76.611 E.00361
G1 X168.829 Y76.5 E.00426
M73 P0 R63
G1 X168.829 Y56.5 E.74492
G1 X168.804 Y56.384 E.00442
G1 X168.695 Y56.247 E.00652
G1 X168.611 Y56.2 E.00361
G1 X168.5 Y56.171 E.00426
G1 X164.5 Y56.171 E.14898
G1 X164.384 Y56.196 E.00442
G1 X164.247 Y56.305 E.00652
G1 X164.2 Y56.389 E.00361
G1 X164.171 Y56.5 E.00426
G1 X164.171 Y73.171 E.62095
G1 X152.829 Y73.171 E.42248
G1 X152.82 Y56.437 E.6233
G1 X152.804 Y56.384 E.00206
G1 X152.695 Y56.247 E.00652
G1 X152.611 Y56.2 E.00361
G1 X152.5 Y56.171 E.00426
G1 X148.5 Y56.171 E.14898
G1 X148.384 Y56.196 E.00442
G1 X148.247 Y56.305 E.00652
G1 X148.2 Y56.389 E.00361
G1 X148.171 Y56.5 E.00426
G1 X148.171 Y225.671 E6.30099
G1 X131.5 Y225.671 E.62095
G1 X131.384 Y225.696 E.00442
G1 X131.247 Y225.805 E.00652
G1 X131.2 Y225.889 E.00361
G1 X131.171 Y226 E.00426
G1 X131.171 Y232.055 E.22552
G1 X130.996 Y232.035 E.00659
G1 X130.37 Y232.282 E.02505
G1 X129.614 Y232.677 E.03178
G1 X128.901 Y233.197 E.03283
G1 X128.216 Y233.87 E.03579
G1 X127.653 Y234.752 E.03897
G1 X127.447 Y235.264 E.02055
G1 X127.227 Y234.698 E.02262
G1 X127.096 Y234.071 E.02386
G1 X127.058 Y233.492 E.02159
G1 X127.058 Y226.008 E.27875
G1 X127.106 Y225.36 E.02422
G1 X127.246 Y224.737 E.02377
G1 X127.603 Y223.894 E.03411
G1 X128 Y223.276 E.02737
G1 X128.426 Y222.797 E.02386
G1 X128.919 Y222.386 E.0239
G1 X129.464 Y222.053 E.02378
G1 X130.302 Y221.727 E.0335
G1 X130.929 Y221.596 E.02386
G1 X131.508 Y221.558 E.02159
G1 X143.829 Y221.558 E.45894
G1 X143.97 Y221.509 E.00555
G1 X144.058 Y221.329 E.00745
G1 X144.058 Y56.508 E6.13895
G1 X144.106 Y55.86 E.02422
G1 X144.246 Y55.239 E.02373
G1 X144.649 Y54.311 E.03766
G1 X144.999 Y53.776 E.02381
G1 X145.426 Y53.297 E.0239
G1 X145.919 Y52.886 E.0239
G1 X146.464 Y52.553 E.0238
G1 X147.25 Y52.242 E.03148
G1 X147.93 Y52.096 E.02589
G1 X148.508 Y52.058 E.02157
G1 X152.492 Y52.058 E.14839
G1 X153.14 Y52.106 E.02422
G1 X153.763 Y52.246 E.02377
G1 X154.606 Y52.603 E.03411
G1 X155.224 Y53 E.02737
G1 X155.703 Y53.426 E.02386
G1 X156.114 Y53.919 E.0239
G1 X156.447 Y54.464 E.02378
G1 X156.773 Y55.302 E.0335
G1 X156.904 Y55.929 E.02386
G1 X156.942 Y56.508 E.02159
G1 X156.942 Y68.829 E.45893
G1 X156.991 Y68.97 E.00555
G1 X157.171 Y69.058 E.00745
G1 X159.829 Y69.058 E.09902
G1 X159.97 Y69.009 E.00555
G1 X160.058 Y68.829 E.00745
G1 X160.058 Y56.508 E.4589
G1 X160.106 Y55.86 E.02422
G1 X160.246 Y55.237 E.02377
G1 X160.603 Y54.394 E.03411
G1 X161 Y53.776 E.02737
G1 X161.426 Y53.297 E.02386
G1 X161.919 Y52.886 E.0239
G1 X162.464 Y52.553 E.0238
G1 X163.25 Y52.242 E.03148
G1 X163.93 Y52.096 E.02589
G1 X164.508 Y52.058 E.02157
G1 X168.492 Y52.058 E.14839
G1 X169.14 Y52.106 E.02422
G1 X169.763 Y52.246 E.02377
G1 X170.606 Y52.603 E.03411
G1 X171.224 Y53 E.02737
G1 X171.703 Y53.426 E.02386
G1 X172.114 Y53.919 E.0239
G1 X172.447 Y54.464 E.0238
G1 X172.758 Y55.25 E.03148
G1 X172.904 Y55.93 E.02589
G1 X172.942 Y56.508 E.02157
G1 X172.942 Y76.492 E.74433
G1 X172.894 Y77.14 E.02422
G1 X172.754 Y77.763 E.02377
G1 X172.397 Y78.606 E.03411
G1 X172 Y79.224 E.02737
G1 X171.574 Y79.703 E.02386
G1 X171.081 Y80.114 E.0239
G1 X170.536 Y80.447 E.0238
G1 X169.75 Y80.758 E.03148
G1 X169.07 Y80.904 E.02589
G1 X168.492 Y80.942 E.02157
G1 X161.171 Y80.942 E.2727
G1 X161.03 Y80.991 E.00555
G1 X160.942 Y81.171 E.00745
G1 X160.942 Y233.492 E5.67337
G1 X160.894 Y234.14 E.02422
G1 X160.754 Y234.763 E.02377
G1 X160.397 Y235.606 E.03411
G1 X160 Y236.224 E.02737
G1 X159.574 Y236.703 E.02386
G1 X159.081 Y237.114 E.0239
G1 X158.536 Y237.447 E.02378
G1 X157.698 Y237.773 E.0335
G1 X157.071 Y237.904 E.02386
G1 X156.492 Y237.942 E.02159
G1 X146.889 Y237.942 E.35771
G1 X147.376 Y237.437 F30000
G1 F3600
G1 X147.343 Y237.362 E.00307
G1 X147.239 Y236.321 E.03896
G1 X146.973 Y235.344 E.03771
G1 X146.571 Y234.481 E.03548
G1 X146.57 Y234.366 E.00426
G1 X146.695 Y234.286 E.00554
G1 X156.489 Y234.286 E.36481
G1 X156.697 Y234.254 E.00782
G1 X156.914 Y234.152 E.00892
G1 X157.027 Y234.061 E.00541
G1 X157.194 Y233.843 E.01023
G1 X157.27 Y233.618 E.00884
G1 X157.286 Y233.491 E.00475
G1 X157.286 Y77.423 E5.81296
G1 X157.333 Y77.319 E.00426
G1 X157.423 Y77.286 E.00355
G1 X168.489 Y77.286 E.41219
G1 X168.697 Y77.254 E.00782
G1 X168.914 Y77.152 E.00892
G1 X169.027 Y77.061 E.00541
G1 X169.194 Y76.843 E.01023
G1 X169.27 Y76.618 E.00884
G1 X169.286 Y76.491 E.00475
G1 X169.286 Y56.511 E.74421
G1 X169.254 Y56.303 E.00782
G1 X169.152 Y56.086 E.00892
G1 X169.061 Y55.973 E.00541
G1 X168.843 Y55.806 E.01023
G1 X168.618 Y55.73 E.00884
G1 X168.492 Y55.714 E.00474
G1 X164.393 Y55.727 E.15264
G1 X164.306 Y55.745 E.00331
G1 X164.086 Y55.848 E.00906
G1 X163.973 Y55.939 E.00541
G1 X163.844 Y56.091 E.00743
G1 X163.757 Y56.282 E.00783
G1 X163.714 Y56.512 E.00871
G1 X163.714 Y72.577 E.59835
G1 X163.667 Y72.681 E.00426
G1 X163.577 Y72.714 E.00355
G1 X153.422 Y72.714 E.37823
G1 X153.318 Y72.667 E.00426
G1 X153.285 Y72.577 E.00355
G1 X153.277 Y56.449 E.60073
G1 X153.244 Y56.264 E.00699
G1 X153.153 Y56.088 E.00736
G1 X153.061 Y55.973 E.00551
G1 X152.905 Y55.84 E.00763
G1 X152.618 Y55.73 E.01145
G1 X152.491 Y55.714 E.00475
G1 X148.511 Y55.714 E.14827
G1 X148.303 Y55.746 E.00781
G1 X148.086 Y55.848 E.00892
G1 X147.973 Y55.939 E.00541
G1 X147.806 Y56.157 E.01023
G1 X147.73 Y56.382 E.00884
G1 X147.714 Y56.509 E.00475
G1 X147.714 Y225.077 E6.27854
G1 X147.667 Y225.181 E.00426
M73 P1 R63
G1 X147.577 Y225.214 E.00355
G1 X131.511 Y225.214 E.59842
G1 X131.303 Y225.246 E.00781
G1 X131.086 Y225.348 E.00892
G1 X130.973 Y225.439 E.00541
G1 X130.844 Y225.591 E.00743
G1 X130.757 Y225.782 E.00783
G1 X130.714 Y226.012 E.00871
G1 X130.714 Y231.561 E.20667
G1 X130.628 Y231.689 E.00572
G1 X130.153 Y231.88 E.01911
G1 X129.337 Y232.314 E.0344
G1 X128.574 Y232.878 E.03534
G1 X127.904 Y233.537 E.03502
G1 X127.773 Y233.715 E.00822
G1 X127.673 Y233.77 E.00426
G1 X127.566 Y233.731 E.00426
G1 X127.525 Y233.634 E.00391
G1 X127.515 Y226.031 E.28318
G1 X127.558 Y225.438 E.02214
G1 X127.688 Y224.867 E.02181
G1 X128.005 Y224.119 E.03025
G1 X128.36 Y223.562 E.02461
G1 X128.738 Y223.134 E.02128
G1 X129.194 Y222.753 E.02213
G1 X129.678 Y222.46 E.02108
G1 X130.444 Y222.164 E.03055
G1 X130.982 Y222.052 E.02048
G1 X131.527 Y222.015 E.02036
G1 X143.818 Y222.015 E.45778
G1 X144.106 Y221.946 E.01103
G1 X144.279 Y221.843 E.00749
G1 X144.387 Y221.698 E.00674
G1 X144.462 Y221.543 E.00639
G1 X144.515 Y221.314 E.00878
G1 X144.515 Y56.52 E6.13792
G1 X144.558 Y55.938 E.02176
G1 X144.68 Y55.394 E.02075
G1 X145.059 Y54.519 E.03551
G1 X145.37 Y54.047 E.02105
G1 X145.738 Y53.634 E.02062
G1 X146.178 Y53.265 E.02138
G1 X146.659 Y52.97 E.02102
G1 X147.373 Y52.685 E.02862
G1 X148.003 Y52.549 E.02403
G1 X148.527 Y52.515 E.01956
G1 X152.48 Y52.515 E.14722
G1 X153.082 Y52.561 E.02251
G1 X153.633 Y52.688 E.02106
G1 X154.381 Y53.005 E.03025
G1 X154.955 Y53.373 E.02541
G1 X155.38 Y53.753 E.02123
G1 X155.747 Y54.194 E.02138
G1 X156.04 Y54.678 E.02108
G1 X156.336 Y55.444 E.03055
G1 X156.448 Y55.982 E.02048
G1 X156.485 Y56.527 E.02036
G1 X156.485 Y68.818 E.45778
G1 X156.554 Y69.106 E.01103
G1 X156.657 Y69.279 E.00749
G1 X156.802 Y69.387 E.00674
G1 X156.957 Y69.462 E.00639
G1 X157.186 Y69.515 E.00878
G1 X159.818 Y69.515 E.09801
G1 X160.106 Y69.446 E.01103
G1 X160.279 Y69.343 E.00749
G1 X160.387 Y69.198 E.00674
G1 X160.462 Y69.043 E.00639
G1 X160.515 Y68.814 E.00878
G1 X160.515 Y56.53 E.4575
G1 X160.558 Y55.938 E.02214
G1 X160.688 Y55.367 E.02181
G1 X161.005 Y54.619 E.03025
G1 X161.36 Y54.062 E.02461
G1 X161.738 Y53.634 E.02128
G1 X162.194 Y53.253 E.02213
G1 X162.68 Y52.959 E.02114
G1 X163.373 Y52.685 E.02775
G1 X163.983 Y52.552 E.02329
G1 X164.527 Y52.515 E.0203
G1 X168.47 Y52.515 E.14684
G1 X169.062 Y52.558 E.02214
G1 X169.61 Y52.68 E.0209
G1 X170.381 Y53.005 E.03116
G1 X170.938 Y53.36 E.02461
G1 X171.38 Y53.753 E.02203
G1 X171.747 Y54.194 E.02138
G1 X172.041 Y54.68 E.02114
G1 X172.321 Y55.394 E.02859
G1 X172.448 Y55.983 E.02245
G1 X172.485 Y56.518 E.01996
G1 X172.485 Y76.47 E.74312
G1 X172.442 Y77.062 E.02214
G1 X172.312 Y77.633 E.02181
G1 X171.995 Y78.381 E.03025
G1 X171.64 Y78.938 E.02461
G1 X171.262 Y79.366 E.02128
G1 X170.806 Y79.747 E.02213
G1 X170.32 Y80.041 E.02114
G1 X169.627 Y80.315 E.02775
G1 X169.017 Y80.448 E.02329
G1 X168.473 Y80.485 E.0203
G1 X161.182 Y80.485 E.27155
G1 X160.894 Y80.554 E.01103
G1 X160.721 Y80.657 E.00749
G1 X160.613 Y80.802 E.00674
G1 X160.538 Y80.957 E.00639
G1 X160.485 Y81.186 E.00878
G1 X160.485 Y233.47 E5.67197
G1 X160.439 Y234.082 E.02289
G1 X160.312 Y234.633 E.02106
G1 X159.995 Y235.381 E.03025
G1 X159.627 Y235.955 E.02541
G1 X159.247 Y236.38 E.02123
G1 X158.806 Y236.747 E.02138
G1 X158.322 Y237.04 E.02108
G1 X157.556 Y237.336 E.03055
G1 X157.018 Y237.448 E.02048
G1 X156.473 Y237.485 E.02036
G1 X147.48 Y237.485 E.33496
G1 X147.412 Y237.454 E.00277
G1 X147.789 Y236.98 F30000
G1 F3600
G1 X147.757 Y236.906 E.00302
G1 X147.677 Y236.191 E.02681
G1 X147.417 Y235.234 E.03694
G1 X147.287 Y234.935 E.01215
G1 X147.289 Y234.82 E.00426
G1 X147.413 Y234.743 E.00543
G1 X156.57 Y234.736 E.34107
G1 X156.9 Y234.663 E.0126
G1 X157.097 Y234.571 E.0081
G1 X157.304 Y234.424 E.00943
G1 X157.552 Y234.126 E.01445
G1 X157.631 Y233.978 E.00626
G1 X157.7 Y233.773 E.00804
G1 X157.738 Y233.554 E.00828
G1 X157.743 Y77.88 E5.79828
G1 X157.79 Y77.776 E.00426
G1 X157.88 Y77.743 E.00355
G1 X168.481 Y77.743 E.39484
G1 X168.758 Y77.706 E.01044
G1 X168.9 Y77.663 E.00551
G1 X169.097 Y77.571 E.0081
G1 X169.304 Y77.424 E.00943
G1 X169.552 Y77.126 E.01445
G1 X169.631 Y76.978 E.00626
G1 X169.699 Y76.775 E.00797
G1 X169.743 Y76.481 E.01106
G1 X169.743 Y56.519 E.7435
G1 X169.706 Y56.242 E.01044
G1 X169.663 Y56.1 E.00551
G1 X169.571 Y55.903 E.0081
G1 X169.424 Y55.696 E.00943
G1 X169.126 Y55.448 E.01445
G1 X168.978 Y55.369 E.00626
G1 X168.773 Y55.3 E.00804
G1 X168.555 Y55.262 E.00826
G1 X164.292 Y55.282 E.15878
G1 X164.102 Y55.336 E.00734
G1 X163.903 Y55.429 E.00819
G1 X163.694 Y55.577 E.00955
G1 X163.503 Y55.787 E.01056
G1 X163.343 Y56.088 E.01271
G1 X163.306 Y56.206 E.00461
G1 X163.257 Y56.523 E.01192
G1 X163.257 Y72.12 E.58094
G1 X163.21 Y72.224 E.00426
G1 X163.12 Y72.257 E.00355
G1 X153.879 Y72.257 E.34419
G1 X153.775 Y72.21 E.00426
G1 X153.742 Y72.12 E.00355
