; HEADER_BLOCK_START
; generated by OrcaSlicer 2.3.1-beta on 2025-12-17 at 00:55:02
; total layer number: 150
; filament_density: 1.25
; filament_diameter: 1.75
; max_z_height: 30.00
; HEADER_BLOCK_END

; THUMBNAIL_BLOCK_START

;
; THUMBNAIL_BLOCK_END

; THUMBNAIL_BLOCK_START

;
; THUMBNAIL_BLOCK_END

; external perimeters extrusion width = 0.42mm
; perimeters extrusion width = 0.45mm
; infill extrusion width = 0.45mm
; solid infill extrusion width = 0.42mm
; top infill extrusion width = 0.42mm
; first layer extrusion width = 0.50mm

; EXECUTABLE_BLOCK_START
EXCLUDE_OBJECT_DEFINE NAME=파트4.STL_id_0_copy_0 CENTER=150,150 POLYGON=[[79,150],[85,140],[221,140],[221,160],[79,160],[79,150]]
M73 P0 R30
M106 S0
M106 P2 S0
;TYPE:Custom
M140 S0
M104 S0
M190 S55
M808 L20
G4 P13500
M808
START_PRINT EXTRUDER_TEMP=220 BED_TEMP=55
G90
G21
M83 ; use relative distances for extrusion
; Filament gcode
M106 S0
M106 P2 S0
;LAYER_CHANGE
;Z:0.2
;HEIGHT:0.2
;BEFORE_LAYER_CHANGE
;0.2
G92 E0

G1 E-.6 F2400
;_SET_FAN_SPEED_CHANGING_LAYER
SET_VELOCITY_LIMIT ACCEL=500 ACCEL_TO_DECEL=250
SET_VELOCITY_LIMIT SQUARE_CORNER_VELOCITY=9
EXCLUDE_OBJECT_START NAME=파트4.STL_id_0_copy_0
G1 Z.4 F30000
G1 X82.311 Y135.368
G1 Z.4
G1 Z.2
G1 E.6 F2400
;TYPE:Brim
;WIDTH:0.5
G1 F3600
G1 X82.949 Y135.054 E.02645
G1 X83.545 Y134.849 E.0235
G1 X84.24 Y134.699 E.02647
G1 X85.008 Y134.644 E.02869
G1 X87.992 Y134.644 E.11114
G1 X88.527 Y134.68 E.01995
G1 X214.381 Y134.68 E4.68758
G1 X215.007 Y134.644 E.02335
G1 X220.992 Y134.644 E.22294
G1 X221.708 Y134.692 E.02671
G1 X222.402 Y134.835 E.02642
G1 X223.074 Y135.07 E.02649
G1 X223.544 Y135.3 E.01949
G1 X224.226 Y135.733 E.03009
G1 X224.764 Y136.194 E.02638
G1 X225.236 Y136.723 E.02642
G1 X225.632 Y137.311 E.02642
G1 X225.946 Y137.949 E.02647
G1 X226.136 Y138.493 E.02147
G1 X226.301 Y139.241 E.0285
G1 X226.356 Y140.008 E.02867
G1 X226.356 Y159.992 E.74433
G1 X226.308 Y160.708 E.02671
G1 X226.165 Y161.402 E.02642
G1 X225.93 Y162.074 E.02649
G1 X225.7 Y162.544 E.01949
G1 X225.267 Y163.226 E.03009
G1 X224.806 Y163.764 E.02638
G1 X224.277 Y164.236 E.02642
G1 X223.689 Y164.632 E.02642
G1 X223.051 Y164.946 E.02645
G1 X222.455 Y165.151 E.0235
G1 X221.76 Y165.301 E.02647
G1 X220.992 Y165.356 E.02869
G1 X215.008 Y165.356 E.22288
G1 X214.292 Y165.308 E.02671
G1 X213.598 Y165.165 E.02642
G1 X212.927 Y164.93 E.02646
G1 X212.373 Y164.654 E.02306
G1 X211.775 Y164.268 E.02652
G1 X211.236 Y163.806 E.02642
G1 X210.764 Y163.277 E.02642
G1 X210.368 Y162.689 E.02642
G1 X210.054 Y162.051 E.02647
G1 X209.864 Y161.507 E.02147
G1 X209.699 Y160.759 E.0285
G1 X209.644 Y159.992 E.02867
G1 X209.644 Y148.622 E.42349
G1 X209.595 Y148.481 E.00555
G1 X209.415 Y148.393 E.00745
G1 X93.585 Y148.393 E4.31423
G1 X93.444 Y148.442 E.00555
G1 X93.356 Y148.622 E.00745
G1 X93.356 Y159.992 E.42351
G1 X93.308 Y160.708 E.02671
G1 X93.165 Y161.402 E.02642
G1 X92.93 Y162.074 E.02649
G1 X92.7 Y162.544 E.01949
G1 X92.267 Y163.226 E.03009
G1 X91.806 Y163.764 E.02638
G1 X91.277 Y164.236 E.02642
G1 X90.689 Y164.632 E.02642
G1 X90.051 Y164.946 E.02647
G1 X89.507 Y165.136 E.02147
G1 X88.759 Y165.301 E.0285
G1 X87.992 Y165.356 E.02867
G1 X79.008 Y165.356 E.33462
G1 X78.292 Y165.308 E.02671
G1 X77.598 Y165.165 E.02642
G1 X76.927 Y164.93 E.02646
G1 X76.373 Y164.654 E.02306
G1 X75.775 Y164.268 E.02652
G1 X75.236 Y163.806 E.02642
G1 X74.764 Y163.277 E.02642
G1 X74.368 Y162.689 E.02642
G1 X74.054 Y162.051 E.02645
G1 X73.849 Y161.455 E.0235
G1 X73.699 Y160.76 E.02647
G1 X73.644 Y159.992 E.02869
G1 X73.644 Y150.008 E.37187
G1 X73.692 Y149.292 E.02671
G1 X73.835 Y148.598 E.02642
G1 X74.07 Y147.927 E.02646
G1 X74.346 Y147.373 E.02306
G1 X74.732 Y146.775 E.02652
G1 X75.194 Y146.236 E.02642
G1 X75.723 Y145.764 E.02642
G1 X76.311 Y145.368 E.02642
G1 X76.949 Y145.054 E.02645
G1 X77.545 Y144.849 E.0235
G1 X78.24 Y144.699 E.02647
G1 X79.008 Y144.644 E.02869
G1 X79.415 Y144.644 E.01515
G1 X79.556 Y144.595 E.00555
G1 X79.644 Y144.415 E.00745
G1 X79.644 Y140.008 E.16416
G1 X79.692 Y139.292 E.02671
G1 X79.835 Y138.598 E.02642
G1 X80.07 Y137.926 E.02649
G1 X80.3 Y137.456 E.01949
G1 X80.733 Y136.774 E.03009
G1 X81.194 Y136.236 E.02638
G1 X81.723 Y135.764 E.02642
G1 X82.278 Y135.39 E.02493
G1 X82.534 Y135.769 F30000
G1 F3600
G1 X83.117 Y135.481 E.02423
G1 X83.676 Y135.289 E.02204
G1 X84.315 Y135.152 E.02432
G1 X85.02 Y135.101 E.02633
G1 X87.981 Y135.101 E.11031
G1 X88.491 Y135.135 E.01903
G1 X214.377 Y135.137 E4.68876
G1 X215.024 Y135.101 E.02415
G1 X220.972 Y135.101 E.22154
G1 X221.655 Y135.148 E.02549
G1 X222.289 Y135.279 E.02411
G1 X222.889 Y135.49 E.02369
G1 X223.313 Y135.697 E.01757
G1 X223.945 Y136.096 E.02785
G1 X224.45 Y136.528 E.02472
G1 X224.879 Y137.012 E.02411
G1 X225.24 Y137.55 E.02411
G1 X225.52 Y138.118 E.02362
G1 X225.693 Y138.611 E.01943
G1 X225.845 Y139.297 E.02619
G1 X225.899 Y140.03 E.02737
G1 X225.899 Y159.972 E.74278
G1 X225.852 Y160.655 E.02549
G1 X225.721 Y161.289 E.02411
G1 X225.51 Y161.889 E.02369
G1 X225.303 Y162.313 E.01757
G1 X224.904 Y162.945 E.02785
G1 X224.485 Y163.436 E.02403
G1 X224.003 Y163.868 E.02411
G1 X223.466 Y164.231 E.02411
G1 X222.883 Y164.519 E.02423
G1 X222.324 Y164.711 E.02204
G1 X221.685 Y164.848 E.02432
G1 X220.97 Y164.899 E.0267
G1 X215.028 Y164.899 E.22133
G1 X214.363 Y164.855 E.02481
G1 X213.729 Y164.726 E.02411
G1 X213.114 Y164.511 E.02426
G1 X212.593 Y164.252 E.02166
G1 X212.041 Y163.894 E.02449
G1 X211.55 Y163.472 E.02411
G1 X211.132 Y163.003 E.02342
G1 X210.769 Y162.466 E.02411
G1 X210.473 Y161.866 E.02493
G1 X210.303 Y161.374 E.0194
G1 X210.155 Y160.703 E.02559
G1 X210.101 Y159.97 E.02737
G1 X210.101 Y148.633 E.42227
G1 X210.032 Y148.345 E.01103
G1 X209.929 Y148.172 E.00749
G1 X209.783 Y148.064 E.00674
G1 X209.629 Y147.989 E.00639
G1 X209.399 Y147.936 E.00878
G1 X93.596 Y147.936 E4.31322
G1 X93.308 Y148.005 E.01103
G1 X93.136 Y148.108 E.00749
G1 X93.027 Y148.253 E.00674
G1 X92.952 Y148.407 E.00639
G1 X92.899 Y148.637 E.00878
G1 X92.899 Y159.972 E.42219
G1 X92.852 Y160.655 E.02549
G1 X92.721 Y161.289 E.02411
G1 X92.51 Y161.889 E.02369
G1 X92.303 Y162.313 E.01757
G1 X91.904 Y162.945 E.02785
G1 X91.472 Y163.45 E.02472
G1 X90.988 Y163.879 E.02411
G1 X90.45 Y164.24 E.02411
G1 X89.882 Y164.52 E.02362
G1 X89.389 Y164.693 E.01943
G1 X88.683 Y164.848 E.02693
G1 X87.97 Y164.899 E.02663
G1 X79.028 Y164.899 E.33307
G1 X78.345 Y164.852 E.02549
G1 X77.711 Y164.721 E.02411
G1 X77.114 Y164.511 E.02358
G1 X76.593 Y164.252 E.02166
G1 X76.041 Y163.894 E.02449
G1 X75.564 Y163.485 E.02342
G1 X75.132 Y163.003 E.02411
G1 X74.769 Y162.466 E.02411
G1 X74.481 Y161.883 E.02423
G1 X74.289 Y161.324 E.02204
G1 X74.155 Y160.704 E.02361
G1 X74.101 Y159.97 E.02741
G1 X74.101 Y150.028 E.37032
G1 X74.148 Y149.345 E.02549
G1 X74.279 Y148.711 E.02411
G1 X74.489 Y148.114 E.02358
G1 X74.748 Y147.593 E.02166
G1 X75.095 Y147.056 E.02381
G1 X75.515 Y146.564 E.02411
G1 X75.997 Y146.132 E.02411
G1 X76.534 Y145.769 E.02411
G1 X77.117 Y145.481 E.02423
G1 X77.676 Y145.289 E.02204
G1 X78.315 Y145.152 E.02432
G1 X79.02 Y145.101 E.02633
G1 X79.404 Y145.101 E.01429
G1 X79.575 Y145.072 E.00647
G1 X79.692 Y145.032 E.0046
G1 X79.864 Y144.929 E.00749
G1 X79.973 Y144.783 E.00674
G1 X80.048 Y144.629 E.00639
G1 X80.101 Y144.399 E.00878
G1 X80.101 Y140.028 E.16283
G1 X80.148 Y139.345 E.02549
G1 X80.279 Y138.711 E.02411
G1 X80.49 Y138.111 E.02369
G1 X80.697 Y137.687 E.01757
G1 X81.096 Y137.055 E.02785
G1 X81.528 Y136.55 E.02472
G1 X81.997 Y136.132 E.02342
G1 X82.5 Y135.792 E.02262
G1 X82.756 Y136.172 F30000
G1 F3600
G1 X82.772 Y136.161 E.00072
G1 X83.285 Y135.907 E.02131
G1 X83.807 Y135.728 E.02054
G1 X84.37 Y135.608 E.02146
G1 X85.041 Y135.558 E.02507
G1 X87.961 Y135.558 E.10876
G1 X88.496 Y135.593 E.01994
G1 X214.373 Y135.594 E4.68845
G1 X215.041 Y135.558 E.02491
G1 X220.961 Y135.558 E.22051
G1 X221.602 Y135.604 E.02392
G1 X222.157 Y135.719 E.02113
G1 X222.705 Y135.91 E.02161
G1 X223.097 Y136.1 E.01622
G1 X223.665 Y136.46 E.02503
G1 X224.135 Y136.862 E.02303
G1 X224.522 Y137.3 E.02178
G1 X224.838 Y137.771 E.02114
G1 X225.101 Y138.303 E.0221
G1 X225.254 Y138.744 E.01738
G1 X225.39 Y139.354 E.02328
G1 X225.442 Y140.052 E.02606
G1 X225.442 Y159.952 E.7412
G1 X225.396 Y160.602 E.02427
G1 X225.276 Y161.175 E.02181
G1 X225.09 Y161.705 E.02094
G1 X224.907 Y162.084 E.01566
G1 X224.54 Y162.665 E.02562
G1 X224.151 Y163.122 E.02237
G1 X223.713 Y163.512 E.0218
G1 X223.228 Y163.839 E.02181
G1 X222.699 Y164.099 E.02196
G1 X222.193 Y164.272 E.01989
G1 X221.63 Y164.392 E.02146
G1 X220.949 Y164.442 E.02544
G1 X215.048 Y164.442 E.21979
G1 X214.415 Y164.399 E.02361
M73 P1 R30
G1 X213.842 Y164.281 E.02182
G1 X213.3 Y164.092 E.02136
G1 X212.814 Y163.85 E.02023
G1 X212.309 Y163.521 E.02244
G1 X211.865 Y163.139 E.02182
G1 X211.489 Y162.714 E.02115
G1 X211.161 Y162.228 E.02182
G1 X210.9 Y161.697 E.02203
G1 X210.746 Y161.257 E.01737
G1 X210.608 Y160.627 E.02404
G1 X210.558 Y159.958 E.02496
G1 X210.558 Y148.641 E.42152
G1 X210.543 Y148.519 E.00459
G1 X210.479 Y148.249 E.01035
G1 X210.419 Y148.102 E.0059
G1 X210.328 Y147.95 E.0066
G1 X210.191 Y147.798 E.00763
G1 X210.065 Y147.704 E.00586
G1 X209.838 Y147.583 E.00956
G1 X209.507 Y147.492 E.0128
G1 X209.392 Y147.479 E.00432
G1 X93.61 Y147.479 E4.31243
G1 X93.209 Y147.559 E.01521
M73 P1 R29
G1 X93.065 Y147.618 E.0058
G1 X92.913 Y147.709 E.0066
G1 X92.761 Y147.846 E.00763
G1 X92.667 Y147.972 E.00586
G1 X92.546 Y148.198 E.00956
G1 X92.455 Y148.53 E.0128
G1 X92.442 Y148.645 E.00432
G1 X92.442 Y159.952 E.42113
G1 X92.396 Y160.602 E.02427
G1 X92.276 Y161.175 E.02181
G1 X92.09 Y161.705 E.02094
G1 X91.9 Y162.097 E.01622
G1 X91.529 Y162.681 E.02576
G1 X91.138 Y163.135 E.0223
G1 X90.7 Y163.522 E.02178
G1 X90.213 Y163.847 E.02182
G1 X89.712 Y164.094 E.0208
G1 X89.272 Y164.249 E.01737
G1 X88.627 Y164.392 E.02461
G1 X87.959 Y164.442 E.02497
G1 X79.048 Y164.442 E.33188
G1 X78.398 Y164.396 E.02427
G1 X77.825 Y164.276 E.02181
G1 X77.284 Y164.085 E.02136
G1 X76.814 Y163.85 E.0196
G1 X76.323 Y163.532 E.02177
G1 X75.878 Y163.151 E.02183
G1 X75.488 Y162.713 E.02183
G1 X75.161 Y162.228 E.02181
G1 X74.901 Y161.699 E.02196
G1 X74.728 Y161.193 E.0199
G1 X74.61 Y160.648 E.02076
G1 X74.558 Y159.948 E.02614
G1 X74.558 Y150.048 E.36874
G1 X74.604 Y149.398 E.02427
G1 X74.719 Y148.843 E.02113
G1 X74.908 Y148.3 E.0214
G1 X75.15 Y147.814 E.02025
G1 X75.457 Y147.337 E.02111
G1 X75.837 Y146.891 E.02182
G1 X76.272 Y146.5 E.02181
G1 X76.756 Y146.171 E.02181
G1 X77.285 Y145.907 E.022
G1 X77.807 Y145.728 E.02054
G1 X78.389 Y145.605 E.02216
G1 X79.032 Y145.558 E.02401
G1 X79.393 Y145.558 E.01344
G1 X79.731 Y145.501 E.01279
G1 X79.935 Y145.419 E.00818
G1 X80.087 Y145.328 E.00659
G1 X80.239 Y145.191 E.00763
G1 X80.333 Y145.065 E.00586
G1 X80.456 Y144.834 E.00975
G1 X80.494 Y144.727 E.00422
G1 X80.558 Y144.387 E.01289
G1 X80.558 Y140.039 E.16194
G1 X80.604 Y139.398 E.02392
G1 X80.724 Y138.825 E.02181
G1 X80.916 Y138.28 E.02153
G1 X81.1 Y137.903 E.01563
G1 X81.471 Y137.319 E.02576
G1 X81.862 Y136.865 E.02232
G1 X82.286 Y136.489 E.02113
G1 X82.723 Y136.194 E.01962
G1 X82.979 Y136.573 F30000
G1 F3600
G1 X82.995 Y136.562 E.00069
G1 X83.453 Y136.334 E.01909
G1 X83.921 Y136.172 E.01844
G1 X84.426 Y136.063 E.01923
G1 X85.063 Y136.015 E.02381
G1 X87.942 Y136.015 E.10723
G1 X88.5 Y136.05 E.02081
G1 X214.369 Y136.051 E4.68816
G1 X215.057 Y136.015 E.02565
G1 X220.94 Y136.015 E.21911
G1 X221.548 Y136.059 E.0227
G1 X222.044 Y136.163 E.01887
G1 X222.522 Y136.33 E.01886
G1 X222.88 Y136.504 E.01485
G1 X223.384 Y136.823 E.02221
G1 X223.82 Y137.195 E.02134
G1 X224.153 Y137.573 E.01876
G1 X224.437 Y137.993 E.01887
G1 X224.681 Y138.488 E.02056
G1 X224.815 Y138.877 E.01532
G1 X224.934 Y139.412 E.0204
G1 X224.985 Y140.074 E.02475
G1 X224.985 Y159.931 E.73958
G1 X224.941 Y160.548 E.02303
G1 X224.832 Y161.06 E.01952
G1 X224.67 Y161.522 E.01823
G1 X224.51 Y161.854 E.01374
G1 X224.176 Y162.385 E.02337
G1 X223.816 Y162.808 E.02069
G1 X223.425 Y163.155 E.01947
G1 X222.99 Y163.446 E.0195
G1 X222.515 Y163.679 E.0197
G1 X222.063 Y163.832 E.01775
G1 X221.574 Y163.937 E.01863
G1 X220.927 Y163.985 E.02418
G1 X215.068 Y163.985 E.21822
G1 X214.468 Y163.943 E.02239
G1 X213.955 Y163.836 E.01954
G1 X213.47 Y163.666 E.01914
G1 X213.034 Y163.448 E.01814
G1 X212.577 Y163.149 E.02036
G1 X212.181 Y162.806 E.01952
G1 X211.846 Y162.426 E.01888
G1 X211.554 Y161.99 E.01954
G1 X211.326 Y161.528 E.01918
G1 X211.19 Y161.14 E.01532
G1 X211.06 Y160.551 E.02247
G1 X211.016 Y159.946 E.02256
G1 X211.015 Y148.648 E.42084
G1 X210.998 Y148.471 E.00662
G1 X210.925 Y148.151 E.0122
G1 X210.807 Y147.861 E.01166
G1 X210.662 Y147.638 E.00994
G1 X210.456 Y147.426 E.01098
G1 X210.275 Y147.298 E.00828
G1 X209.947 Y147.139 E.01357
G1 X209.637 Y147.054 E.01196
G1 X209.383 Y147.022 E.00954
G1 X93.507 Y147.033 E4.31595
G1 X93.13 Y147.109 E.01432
G1 X92.899 Y147.192 E.00916
G1 X92.687 Y147.311 E.00904
G1 X92.461 Y147.501 E.01099
G1 X92.305 Y147.694 E.00925
G1 X92.149 Y147.973 E.0119
G1 X92.017 Y148.402 E.0167
G1 X91.985 Y148.654 E.00946
G1 X91.985 Y159.931 E.42003
G1 X91.943 Y160.529 E.02234
G1 X91.832 Y161.06 E.02021
G1 X91.67 Y161.521 E.0182
G1 X91.496 Y161.88 E.01485
G1 X91.154 Y162.415 E.02365
G1 X90.805 Y162.819 E.01989
G1 X90.413 Y163.164 E.01945
G1 X89.976 Y163.455 E.01954
G1 X89.542 Y163.669 E.01804
G1 X89.154 Y163.806 E.01532
G1 X88.57 Y163.937 E.02229
G1 X87.947 Y163.984 E.02328
G1 X79.069 Y163.985 E.33066
G1 X78.452 Y163.941 E.02303
G1 X77.94 Y163.832 E.0195
G1 X77.456 Y163.66 E.01914
G1 X77.035 Y163.448 E.01756
G1 X76.605 Y163.17 E.01907
G1 X76.193 Y162.817 E.02022
G1 X75.845 Y162.425 E.01952
G1 X75.554 Y161.99 E.0195
G1 X75.321 Y161.515 E.0197
G1 X75.168 Y161.063 E.01778
G1 X75.066 Y160.592 E.01795
G1 X75.015 Y159.926 E.02487
G1 X75.015 Y150.069 E.36713
G1 X75.059 Y149.452 E.02305
G1 X75.163 Y148.956 E.01886
G1 X75.327 Y148.486 E.01855
G1 X75.545 Y148.047 E.01826
G1 X75.82 Y147.618 E.01899
G1 X76.159 Y147.217 E.01954
G1 X76.548 Y146.866 E.0195
G1 X76.98 Y146.571 E.0195
G1 X77.454 Y146.334 E.01974
G1 X77.937 Y146.168 E.01903
G1 X78.462 Y146.058 E.01999
G1 X79.044 Y146.016 E.02172
G1 X79.476 Y146.007 E.01611
G1 X79.913 Y145.92 E.01657
G1 X80.174 Y145.808 E.01061
G1 X80.401 Y145.66 E.01008
G1 X80.537 Y145.537 E.00683
G1 X80.695 Y145.344 E.00929
G1 X80.889 Y144.979 E.01541
G1 X80.945 Y144.803 E.00685
G1 X81.005 Y144.483 E.01212
G1 X81.016 Y140.05 E.16512
G1 X81.059 Y139.452 E.02232
G1 X81.163 Y138.957 E.01884
G1 X81.336 Y138.465 E.01945
G1 X81.504 Y138.121 E.01427
G1 X81.846 Y137.585 E.02367
G1 X82.182 Y137.193 E.01922
G1 X82.56 Y136.857 E.01884
G1 X82.946 Y136.595 E.01737
G1 X83.203 Y136.973 F30000
G1 F3600
G1 X83.218 Y136.963 E.00067
G1 X83.623 Y136.76 E.01686
G1 X84.037 Y136.616 E.01633
G1 X84.482 Y136.519 E.01698
G1 X85.086 Y136.472 E.02254
G1 X87.924 Y136.472 E.10571
G1 X88.504 Y136.507 E.02165
G1 X214.366 Y136.509 E4.68787
G1 X215.073 Y136.472 E.02638
G1 X220.919 Y136.472 E.21773
G1 X221.493 Y136.515 E.02146
G1 X221.929 Y136.607 E.01661
G1 X222.338 Y136.75 E.01613
G1 X222.664 Y136.908 E.01349
G1 X223.104 Y137.187 E.01939
G1 X223.505 Y137.529 E.01964
G1 X223.796 Y137.861 E.01643
G1 X224.035 Y138.215 E.01593
G1 X224.261 Y138.673 E.019
G1 X224.376 Y139.009 E.01325
G1 X224.479 Y139.47 E.01757
G1 X224.528 Y140.097 E.02344
G1 X224.528 Y159.909 E.73794
G1 X224.488 Y160.474 E.02109
G1 X224.388 Y160.945 E.01792
G1 X224.25 Y161.339 E.01557
G1 X224.113 Y161.626 E.01183
G1 X223.812 Y162.106 E.0211
G1 X223.482 Y162.494 E.01899
G1 X223.137 Y162.798 E.01711
G1 X222.753 Y163.054 E.0172
G1 X222.332 Y163.259 E.01744
G1 X221.934 Y163.392 E.01563
G1 X221.518 Y163.481 E.01583
G1 X220.905 Y163.528 E.02292
G1 X215.089 Y163.528 E.21662
G1 X214.522 Y163.487 E.02117
G1 X214.069 Y163.392 E.01725
G1 X213.641 Y163.24 E.01691
G1 X213.256 Y163.047 E.01605
G1 X212.846 Y162.777 E.01827
G1 X212.497 Y162.473 E.01723
G1 X212.203 Y162.138 E.0166
G1 X211.946 Y161.753 E.01727
G1 X211.752 Y161.358 E.01639
G1 X211.633 Y161.023 E.01325
G1 X211.516 Y160.494 E.02017
G1 X211.473 Y159.935 E.02089
G1 X211.472 Y148.655 E.42013
G1 X211.442 Y148.363 E.01093
G1 X211.345 Y147.972 E.01501
