; HEADER_BLOCK_START
; generated by OrcaSlicer 2.3.1-beta on 2025-12-09 at 18:56:21
; total layer number: 150
; filament_density: 1.25
; filament_diameter: 1.75
; max_z_height: 30.00
; HEADER_BLOCK_END

; THUMBNAIL_BLOCK_START

;
; THUMBNAIL_BLOCK_END

; THUMBNAIL_BLOCK_START

;
; THUMBNAIL_BLOCK_END

; external perimeters extrusion width = 0.42mm
; perimeters extrusion width = 0.45mm
; infill extrusion width = 0.45mm
; solid infill extrusion width = 0.42mm
; top infill extrusion width = 0.42mm
; first layer extrusion width = 0.50mm

; external perimeters extrusion width = 0.42mm
; perimeters extrusion width = 0.45mm
; infill extrusion width = 0.45mm
; solid infill extrusion width = 0.42mm
; top infill extrusion width = 0.42mm
; first layer extrusion width = 0.50mm

; EXECUTABLE_BLOCK_START
EXCLUDE_OBJECT_DEFINE NAME=파트4.STL_id_0_copy_0 CENTER=151.191,50.9673 POLYGON=[[80.1908,50.9673],[86.1908,40.9673],[222.191,40.9673],[222.191,60.9673],[80.1908,60.9673],[80.1908,50.9673]]
EXCLUDE_OBJECT_DEFINE NAME=카메라_거치대.STL_id_1_copy_0 CENTER=149.67,187.336 POLYGON=[[126.17,107.336],[142.137,107.336],[161.17,117.336],[173.17,247.336],[173.17,267.336],[153.17,267.336],[126.17,124.836],[126.17,107.336]]
M73 P0 R83
M106 S0
M106 P2 S0
;TYPE:Custom
M140 S0
M104 S0
M190 S55
M808 L20
G4 P13500
M808
START_PRINT EXTRUDER_TEMP=220 BED_TEMP=55
G90
G21
M83 ; use relative distances for extrusion
; Filament gcode
M106 S0
M106 P2 S0
;LAYER_CHANGE
;Z:0.2
;HEIGHT:0.2
;BEFORE_LAYER_CHANGE
;0.2
G92 E0

G1 E-.6 F2400
;_SET_FAN_SPEED_CHANGING_LAYER
SET_VELOCITY_LIMIT ACCEL=500 ACCEL_TO_DECEL=250
SET_VELOCITY_LIMIT SQUARE_CORNER_VELOCITY=9
EXCLUDE_OBJECT_START NAME=파트4.STL_id_0_copy_0
G1 Z.4 F30000
G1 X75.537 Y48.341
G1 Z.4
G1 Z.2
G1 E.6 F2400
;TYPE:Brim
;WIDTH:0.5
G1 F3600
G1 X75.923 Y47.742 E.02652
G1 X76.384 Y47.203 E.02642
G1 X76.914 Y46.731 E.02642
G1 X77.502 Y46.335 E.02642
G1 X78.139 Y46.021 E.02645
G1 X78.736 Y45.817 E.0235
G1 X79.431 Y45.667 E.02647
G1 X80.199 Y45.611 E.02869
G1 X80.606 Y45.611 E.01515
G1 X80.747 Y45.562 E.00555
G1 X80.834 Y45.382 E.00745
G1 X80.834 Y40.975 E.16416
G1 X80.883 Y40.26 E.02671
G1 X81.026 Y39.565 E.02642
G1 X81.261 Y38.894 E.02649
G1 X81.491 Y38.424 E.01949
G1 X81.924 Y37.741 E.03009
G1 X82.384 Y37.203 E.02638
G1 X82.914 Y36.731 E.02642
G1 X83.502 Y36.335 E.02642
G1 X84.14 Y36.021 E.02647
G1 X84.684 Y35.832 E.02147
G1 X85.431 Y35.667 E.0285
G1 X86.199 Y35.611 E.02867
G1 X89.183 Y35.611 E.11114
G1 X89.898 Y35.659 E.02671
G1 X90.593 Y35.802 E.02642
G1 X91.264 Y36.037 E.02646
G1 X91.818 Y36.314 E.02306
G1 X92.416 Y36.7 E.02652
G1 X92.955 Y37.161 E.02642
G1 X93.427 Y37.691 E.02642
G1 X93.823 Y38.279 E.02642
G1 X94.137 Y38.916 E.02647
G1 X94.203 Y39.107 E.00753
G1 X94.296 Y39.224 E.00555
G1 X94.419 Y39.261 E.0048
G1 X210.97 Y39.261 E4.34108
G1 X211.111 Y39.212 E.00555
M73 P0 R82
G1 X211.186 Y39.108 E.00478
G1 X211.261 Y38.895 E.00841
G1 X211.537 Y38.341 E.02306
G1 X211.923 Y37.742 E.02652
G1 X212.384 Y37.203 E.02642
G1 X212.914 Y36.731 E.02642
G1 X213.502 Y36.335 E.02642
G1 X214.14 Y36.021 E.02647
G1 X214.684 Y35.832 E.02147
G1 X215.431 Y35.667 E.0285
G1 X216.199 Y35.611 E.02867
G1 X222.183 Y35.611 E.22288
G1 X222.898 Y35.659 E.02671
G1 X223.593 Y35.802 E.02642
G1 X224.264 Y36.038 E.02649
G1 X224.734 Y36.268 E.01949
G1 X225.417 Y36.7 E.03009
G1 X225.955 Y37.161 E.02638
G1 X226.427 Y37.691 E.02642
G1 X226.823 Y38.279 E.02642
G1 X227.137 Y38.916 E.02647
G1 X227.327 Y39.461 E.02147
G1 X227.492 Y40.208 E.0285
G1 X227.547 Y40.976 E.02867
G1 X227.547 Y60.96 E.74433
G1 X227.499 Y61.675 E.02671
G1 X227.356 Y62.37 E.02642
G1 X227.121 Y63.041 E.02649
G1 X226.89 Y63.511 E.01949
G1 X226.458 Y64.193 E.03009
G1 X225.997 Y64.731 E.02638
G1 X225.468 Y65.203 E.02642
G1 X224.879 Y65.599 E.02642
G1 X224.242 Y65.914 E.02647
G1 X223.697 Y66.103 E.02147
G1 X222.95 Y66.268 E.0285
G1 X222.183 Y66.324 E.02867
G1 X216.199 Y66.324 E.22288
G1 X215.483 Y66.275 E.02671
G1 X214.788 Y66.133 E.02642
G1 X214.118 Y65.897 E.02646
G1 X213.564 Y65.621 E.02306
G1 X212.966 Y65.235 E.02652
G1 X212.427 Y64.774 E.02642
G1 X211.955 Y64.244 E.02642
G1 X211.559 Y63.656 E.02642
G1 X211.245 Y63.018 E.02647
G1 X211.055 Y62.474 E.02147
G1 X210.89 Y61.727 E.0285
G1 X210.834 Y60.959 E.02867
G1 X210.834 Y55.202 E.21443
G1 X210.786 Y55.061 E.00555
G1 X210.606 Y54.973 E.00745
G1 X94.776 Y54.973 E4.31423
G1 X94.635 Y55.022 E.00555
G1 X94.547 Y55.202 E.00745
G1 X94.547 Y60.96 E.21445
G1 X94.499 Y61.675 E.02671
G1 X94.356 Y62.37 E.02642
G1 X94.121 Y63.041 E.02649
G1 X93.89 Y63.511 E.01949
G1 X93.458 Y64.193 E.03009
G1 X92.997 Y64.731 E.02638
G1 X92.468 Y65.203 E.02642
G1 X91.879 Y65.599 E.02642
G1 X91.242 Y65.913 E.02645
G1 X90.645 Y66.118 E.0235
G1 X89.951 Y66.268 E.02647
G1 X89.183 Y66.324 E.02869
G1 X80.199 Y66.324 E.33462
G1 X79.483 Y66.275 E.02671
G1 X78.788 Y66.133 E.02642
G1 X78.118 Y65.897 E.02646
G1 X77.564 Y65.621 E.02306
G1 X76.966 Y65.235 E.02652
G1 X76.427 Y64.774 E.02642
G1 X75.955 Y64.244 E.02642
G1 X75.559 Y63.656 E.02642
G1 X75.245 Y63.019 E.02645
G1 X75.04 Y62.422 E.0235
G1 X74.89 Y61.727 E.02647
G1 X74.834 Y60.959 E.02869
G1 X74.834 Y50.975 E.37187
G1 X74.883 Y50.26 E.02671
G1 X75.026 Y49.565 E.02642
G1 X75.261 Y48.895 E.02646
G1 X75.519 Y48.376 E.02157
G1 X75.929 Y48.581 F30000
G1 F3600
G1 X75.939 Y48.561 E.00082
G1 X76.286 Y48.024 E.02381
G1 X76.706 Y47.531 E.02411
G1 X77.188 Y47.099 E.02411
G1 X77.724 Y46.737 E.02411
G1 X78.307 Y46.448 E.02423
G1 X78.867 Y46.256 E.02204
G1 X79.506 Y46.12 E.02432
G1 X80.211 Y46.068 E.02633
G1 X80.594 Y46.068 E.01429
G1 X80.766 Y46.039 E.00647
G1 X80.883 Y45.999 E.0046
G1 X81.055 Y45.896 E.00749
G1 X81.163 Y45.751 E.00674
G1 X81.239 Y45.596 E.00639
G1 X81.292 Y45.367 E.00878
G1 X81.292 Y40.995 E.16283
G1 X81.339 Y40.312 E.02549
G1 X81.47 Y39.678 E.02411
G1 X81.681 Y39.078 E.02369
G1 X81.887 Y38.654 E.01757
G1 X82.287 Y38.022 E.02785
G1 X82.719 Y37.518 E.02472
G1 X83.188 Y37.099 E.02342
G1 X83.724 Y36.737 E.02411
G1 X84.309 Y36.447 E.0243
G1 X84.817 Y36.27 E.02003
G1 X85.508 Y36.119 E.02633
G1 X86.211 Y36.068 E.02626
G1 X89.172 Y36.068 E.11031
G1 X89.846 Y36.115 E.02515
G1 X90.48 Y36.247 E.02411
G1 X91.093 Y36.463 E.02421
G1 X91.597 Y36.716 E.02102
G1 X92.135 Y37.062 E.02381
G1 X92.627 Y37.482 E.02411
G1 X93.07 Y37.979 E.0248
G1 X93.431 Y38.517 E.02411
G1 X93.711 Y39.086 E.02362
G1 X93.768 Y39.247 E.00637
G1 X93.928 Y39.496 E.01103
G1 X94.084 Y39.627 E.00757
G1 X94.285 Y39.697 E.00792
G1 X94.429 Y39.718 E.00544
G1 X210.959 Y39.718 E4.34029
G1 X211.247 Y39.649 E.01103
G1 X211.425 Y39.543 E.00771
G1 X211.483 Y39.477 E.00328
G1 X211.622 Y39.246 E.01003
G1 X211.686 Y39.065 E.00714
G1 X211.939 Y38.561 E.02102
G1 X212.297 Y38.009 E.02449
G1 X212.719 Y37.518 E.02411
G1 X213.188 Y37.099 E.02342
G1 X213.724 Y36.737 E.02411
G1 X214.309 Y36.447 E.0243
G1 X214.801 Y36.275 E.01943
G1 X215.508 Y36.119 E.02693
G1 X216.221 Y36.068 E.02663
G1 X222.163 Y36.068 E.22133
G1 X222.846 Y36.115 E.02549
G1 X223.48 Y36.247 E.02411
G1 X224.08 Y36.457 E.02369
G1 X224.504 Y36.664 E.01757
G1 X225.136 Y37.064 E.02785
G1 X225.64 Y37.495 E.02472
G1 X226.07 Y37.979 E.02411
G1 X226.431 Y38.517 E.02411
G1 X226.711 Y39.086 E.02362
G1 X226.883 Y39.578 E.01943
G1 X227.036 Y40.264 E.02619
G1 X227.09 Y40.997 E.02737
G1 X227.09 Y60.94 E.74278
G1 X227.043 Y61.622 E.02549
G1 X226.912 Y62.256 E.02411
G1 X226.701 Y62.856 E.02369
G1 X226.494 Y63.281 E.01757
G1 X226.095 Y63.913 E.02785
G1 X225.676 Y64.404 E.02403
G1 X225.194 Y64.835 E.02411
G1 X224.657 Y65.198 E.02411
G1 X224.073 Y65.487 E.0243
G1 X223.58 Y65.66 E.01943
G1 X222.874 Y65.815 E.02693
G1 X222.161 Y65.867 E.02663
G1 X216.219 Y65.867 E.22133
G1 X215.536 Y65.82 E.02549
G1 X214.902 Y65.688 E.02411
G1 X214.289 Y65.472 E.02421
G1 X213.784 Y65.219 E.02102
G1 X213.247 Y64.873 E.02381
G1 X212.741 Y64.44 E.0248
G1 X212.323 Y63.97 E.02342
G1 X211.96 Y63.434 E.02411
G1 X211.671 Y62.849 E.0243
G1 X211.498 Y62.357 E.01943
G1 X211.343 Y61.651 E.02693
G1 X211.292 Y60.938 E.02663
G1 X211.292 Y55.213 E.2132
G1 X211.222 Y54.925 E.01103
G1 X211.119 Y54.753 E.00749
G1 X210.974 Y54.644 E.00674
G1 X210.82 Y54.569 E.00639
G1 X210.59 Y54.516 E.00878
G1 X94.787 Y54.516 E4.31322
G1 X94.499 Y54.585 E.01103
G1 X94.326 Y54.688 E.00749
G1 X94.218 Y54.833 E.00674
G1 X94.143 Y54.988 E.00639
G1 X94.09 Y55.218 E.00878
G1 X94.09 Y60.94 E.21312
G1 X94.046 Y61.604 E.02481
G1 X93.912 Y62.256 E.0248
G1 X93.701 Y62.856 E.02369
G1 X93.494 Y63.281 E.01757
G1 X93.083 Y63.928 E.02858
G1 X92.663 Y64.417 E.02399
G1 X92.194 Y64.835 E.02342
G1 X91.657 Y65.198 E.02411
G1 X91.074 Y65.487 E.02423
G1 X90.515 Y65.679 E.02204
G1 X89.876 Y65.815 E.02432
G1 X89.161 Y65.867 E.0267
G1 X80.209 Y65.866 E.33341
G1 X79.536 Y65.82 E.02515
G1 X78.902 Y65.688 E.02411
G1 X78.305 Y65.478 E.02358
G1 X77.784 Y65.219 E.02166
G1 X77.232 Y64.862 E.02449
G1 X76.755 Y64.453 E.02342
G1 X76.323 Y63.97 E.02411
G1 X75.96 Y63.434 E.02411
G1 X75.672 Y62.851 E.02423
G1 X75.479 Y62.291 E.02204
G1 X75.346 Y61.672 E.02361
G1 X75.292 Y60.938 E.02741
G1 X75.292 Y50.995 E.37032
G1 X75.339 Y50.312 E.02549
G1 X75.47 Y49.678 E.02411
G1 X75.68 Y49.081 E.02358
G1 X75.911 Y48.616 E.01934
G1 X76.321 Y48.82 F30000
G1 F3600
G1 X76.341 Y48.781 E.00165
G1 X76.648 Y48.305 E.02111
G1 X77.027 Y47.858 E.02182
G1 X77.463 Y47.467 E.02181
G1 X77.947 Y47.138 E.02181
G1 X78.476 Y46.875 E.022
G1 X78.997 Y46.695 E.02054
G1 X79.58 Y46.572 E.02216
G1 X80.223 Y46.526 E.02401
G1 X80.584 Y46.525 E.01344
G1 X80.922 Y46.468 E.01279
G1 X81.126 Y46.386 E.00818
G1 X81.278 Y46.295 E.00659
G1 X81.43 Y46.158 E.00763
G1 X81.524 Y46.032 E.00586
G1 X81.647 Y45.801 E.00975
G1 X81.685 Y45.694 E.00422
G1 X81.749 Y45.354 E.01289
G1 X81.749 Y41.006 E.16194
G1 X81.794 Y40.366 E.02392
G1 X81.914 Y39.792 E.02181
G1 X82.107 Y39.247 E.02153
G1 X82.291 Y38.871 E.01563
G1 X82.662 Y38.287 E.02576
G1 X83.053 Y37.832 E.02232
G1 X83.477 Y37.456 E.02113
G1 X83.963 Y37.129 E.02183
G1 X84.479 Y36.873 E.02143
G1 X84.949 Y36.709 E.01857
G1 X85.564 Y36.575 E.02342
G1 X86.232 Y36.525 E.02497
G1 X89.161 Y36.526 E.10909
G1 X89.792 Y36.571 E.02357
G1 X90.365 Y36.691 E.02181
G1 X90.906 Y36.882 E.02134
G1 X91.377 Y37.117 E.01962
G1 X91.853 Y37.425 E.02113
G1 X92.313 Y37.817 E.02249
G1 X92.702 Y38.253 E.02176
G1 X93.029 Y38.739 E.02182
G1 X93.388 Y39.501 E.03139
G1 X93.538 Y39.734 E.01031
G1 X93.642 Y39.853 E.0059
G1 X93.78 Y39.969 E.00672
G1 X93.943 Y40.061 E.00695
G1 X94.229 Y40.15 E.01116
G1 X94.437 Y40.175 E.00782
G1 X210.945 Y40.175 E4.33949
G1 X211.346 Y40.095 E.01521
G1 X211.49 Y40.036 E.0058
G1 X211.65 Y39.941 E.00693
G1 X211.771 Y39.84 E.00588
G1 X211.88 Y39.704 E.00646
G1 X212.008 Y39.491 E.00929
G1 X212.111 Y39.238 E.01017
G1 X212.341 Y38.782 E.01902
G1 X212.658 Y38.291 E.02177
G1 X213.039 Y37.846 E.02183
G1 X213.463 Y37.467 E.02115
G1 X213.963 Y37.129 E.02251
G1 X214.479 Y36.873 E.02145
G1 X214.919 Y36.718 E.01736
G1 X215.564 Y36.575 E.02461
G1 X216.242 Y36.525 E.02533
G1 X222.152 Y36.525 E.22012
G1 X222.793 Y36.571 E.02392
G1 X223.348 Y36.686 E.02113
G1 X223.896 Y36.877 E.02161
G1 X224.288 Y37.068 E.01622
G1 X224.856 Y37.427 E.02503
G1 X225.326 Y37.829 E.02303
G1 X225.713 Y38.267 E.02178
G1 X226.029 Y38.739 E.02114
G1 X226.291 Y39.271 E.0221
G1 X226.445 Y39.711 E.01738
G1 X226.58 Y40.322 E.02328
G1 X226.633 Y41.019 E.02606
G1 X226.633 Y60.919 E.7412
G1 X226.587 Y61.569 E.02427
G1 X226.467 Y62.142 E.02181
G1 X226.281 Y62.673 E.02094
G1 X226.098 Y63.051 E.01566
G1 X225.731 Y63.633 E.02562
G1 X225.341 Y64.09 E.02237
G1 X224.904 Y64.479 E.0218
G1 X224.419 Y64.806 E.02181
G1 X223.902 Y65.062 E.02145
G1 X223.463 Y65.217 E.01736
G1 X222.818 Y65.36 E.02461
G1 X222.14 Y65.41 E.02533
G1 X216.239 Y65.41 E.21977
G1 X215.607 Y65.366 E.02358
G1 X215.016 Y65.244 E.02249
G1 X214.46 Y65.046 E.02197
G1 X214.005 Y64.817 E.01898
G1 X213.529 Y64.51 E.02111
G1 X213.069 Y64.118 E.02249
G1 X212.679 Y63.681 E.02182
G1 X212.352 Y63.195 E.02183
G1 X212.097 Y62.679 E.02145
G1 X211.941 Y62.239 E.01736
G1 X211.799 Y61.594 E.02461
G1 X211.749 Y60.916 E.02533
G1 X211.749 Y55.227 E.2119
G1 X211.668 Y54.826 E.01521
G1 X211.61 Y54.682 E.0058
G1 X211.519 Y54.53 E.0066
G1 X211.382 Y54.378 E.00763
G1 X211.256 Y54.284 E.00586
G1 X210.918 Y54.123 E.01394
G1 X210.578 Y54.059 E.01289
G1 X94.801 Y54.059 E4.31224
G1 X94.4 Y54.139 E.01521
G1 X94.256 Y54.198 E.0058
G1 X94.104 Y54.289 E.0066
G1 X93.952 Y54.426 E.00763
G1 X93.858 Y54.552 E.00586
G1 X93.737 Y54.779 E.00956
G1 X93.646 Y55.11 E.0128
G1 X93.633 Y55.225 E.00432
G1 X93.633 Y60.929 E.21243
G1 X93.59 Y61.552 E.02325
G1 X93.472 Y62.125 E.0218
G1 X93.281 Y62.673 E.0216
G1 X93.09 Y63.064 E.01621
G1 X92.72 Y63.647 E.02573
G1 X92.329 Y64.102 E.02233
G1 X91.905 Y64.479 E.02115
G1 X91.435 Y64.797 E.02114
G1 X90.89 Y65.067 E.02265
G1 X90.384 Y65.239 E.01989
G1 X89.821 Y65.359 E.02146
G1 X89.14 Y65.41 E.02544
G1 X80.23 Y65.409 E.33185
G1 X79.608 Y65.366 E.02324
G1 X79.034 Y65.249 E.02183
G1 X78.475 Y65.053 E.02203
G1 X78.005 Y64.817 E.0196
G1 X77.514 Y64.499 E.02177
G1 X77.082 Y64.131 E.02115
G1 X76.69 Y63.695 E.02182
G1 X76.361 Y63.211 E.02181
G1 X76.098 Y62.682 E.022
G1 X75.919 Y62.16 E.02056
G1 X75.801 Y61.615 E.02076
G1 X75.749 Y60.916 E.02614
G1 X75.749 Y51.016 E.36874
G1 X75.794 Y50.366 E.02427
G1 X75.91 Y49.81 E.02113
G1 X76.099 Y49.268 E.0214
G1 X76.304 Y48.856 E.01711
G1 X76.713 Y49.059 F30000
G1 F3600
G1 X76.736 Y49.014 E.00187
G1 X77.011 Y48.585 E.01899
G1 X77.35 Y48.185 E.01954
G1 X77.738 Y47.834 E.0195
G1 X78.171 Y47.539 E.0195
G1 X78.645 Y47.301 E.01974
G1 X79.128 Y47.135 E.01903
G1 X79.653 Y47.025 E.01999
G1 X80.235 Y46.983 E.02172
G1 X80.667 Y46.974 E.01611
G1 X81.104 Y46.888 E.01657
G1 X81.365 Y46.775 E.01061
G1 X81.592 Y46.628 E.01008
G1 X81.728 Y46.505 E.00683
G1 X81.885 Y46.311 E.00929
G1 X82.08 Y45.946 E.01541
G1 X82.136 Y45.77 E.00685
G1 X82.196 Y45.451 E.01212
G1 X82.206 Y41.018 E.16512
G1 X82.25 Y40.42 E.02232
G1 X82.354 Y39.925 E.01884
G1 X82.526 Y39.432 E.01945
G1 X82.695 Y39.088 E.01427
G1 X83.037 Y38.552 E.02367
G1 X83.373 Y38.161 E.01922
G1 X83.751 Y37.824 E.01884
G1 X84.186 Y37.53 E.01956
G1 X84.648 Y37.299 E.01926
G1 X85.082 Y37.148 E.0171
G1 X85.62 Y37.031 E.02052
G1 X86.254 Y36.983 E.02368
G1 X89.15 Y36.983 E.10785
G1 X89.738 Y37.026 E.02197
G1 X90.233 Y37.13 E.01884
G1 X90.719 Y37.3 E.01916
G1 X91.156 Y37.519 E.01822
G1 X91.572 Y37.787 E.01844
G1 X91.999 Y38.151 E.02088
G1 X92.334 Y38.527 E.01875
G1 X92.625 Y38.956 E.01931
G1 X93.008 Y39.754 E.03295
G1 X93.199 Y40.041 E.01287
G1 X93.353 Y40.207 E.00842
G1 X93.561 Y40.369 E.00982
G1 X93.816 Y40.5 E.01069
G1 X94.186 Y40.605 E.01429
G1 X94.444 Y40.632 E.00968
G1 X210.932 Y40.632 E4.33873
G1 X211.528 Y40.513 E.02265
G1 X211.877 Y40.338 E.01453
G1 X212.056 Y40.198 E.00847
G1 X212.233 Y39.993 E.01008
G1 X212.397 Y39.731 E.01152
G1 X212.742 Y39.003 E.03001
G1 X213.031 Y38.558 E.01977
G1 X213.374 Y38.16 E.01956
G1 X213.752 Y37.823 E.01887
G1 X214.186 Y37.53 E.01951
G1 X214.65 Y37.299 E.01931
G1 X215.037 Y37.161 E.01529
G1 X215.64 Y37.028 E.02302
G1 X216.264 Y36.982 E.02329
G1 X222.131 Y36.982 E.21853
G1 X222.739 Y37.026 E.0227
G1 X223.234 Y37.131 E.01887
G1 X223.713 Y37.297 E.01886
G1 X224.071 Y37.472 E.01485
G1 X224.575 Y37.79 E.02221
G1 X225.011 Y38.163 E.02134
G1 X225.344 Y38.54 E.01876
G1 X225.627 Y38.96 E.01887
G1 X225.872 Y39.456 E.02056
G1 X226.006 Y39.844 E.01532
G1 X226.125 Y40.379 E.0204
G1 X226.176 Y41.042 E.02475
G1 X226.176 Y60.898 E.73958
G1 X226.132 Y61.515 E.02303
G1 X226.023 Y62.028 E.01952
G1 X225.861 Y62.489 E.01823
G1 X225.701 Y62.822 E.01374
G1 X225.367 Y63.353 E.02337
G1 X225.007 Y63.776 E.02069
G1 X224.616 Y64.122 E.01947
G1 X224.18 Y64.414 E.01951
G1 X223.732 Y64.636 E.01864
G1 X223.345 Y64.774 E.01529
G1 X222.761 Y64.904 E.02228
G1 X222.118 Y64.952 E.02403
G1 X216.259 Y64.952 E.2182
G1 X215.679 Y64.913 E.02166
G1 X215.149 Y64.804 E.02016
G1 X214.632 Y64.621 E.02041
G1 X214.226 Y64.416 E.01696
G1 X213.81 Y64.148 E.01845
G1 X213.397 Y63.797 E.02018
G1 X213.047 Y63.407 E.0195
G1 X212.744 Y62.957 E.02022
G1 X212.522 Y62.508 E.01864
G1 X212.385 Y62.121 E.01529
G1 X212.251 Y61.518 E.02302
G1 X212.206 Y60.894 E.02329
